src/flutter_app/assets/presets/bw-high.cube
# PoseCraft LUT preset
# Generated automatically for Phase 1
TITLE "PoseCraft Preset"
LUT_3D_SIZE 9
DOMAIN_MIN 0.0 0.0 0.0
DOMAIN_MAX 1.0 1.0 1.0
0.000000 0.000000 0.000000
0.000000 0.000000 0.000000
0.000000 0.000000 0.000000
0.000000 0.000000 0.000000
0.000000 0.000000 0.000000
0.000000 0.000000 0.000000
0.000000 0.000000 0.000000
0.000000 0.000000 0.000000
0.000000 0.000000 0.000000
0.000000 0.000000 0.000000
0.000000 0.000000 0.000000
0.000000 0.000000 0.000000
0.000000 0.000000 0.000000
0.000000 0.000000 0.000000
0.000000 0.000000 0.000000
0.005531 0.005531 0.005531
0.015939 0.015939 0.015939
0.027241 0.027241 0.027241
0.000000 0.000000 0.000000
0.007026 0.007026 0.007026
0.017568 0.017568 0.017568
0.029003 0.029003 0.029003
0.041331 0.041331 0.041331
0.054553 0.054553 0.054553
0.068668 0.068668 0.068668
0.083677 0.083677 0.083677
0.099579 0.099579 0.099579
0.056601 0.056601 0.056601
0.070850 0.070850 0.070850
0.085992 0.085992 0.085992
0.102027 0.102027 0.102027
0.118956 0.118956 0.118956
0.136779 0.136779 0.136779
0.155495 0.155495 0.155495
0.175104 0.175104 0.175104
0.195607 0.195607 0.195607
0.139513 0.139513 0.139513
0.158362 0.158362 0.158362
0.178105 0.178105 0.178105
0.198741 0.198741 0.198741
0.220271 0.220271 0.220271
0.242694 0.242694 0.242694
0.266010 0.266010 0.266010
0.290220 0.290220 0.290220
0.315324 0.315324 0.315324
0.246114 0.246114 0.246114
0.269564 0.269564 0.269564
0.293907 0.293907 0.293907
0.319144 0.319144 0.319144
0.345274 0.345274 0.345274
0.372298 0.372298 0.372298
0.400215 0.400215 0.400215
0.429026 0.429026 0.429026
0.458730 0.458730 0.458730
0.376404 0.376404 0.376404
0.404455 0.404455 0.404455
0.433398 0.433398 0.433398
0.463236 0.463236 0.463236
0.493967 0.493967 0.493967
0.525009 0.525009 0.525009
0.555191 0.555191 0.555191
0.584480 0.584480 0.584480
0.612875 0.612875 0.612875
0.529567 0.529567 0.529567
0.559616 0.559616 0.559616
0.588771 0.588771 0.588771
0.617033 0.617033 0.617033
0.644402 0.644402 0.644402
0.670877 0.670877 0.670877
0.696458 0.696458 0.696458
0.721146 0.721146 0.721146
0.744941 0.744941 0.744941
0.674748 0.674748 0.674748
0.700197 0.700197 0.700197
0.724751 0.724751 0.724751
0.748413 0.748413 0.748413
0.771181 0.771181 0.771181
0.793055 0.793055 0.793055
0.814036 0.814036 0.814036
0.834124 0.834124 0.834124
0.853318 0.853318 0.853318
0.000000 0.000000 0.000000
0.000000 0.000000 0.000000
0.000000 0.000000 0.000000
0.000000 0.000000 0.000000
0.000000 0.000000 0.000000
0.000000 0.000000 0.000000
0.000000 0.000000 0.000000
0.000000 0.000000 0.000000
0.000412 0.000412 0.000412
0.000000 0.000000 0.000000
0.000000 0.000000 0.000000
0.000000 0.000000 0.000000
0.001837 0.001837 0.001837
0.011908 0.011908 0.011908
0.022873 0.022873 0.022873
0.034731 0.034731 0.034731
0.047483 0.047483 0.047483
0.061128 0.061128 0.061128
0.024584 0.024584 0.024584
0.036576 0.036576 0.036576
0.049461 0.049461 0.049461
0.063239 0.063239 0.063239
0.077911 0.077911 0.077911
0.093476 0.093476 0.093476
0.109935 0.109935 0.109935
0.127287 0.127287 0.127287
0.145533 0.145533 0.145533
0.095874 0.095874 0.095874
0.112466 0.112466 0.112466
0.129951 0.129951 0.129951
0.148330 0.148330 0.148330
0.167603 0.167603 0.167603
0.187768 0.187768 0.187768
0.208828 0.208828 0.208828
0.230781 0.230781 0.230781
0.253627 0.253627 0.253627
0.190852 0.190852 0.190852
0.212045 0.212045 0.212045
0.234131 0.234131 0.234131
0.257110 0.257110 0.257110
0.280983 0.280983 0.280983
0.305750 0.305750 0.305750
0.331410 0.331410 0.331410
0.357963 0.357963 0.357963
0.385410 0.385410 0.385410
0.309520 0.309520 0.309520
0.335313 0.335313 0.335313
0.362000 0.362000 0.362000
0.389580 0.389580 0.389580
0.418053 0.418053 0.418053
0.447421 0.447421 0.447421
0.477681 0.477681 0.477681
0.508765 0.508765 0.508765
0.539417 0.539417 0.539417
0.451876 0.451876 0.451876
0.482270 0.482270 0.482270
0.513392 0.513392 0.513392
0.543912 0.543912 0.543912
0.573537 0.573537 0.573537
0.602270 0.602270 0.602270
0.630109 0.630109 0.630109
0.657054 0.657054 0.657054
0.683106 0.683106 0.683106
0.606478 0.606478 0.606478
0.634183 0.634183 0.634183
0.660995 0.660995 0.660995
0.686914 0.686914 0.686914
0.711939 0.711939 0.711939
0.736071 0.736071 0.736071
0.759309 0.759309 0.759309
0.781654 0.781654 0.781654
0.803105 0.803105 0.803105
0.739593 0.739593 0.739593
0.762698 0.762698 0.762698
0.784909 0.784909 0.784909
0.806227 0.806227 0.806227
0.826652 0.826652 0.826652
0.846183 0.846183 0.846183
0.864820 0.864820 0.864820
0.882565 0.882565 0.882565
0.899415 0.899415 0.899415
0.000000 0.000000 0.000000
0.000000 0.000000 0.000000
0.000000 0.000000 0.000000
0.000000 0.000000 0.000000
0.000000 0.000000 0.000000
0.000000 0.000000 0.000000
0.006496 0.006496 0.006496
0.016991 0.016991 0.016991
0.028378 0.028378 0.028378
0.000000 0.000000 0.000000
0.008004 0.008004 0.008004
0.018632 0.018632 0.018632
0.030153 0.030153 0.030153
0.042568 0.042568 0.042568
0.055876 0.055876 0.055876
0.070077 0.070077 0.070077
0.085172 0.085172 0.085172
0.101161 0.101161 0.101161
0.057937 0.057937 0.057937
0.072272 0.072272 0.072272
0.087500 0.087500 0.087500
0.103622 0.103622 0.103622
0.120637 0.120637 0.120637
0.138546 0.138546 0.138546
0.157348 0.157348 0.157348
0.177043 0.177043 0.177043
0.197633 0.197633 0.197633
0.141293 0.141293 0.141293
0.160228 0.160228 0.160228
0.180057 0.180057 0.180057
0.200779 0.200779 0.200779
0.222395 0.222395 0.222395
0.244905 0.244905 0.244905
0.268307 0.268307 0.268307
0.292604 0.292604 0.292604
0.317793 0.317793 0.317793
0.248338 0.248338 0.248338
0.271874 0.271874 0.271874
0.296303 0.296303 0.296303
0.321626 0.321626 0.321626
0.347843 0.347843 0.347843
0.374953 0.374953 0.374953
0.402956 0.402956 0.402956
0.431853 0.431853 0.431853
0.461643 0.461643 0.461643
0.379072 0.379072 0.379072
0.407208 0.407208 0.407208
0.436239 0.436239 0.436239
0.466162 0.466162 0.466162
0.496979 0.496979 0.496979
0.527960 0.527960 0.527960
0.558056 0.558056 0.558056
0.587259 0.587259 0.587259
0.615568 0.615568 0.615568
0.532505 0.532505 0.532505
0.562468 0.562468 0.562468
0.591537 0.591537 0.591537
0.619713 0.619713 0.619713
0.646995 0.646995 0.646995
0.673384 0.673384 0.673384
0.698879 0.698879 0.698879
0.723481 0.723481 0.723481
0.747190 0.747190 0.747190
0.677243 0.677243 0.677243
0.702605 0.702605 0.702605
0.727074 0.727074 0.727074
0.750649 0.750649 0.750649
0.773330 0.773330 0.773330
0.795119 0.795119 0.795119
0.816013 0.816013 0.816013
0.836015 0.836015 0.836015
0.855123 0.855123 0.855123
0.798291 0.798291 0.798291
0.819053 0.819053 0.819053
0.838921 0.838921 0.838921
0.857895 0.857895 0.857895
0.875977 0.875977 0.875977
0.893164 0.893164 0.893164
0.909458 0.909458 0.909458
0.924859 0.924859 0.924859
0.939366 0.939366 0.939366
0.000000 0.000000 0.000000
0.000000 0.000000 0.000000
0.000000 0.000000 0.000000
0.002770 0.002770 0.002770
0.012927 0.012927 0.012927
0.023978 0.023978 0.023978
0.035922 0.035922 0.035922
0.048760 0.048760 0.048760
0.062492 0.062492 0.062492
0.025703 0.025703 0.025703
0.037780 0.037780 0.037780
0.050751 0.050751 0.050751
0.064616 0.064616 0.064616
0.079374 0.079374 0.079374
0.095025 0.095025 0.095025
0.111570 0.111570 0.111570
0.129009 0.129009 0.129009
0.147341 0.147341 0.147341
0.097436 0.097436 0.097436
0.114114 0.114114 0.114114
0.131686 0.131686 0.131686
0.150151 0.150151 0.150151
0.169509 0.169509 0.169509
0.189762 0.189762 0.189762
0.210907 0.210907 0.210907
0.232946 0.232946 0.232946
0.255879 0.255879 0.255879
0.192858 0.192858 0.192858
0.214137 0.214137 0.214137
0.236309 0.236309 0.236309
0.259375 0.259375 0.259375
0.283334 0.283334 0.283334
0.308187 0.308187 0.308187
0.333933 0.333933 0.333933
0.360573 0.360573 0.360573
0.388106 0.388106 0.388106
0.311970 0.311970 0.311970
0.337849 0.337849 0.337849
0.364622 0.364622 0.364622
0.392288 0.392288 0.392288
0.420848 0.420848 0.420848
0.450301 0.450301 0.450301
0.480648 0.480648 0.480648
0.511761 0.511761 0.511761
0.542328 0.542328 0.542328
0.454770 0.454770 0.454770
0.485250 0.485250 0.485250
0.516376 0.516376 0.516376
0.546809 0.546809 0.546809
0.576349 0.576349 0.576349
0.604995 0.604995 0.604995
0.632747 0.632747 0.632747
0.659607 0.659607 0.659607
0.685572 0.685572 0.685572
0.609190 0.609190 0.609190
0.636809 0.636809 0.636809
0.663535 0.663535 0.663535
0.689368 0.689368 0.689368
0.714307 0.714307 0.714307
0.738352 0.738352 0.738352
0.761504 0.761504 0.761504
0.783763 0.783763 0.783763
0.805128 0.805128 0.805128
0.741861 0.741861 0.741861
0.764880 0.764880 0.764880
0.787005 0.787005 0.787005
0.808237 0.808237 0.808237
0.828575 0.828575 0.828575
0.848020 0.848020 0.848020
0.866572 0.866572 0.866572
0.884229 0.884229 0.884229
0.900994 0.900994 0.900994
0.850843 0.850843 0.850843
0.869261 0.869261 0.869261
0.886786 0.886786 0.886786
0.903417 0.903417 0.903417
0.919155 0.919155 0.919155
0.933999 0.933999 0.933999
0.947950 0.947950 0.947950
0.961007 0.961007 0.961007
0.973171 0.973171 0.973171
0.000000 0.000000 0.000000
0.008991 0.008991 0.008991
0.019705 0.019705 0.019705
0.031312 0.031312 0.031312
0.043813 0.043813 0.043813
0.057207 0.057207 0.057207
0.071495 0.071495 0.071495
0.086676 0.086676 0.086676
0.102751 0.102751 0.102751
0.059281 0.059281 0.059281
0.073702 0.073702 0.073702
0.089017 0.089017 0.089017
0.105225 0.105225 0.105225
0.122326 0.122326 0.122326
0.140321 0.140321 0.140321
0.159209 0.159209 0.159209
0.178991 0.178991 0.178991
0.199666 0.199666 0.199666
0.143081 0.143081 0.143081
0.162103 0.162103 0.162103
0.182018 0.182018 0.182018
0.202826 0.202826 0.202826
0.224528 0.224528 0.224528
0.247124 0.247124 0.247124
0.270613 0.270613 0.270613
0.294995 0.294995 0.294995
0.320271 0.320271 0.320271
0.250570 0.250570 0.250570
0.274192 0.274192 0.274192
0.298708 0.298708 0.298708
0.324117 0.324117 0.324117
0.350420 0.350420 0.350420
0.377616 0.377616 0.377616
0.405705 0.405705 0.405705
0.434688 0.434688 0.434688
0.464565 0.464565 0.464565
0.381748 0.381748 0.381748
0.409971 0.409971 0.409971
0.439087 0.439087 0.439087
0.469097 0.469097 0.469097
0.500000 0.500000 0.500000
0.530903 0.530903 0.530903
0.560913 0.560913 0.560913
0.590029 0.590029 0.590029
0.618252 0.618252 0.618252
0.535435 0.535435 0.535435
0.565312 0.565312 0.565312
0.594295 0.594295 0.594295
0.622384 0.622384 0.622384
0.649580 0.649580 0.649580
0.675883 0.675883 0.675883
0.701292 0.701292 0.701292
0.725808 0.725808 0.725808
0.749430 0.749430 0.749430
0.679729 0.679729 0.679729
0.705005 0.705005 0.705005
0.729387 0.729387 0.729387
0.752876 0.752876 0.752876
0.775472 0.775472 0.775472
0.797174 0.797174 0.797174
0.817982 0.817982 0.817982
0.837897 0.837897 0.837897
0.856919 0.856919 0.856919
0.800334 0.800334 0.800334
0.821009 0.821009 0.821009
0.840791 0.840791 0.840791
0.859679 0.859679 0.859679
0.877674 0.877674 0.877674
0.894775 0.894775 0.894775
0.910983 0.910983 0.910983
0.926298 0.926298 0.926298
0.940719 0.940719 0.940719
0.897249 0.897249 0.897249
0.913324 0.913324 0.913324
0.928505 0.928505 0.928505
0.942793 0.942793 0.942793
0.956187 0.956187 0.956187
0.968688 0.968688 0.968688
0.980295 0.980295 0.980295
0.991009 0.991009 0.991009
1.000000 1.000000 1.000000
0.026829 0.026829 0.026829
0.038993 0.038993 0.038993
0.052050 0.052050 0.052050
0.066001 0.066001 0.066001
0.080845 0.080845 0.080845
0.096583 0.096583 0.096583
0.113214 0.113214 0.113214
0.130739 0.130739 0.130739
0.149157 0.149157 0.149157
0.099006 0.099006 0.099006
0.115771 0.115771 0.115771
0.133428 0.133428 0.133428
0.151980 0.151980 0.151980
0.171425 0.171425 0.171425
0.191763 0.191763 0.191763
0.212995 0.212995 0.212995
0.235120 0.235120 0.235120
0.258139 0.258139 0.258139
0.194872 0.194872 0.194872
0.216237 0.216237 0.216237
0.238496 0.238496 0.238496
0.261648 0.261648 0.261648
0.285693 0.285693 0.285693
0.310632 0.310632 0.310632
0.336465 0.336465 0.336465
0.363191 0.363191 0.363191
0.390810 0.390810 0.390810
0.314428 0.314428 0.314428
0.340393 0.340393 0.340393
0.367253 0.367253 0.367253
0.395005 0.395005 0.395005
0.423651 0.423651 0.423651
0.453191 0.453191 0.453191
0.483624 0.483624 0.483624
0.514750 0.514750 0.514750
0.545230 0.545230 0.545230
0.457672 0.457672 0.457672
0.488239 0.488239 0.488239
0.519352 0.519352 0.519352
0.549699 0.549699 0.549699
0.579152 0.579152 0.579152
0.607712 0.607712 0.607712
0.635378 0.635378 0.635378
0.662151 0.662151 0.662151
0.688030 0.688030 0.688030
0.611894 0.611894 0.611894
0.639427 0.639427 0.639427
0.666067 0.666067 0.666067
0.691813 0.691813 0.691813
0.716666 0.716666 0.716666
0.740625 0.740625 0.740625
0.763691 0.763691 0.763691
0.785863 0.785863 0.785863
0.807142 0.807142 0.807142
0.744121 0.744121 0.744121
0.767054 0.767054 0.767054
0.789093 0.789093 0.789093
0.810238 0.810238 0.810238
0.830491 0.830491 0.830491
0.849849 0.849849 0.849849
0.868314 0.868314 0.868314
0.885886 0.885886 0.885886
0.902564 0.902564 0.902564
0.852659 0.852659 0.852659
0.870991 0.870991 0.870991
0.888430 0.888430 0.888430
0.904975 0.904975 0.904975
0.920626 0.920626 0.920626
0.935384 0.935384 0.935384
0.949249 0.949249 0.949249
0.962220 0.962220 0.962220
0.974297 0.974297 0.974297
0.937508 0.937508 0.937508
0.951240 0.951240 0.951240
0.964078 0.964078 0.964078
0.976022 0.976022 0.976022
0.987073 0.987073 0.987073
0.997230 0.997230 0.997230
1.000000 1.000000 1.000000
1.000000 1.000000 1.000000
1.000000 1.000000 1.000000
0.060634 0.060634 0.060634
0.075141 0.075141 0.075141
0.090542 0.090542 0.090542
0.106836 0.106836 0.106836
0.124023 0.124023 0.124023
0.142105 0.142105 0.142105
0.161079 0.161079 0.161079
0.180947 0.180947 0.180947
0.201709 0.201709 0.201709
0.144877 0.144877 0.144877
0.163985 0.163985 0.163985
0.183987 0.183987 0.183987
0.204881 0.204881 0.204881
0.226670 0.226670 0.226670
0.249351 0.249351 0.249351
0.272926 0.272926 0.272926
0.297395 0.297395 0.297395
0.322757 0.322757 0.322757
0.252810 0.252810 0.252810
0.276519 0.276519 0.276519
0.301121 0.301121 0.301121
0.326616 0.326616 0.326616
0.353005 0.353005 0.353005
0.380287 0.380287 0.380287
0.408463 0.408463 0.408463
0.437532 0.437532 0.437532
0.467495 0.467495 0.467495
0.384432 0.384432 0.384432
0.412741 0.412741 0.412741
0.441944 0.441944 0.441944
0.472040 0.472040 0.472040
0.503021 0.503021 0.503021
0.533838 0.533838 0.533838
0.563761 0.563761 0.563761
0.592792 0.592792 0.592792
0.620928 0.620928 0.620928
0.538357 0.538357 0.538357
0.568147 0.568147 0.568147
0.597044 0.597044 0.597044
0.625047 0.625047 0.625047
0.652157 0.652157 0.652157
0.678374 0.678374 0.678374
0.703697 0.703697 0.703697
0.728126 0.728126 0.728126
0.751662 0.751662 0.751662
0.682207 0.682207 0.682207
0.707396 0.707396 0.707396
0.731693 0.731693 0.731693
0.755095 0.755095 0.755095
0.777605 0.777605 0.777605
0.799221 0.799221 0.799221
0.819943 0.819943 0.819943
0.839772 0.839772 0.839772
0.858707 0.858707 0.858707
0.802367 0.802367 0.802367
0.822957 0.822957 0.822957
0.842652 0.842652 0.842652
0.861454 0.861454 0.861454
0.879363 0.879363 0.879363
0.896378 0.896378 0.896378
0.912500 0.912500 0.912500
0.927728 0.927728 0.927728
0.942063 0.942063 0.942063
0.898839 0.898839 0.898839
0.914828 0.914828 0.914828
0.929923 0.929923 0.929923
0.944124 0.944124 0.944124
0.957432 0.957432 0.957432
0.969847 0.969847 0.969847
0.981368 0.981368 0.981368
0.991996 0.991996 0.991996
1.000000 1.000000 1.000000
0.971622 0.971622 0.971622
0.983009 0.983009 0.983009
0.993504 0.993504 0.993504
1.000000 1.000000 1.000000
1.000000 1.000000 1.000000
1.000000 1.000000 1.000000
1.000000 1.000000 1.000000
1.000000 1.000000 1.000000
1.000000 1.000000 1.000000
0.100585 0.100585 0.100585
0.117435 0.117435 0.117435
0.135180 0.135180 0.135180
0.153817 0.153817 0.153817
0.173348 0.173348 0.173348
0.193773 0.193773 0.193773
0.215091 0.215091 0.215091
0.237302 0.237302 0.237302
0.260407 0.260407 0.260407
0.196895 0.196895 0.196895
0.218346 0.218346 0.218346
0.240691 0.240691 0.240691
0.263929 0.263929 0.263929
0.288061 0.288061 0.288061
0.313086 0.313086 0.313086
0.339005 0.339005 0.339005
0.365817 0.365817 0.365817
0.393522 0.393522 0.393522
0.316894 0.316894 0.316894
0.342946 0.342946 0.342946
0.369891 0.369891 0.369891
0.397730 0.397730 0.397730
0.426463 0.426463 0.426463
0.456088 0.456088 0.456088
0.486608 0.486608 0.486608
0.517730 0.517730 0.517730
0.548124 0.548124 0.548124
0.460583 0.460583 0.460583
0.491235 0.491235 0.491235
0.522319 0.522319 0.522319
0.552579 0.552579 0.552579
0.581947 0.581947 0.581947
0.610420 0.610420 0.610420
0.638000 0.638000 0.638000
0.664687 0.664687 0.664687
0.690480 0.690480 0.690480
0.614590 0.614590 0.614590
0.642037 0.642037 0.642037
0.668590 0.668590 0.668590
0.694250 0.694250 0.694250
0.719017 0.719017 0.719017
0.742890 0.742890 0.742890
0.765869 0.765869 0.765869
0.787955 0.787955 0.787955
0.809148 0.809148 0.809148
0.746373 0.746373 0.746373
0.769219 0.769219 0.769219
0.791172 0.791172 0.791172
0.812232 0.812232 0.812232
0.832397 0.832397 0.832397
0.851670 0.851670 0.851670
0.870049 0.870049 0.870049
0.887534 0.887534 0.887534
0.904126 0.904126 0.904126
0.854467 0.854467 0.854467
0.872713 0.872713 0.872713
0.890065 0.890065 0.890065
0.906524 0.906524 0.906524
0.922089 0.922089 0.922089
0.936761 0.936761 0.936761
0.950539 0.950539 0.950539
0.963424 0.963424 0.963424
0.975416 0.975416 0.975416
0.938872 0.938872 0.938872
0.952517 0.952517 0.952517
0.965269 0.965269 0.965269
0.977127 0.977127 0.977127
0.988092 0.988092 0.988092
0.998163 0.998163 0.998163
1.000000 1.000000 1.000000
1.000000 1.000000 1.000000
1.000000 1.000000 1.000000
0.999588 0.999588 0.999588
1.000000 1.000000 1.000000
1.000000 1.000000 1.000000
1.000000 1.000000 1.000000
1.000000 1.000000 1.000000
1.000000 1.000000 1.000000
1.000000 1.000000 1.000000
1.000000 1.000000 1.000000
1.000000 1.000000 1.000000
0.146682 0.146682 0.146682
0.165876 0.165876 0.165876
0.185964 0.185964 0.185964
0.206945 0.206945 0.206945
0.228819 0.228819 0.228819
0.251587 0.251587 0.251587
0.275249 0.275249 0.275249
0.299803 0.299803 0.299803
0.325252 0.325252 0.325252
0.255059 0.255059 0.255059
0.278854 0.278854 0.278854
0.303542 0.303542 0.303542
0.329123 0.329123 0.329123
0.355598 0.355598 0.355598
0.382967 0.382967 0.382967
0.411229 0.411229 0.411229
0.440384 0.440384 0.440384
0.470433 0.470433 0.470433
0.387125 0.387125 0.387125
0.415520 0.415520 0.415520
0.444809 0.444809 0.444809
0.474991 0.474991 0.474991
0.506033 0.506033 0.506033
0.536764 0.536764 0.536764
0.566602 0.566602 0.566602
0.595545 0.595545 0.595545
0.623596 0.623596 0.623596
0.541270 0.541270 0.541270
0.570974 0.570974 0.570974
0.599785 0.599785 0.599785
0.627702 0.627702 0.627702
0.654726 0.654726 0.654726
0.680856 0.680856 0.680856
0.706093 0.706093 0.706093
0.730436 0.730436 0.730436
0.753886 0.753886 0.753886
0.684676 0.684676 0.684676
0.709780 0.709780 0.709780
0.733990 0.733990 0.733990
0.757306 0.757306 0.757306
0.779729 0.779729 0.779729
0.801259 0.801259 0.801259
0.821895 0.821895 0.821895
0.841638 0.841638 0.841638
0.860487 0.860487 0.860487
0.804393 0.804393 0.804393
0.824896 0.824896 0.824896
0.844505 0.844505 0.844505
0.863221 0.863221 0.863221
0.881044 0.881044 0.881044
0.897973 0.897973 0.897973
0.914008 0.914008 0.914008
0.929150 0.929150 0.929150
0.943399 0.943399 0.943399
0.900421 0.900421 0.900421
0.916323 0.916323 0.916323
0.931332 0.931332 0.931332
0.945447 0.945447 0.945447
0.958669 0.958669 0.958669
0.970997 0.970997 0.970997
0.982432 0.982432 0.982432
0.992974 0.992974 0.992974
1.000000 1.000000 1.000000
0.972759 0.972759 0.972759
0.984061 0.984061 0.984061
0.994469 0.994469 0.994469
1.000000 1.000000 1.000000
1.000000 1.000000 1.000000
1.000000 1.000000 1.000000
1.000000 1.000000 1.000000
1.000000 1.000000 1.000000
1.000000 1.000000 1.000000
1.000000 1.000000 1.000000
1.000000 1.000000 1.000000
1.000000 1.000000 1.000000
1.000000 1.000000 1.000000
1.000000 1.000000 1.000000
1.000000 1.000000 1.000000
1.000000 1.000000 1.000000
1.000000 1.000000 1.000000
1.000000 1.000000 1.000000
