src/flutter_app/assets/presets/bw-high.cube
# PoseCraft LUT preset
# Generated automatically for Phase 1
TITLE "PoseCraft Preset"
LUT_3D_SIZE 5
DOMAIN_MIN 0.0 0.0 0.0
DOMAIN_MAX 1.0 1.0 1.0
0.000000 0.000000 0.000000
0.000000 0.000000 0.000000
0.000000 0.000000 0.000000
0.000000 0.000000 0.000000
0.000000 0.000000 0.000000
0.000000 0.000000 0.000000
0.017568 0.017568 0.017568
0.041331 0.041331 0.041331
0.068668 0.068668 0.068668
0.099579 0.099579 0.099579
0.139513 0.139513 0.139513
0.178105 0.178105 0.178105
0.220271 0.220271 0.220271
0.266010 0.266010 0.266010
0.315324 0.315324 0.315324
0.376404 0.376404 0.376404
0.433398 0.433398 0.433398
0.493967 0.493967 0.493967
0.555191 0.555191 0.555191
0.612875 0.612875 0.612875
0.674748 0.674748 0.674748
0.724751 0.724751 0.724751
0.771181 0.771181 0.771181
0.814036 0.814036 0.814036
0.853318 0.853318 0.853318
0.000000 0.000000 0.000000
0.000000 0.000000 0.000000
0.000000 0.000000 0.000000
0.006496 0.006496 0.006496
0.028378 0.028378 0.028378
0.057937 0.057937 0.057937
0.087500 0.087500 0.087500
0.120637 0.120637 0.120637
0.157348 0.157348 0.157348
0.197633 0.197633 0.197633
0.248338 0.248338 0.248338
0.296303 0.296303 0.296303
0.347843 0.347843 0.347843
0.402956 0.402956 0.402956
0.461643 0.461643 0.461643
0.532505 0.532505 0.532505
0.591537 0.591537 0.591537
0.646995 0.646995 0.646995
0.698879 0.698879 0.698879
0.747190 0.747190 0.747190
0.798291 0.798291 0.798291
0.838921 0.838921 0.838921
0.875977 0.875977 0.875977
0.909458 0.909458 0.909458
0.939366 0.939366 0.939366
0.000000 0.000000 0.000000
0.019705 0.019705 0.019705
0.043813 0.043813 0.043813
0.071495 0.071495 0.071495
0.102751 0.102751 0.102751
0.143081 0.143081 0.143081
0.182018 0.182018 0.182018
0.224528 0.224528 0.224528
0.270613 0.270613 0.270613
0.320271 0.320271 0.320271
0.381748 0.381748 0.381748
0.439087 0.439087 0.439087
0.500000 0.500000 0.500000
0.560913 0.560913 0.560913
0.618252 0.618252 0.618252
0.679729 0.679729 0.679729
0.729387 0.729387 0.729387
0.775472 0.775472 0.775472
0.817982 0.817982 0.817982
0.856919 0.856919 0.856919
0.897249 0.897249 0.897249
0.928505 0.928505 0.928505
0.956187 0.956187 0.956187
0.980295 0.980295 0.980295
1.000000 1.000000 1.000000
0.060634 0.060634 0.060634
0.090542 0.090542 0.090542
0.124023 0.124023 0.124023
0.161079 0.161079 0.161079
0.201709 0.201709 0.201709
0.252810 0.252810 0.252810
0.301121 0.301121 0.301121
0.353005 0.353005 0.353005
0.408463 0.408463 0.408463
0.467495 0.467495 0.467495
0.538357 0.538357 0.538357
0.597044 0.597044 0.597044
0.652157 0.652157 0.652157
0.703697 0.703697 0.703697
0.751662 0.751662 0.751662
0.802367 0.802367 0.802367
0.842652 0.842652 0.842652
0.879363 0.879363 0.879363
0.912500 0.912500 0.912500
0.942063 0.942063 0.942063
0.971622 0.971622 0.971622
0.993504 0.993504 0.993504
1.000000 1.000000 1.000000
1.000000 1.000000 1.000000
1.000000 1.000000 1.000000
0.146682 0.146682 0.146682
0.185964 0.185964 0.185964
0.228819 0.228819 0.228819
0.275249 0.275249 0.275249
0.325252 0.325252 0.325252
0.387125 0.387125 0.387125
0.444809 0.444809 0.444809
0.506033 0.506033 0.506033
0.566602 0.566602 0.566602
0.623596 0.623596 0.623596
0.684676 0.684676 0.684676
0.733990 0.733990 0.733990
0.779729 0.779729 0.779729
0.821895 0.821895 0.821895
0.860487 0.860487 0.860487
0.900421 0.900421 0.900421
0.931332 0.931332 0.931332
0.958669 0.958669 0.958669
0.982432 0.982432 0.982432
1.000000 1.000000 1.000000
1.000000 1.000000 1.000000
1.000000 1.000000 1.000000
1.000000 1.000000 1.000000
1.000000 1.000000 1.000000
1.000000 1.000000 1.000000
