src/flutter_app/assets/presets/bw-high.cube
# PoseCraft LUT preset
# Generated automatically for Phase 1
TITLE "PoseCraft Preset"
LUT_3D_SIZE 33
DOMAIN_MIN 0.0 0.0 0.0
DOMAIN_MAX 1.0 1.0 1.0
0.000000 0.000000 0.000000
0.000000 0.000000 0.000000
0.000000 0.000000 0.000000
0.000000 0.000000 0.000000
0.000000 0.000000 0.000000
0.000000 0.000000 0.000000
0.000000 0.000000 0.000000
0.000000 0.000000 0.000000
0.000000 0.000000 0.000000
0.000000 0.000000 0.000000
0.000000 0.000000 0.000000
0.000000 0.000000 0.000000
0.000000 0.000000 0.000000
0.000000 0.000000 0.000000
0.000000 0.000000 0.000000
0.000000 0.000000 0.000000
0.000000 0.000000 0.000000
0.000000 0.000000 0.000000
0.000000 0.000000 0.000000
0.000000 0.000000 0.000000
0.000000 0.000000 0.000000
0.000000 0.000000 0.000000
0.000000 0.000000 0.000000
0.000000 0.000000 0.000000
0.000000 0.000000 0.000000
0.000000 0.000000 0.000000
0.000000 0.000000 0.000000
0.000000 0.000000 0.000000
0.000000 0.000000 0.000000
0.000000 0.000000 0.000000
0.000000 0.000000 0.000000
0.000000 0.000000 0.000000
0.000000 0.000000 0.000000
0.000000 0.000000 0.000000
0.000000 0.000000 0.000000
0.000000 0.000000 0.000000
0.000000 0.000000 0.000000
0.000000 0.000000 0.000000
0.000000 0.000000 0.000000
0.000000 0.000000 0.000000
0.000000 0.000000 0.000000
0.000000 0.000000 0.000000
0.000000 0.000000 0.000000
0.000000 0.000000 0.000000
0.000000 0.000000 0.000000
0.000000 0.000000 0.000000
0.000000 0.000000 0.000000
0.000000 0.000000 0.000000
0.000000 0.000000 0.000000
0.000000 0.000000 0.000000
0.000000 0.000000 0.000000
0.000000 0.000000 0.000000
0.000000 0.000000 0.000000
0.000000 0.000000 0.000000
0.000000 0.000000 0.000000
0.000000 0.000000 0.000000
0.000000 0.000000 0.000000
0.000000 0.000000 0.000000
0.000000 0.000000 0.000000
0.000000 0.000000 0.000000
0.000000 0.000000 0.000000
0.000000 0.000000 0.000000
0.000000 0.000000 0.000000
0.000000 0.000000 0.000000
0.000000 0.000000 0.000000
0.000000 0.000000 0.000000
0.000000 0.000000 0.000000
0.000000 0.000000 0.000000
0.000000 0.000000 0.000000
0.000000 0.000000 0.000000
0.000000 0.000000 0.000000
0.000000 0.000000 0.000000
0.000000 0.000000 0.000000
0.000000 0.000000 0.000000
0.000000 0.000000 0.000000
0.000000 0.000000 0.000000
0.000000 0.000000 0.000000
0.000000 0.000000 0.000000
0.000000 0.000000 0.000000
0.000000 0.000000 0.000000
0.000000 0.000000 0.000000
0.000000 0.000000 0.000000
0.000000 0.000000 0.000000
0.000000 0.000000 0.000000
0.000000 0.000000 0.000000
0.000000 0.000000 0.000000
0.000000 0.000000 0.000000
0.000000 0.000000 0.000000
0.000000 0.000000 0.000000
0.000000 0.000000 0.000000
0.000000 0.000000 0.000000
0.000000 0.000000 0.000000
0.000000 0.000000 0.000000
0.000000 0.000000 0.000000
0.000000 0.000000 0.000000
0.000000 0.000000 0.000000
0.000000 0.000000 0.000000
0.000000 0.000000 0.000000
0.000000 0.000000 0.000000
0.000000 0.000000 0.000000
0.000000 0.000000 0.000000
0.000000 0.000000 0.000000
0.000000 0.000000 0.000000
0.000000 0.000000 0.000000
0.000000 0.000000 0.000000
0.000000 0.000000 0.000000
0.000000 0.000000 0.000000
0.000000 0.000000 0.000000
0.000000 0.000000 0.000000
0.000000 0.000000 0.000000
0.000000 0.000000 0.000000
0.000000 0.000000 0.000000
0.000000 0.000000 0.000000
0.000000 0.000000 0.000000
0.000000 0.000000 0.000000
0.000000 0.000000 0.000000
0.000000 0.000000 0.000000
0.000000 0.000000 0.000000
0.000000 0.000000 0.000000
0.000000 0.000000 0.000000
0.000000 0.000000 0.000000
0.000000 0.000000 0.000000
0.000000 0.000000 0.000000
0.000000 0.000000 0.000000
0.000000 0.000000 0.000000
0.000000 0.000000 0.000000
0.000308 0.000308 0.000308
0.002706 0.002706 0.002706
0.005160 0.005160 0.005160
0.007670 0.007670 0.007670
0.010236 0.010236 0.010236
0.012857 0.012857 0.012857
0.000000 0.000000 0.000000
0.000000 0.000000 0.000000
0.000000 0.000000 0.000000
0.000000 0.000000 0.000000
0.000000 0.000000 0.000000
0.000000 0.000000 0.000000
0.000000 0.000000 0.000000
0.000000 0.000000 0.000000
0.000000 0.000000 0.000000
0.000000 0.000000 0.000000
0.000000 0.000000 0.000000
0.000000 0.000000 0.000000
0.000000 0.000000 0.000000
0.000000 0.000000 0.000000
0.000000 0.000000 0.000000
0.000000 0.000000 0.000000
0.000000 0.000000 0.000000
0.000000 0.000000 0.000000
0.000000 0.000000 0.000000
0.000000 0.000000 0.000000
0.000000 0.000000 0.000000
0.000000 0.000000 0.000000
0.000662 0.000662 0.000662
0.003068 0.003068 0.003068
0.005531 0.005531 0.005531
0.008049 0.008049 0.008049
0.010623 0.010623 0.010623
0.013253 0.013253 0.013253
0.015939 0.015939 0.015939
0.018681 0.018681 0.018681
0.021478 0.021478 0.021478
0.024331 0.024331 0.024331
0.027241 0.027241 0.027241
0.000000 0.000000 0.000000
0.000000 0.000000 0.000000
0.000000 0.000000 0.000000
0.000000 0.000000 0.000000
0.000000 0.000000 0.000000
0.000000 0.000000 0.000000
0.000000 0.000000 0.000000
0.000000 0.000000 0.000000
0.000000 0.000000 0.000000
0.000000 0.000000 0.000000
0.000000 0.000000 0.000000
0.000000 0.000000 0.000000
0.000000 0.000000 0.000000
0.000000 0.000000 0.000000
0.000000 0.000000 0.000000
0.000000 0.000000 0.000000
0.000000 0.000000 0.000000
0.001017 0.001017 0.001017
0.003432 0.003432 0.003432
0.005903 0.005903 0.005903
0.008429 0.008429 0.008429
0.011012 0.011012 0.011012
0.013650 0.013650 0.013650
0.016344 0.016344 0.016344
0.019094 0.019094 0.019094
0.021900 0.021900 0.021900
0.024762 0.024762 0.024762
0.027679 0.027679 0.027679
0.030653 0.030653 0.030653
0.033682 0.033682 0.033682
0.036767 0.036767 0.036767
0.039908 0.039908 0.039908
0.043104 0.043104 0.043104
0.000000 0.000000 0.000000
0.000000 0.000000 0.000000
0.000000 0.000000 0.000000
0.000000 0.000000 0.000000
0.000000 0.000000 0.000000
0.000000 0.000000 0.000000
0.000000 0.000000 0.000000
0.000000 0.000000 0.000000
0.000000 0.000000 0.000000
0.000000 0.000000 0.000000
0.000000 0.000000 0.000000
0.000000 0.000000 0.000000
0.001374 0.001374 0.001374
0.003797 0.003797 0.003797
0.006276 0.006276 0.006276
0.008811 0.008811 0.008811
0.011402 0.011402 0.011402
0.014048 0.014048 0.014048
0.016751 0.016751 0.016751
0.019509 0.019509 0.019509
0.022323 0.022323 0.022323
0.025193 0.025193 0.025193
0.028119 0.028119 0.028119
0.031101 0.031101 0.031101
0.034138 0.034138 0.034138
0.037232 0.037232 0.037232
0.040381 0.040381 0.040381
0.043586 0.043586 0.043586
0.046847 0.046847 0.046847
0.050164 0.050164 0.050164
0.053536 0.053536 0.053536
0.056965 0.056965 0.056965
0.060449 0.060449 0.060449
0.000000 0.000000 0.000000
0.000000 0.000000 0.000000
0.000000 0.000000 0.000000
0.000000 0.000000 0.000000
0.000000 0.000000 0.000000
0.000000 0.000000 0.000000
0.000000 0.000000 0.000000
0.001731 0.001731 0.001731
0.004163 0.004163 0.004163
0.006650 0.006650 0.006650
0.009194 0.009194 0.009194
0.011793 0.011793 0.011793
0.014448 0.014448 0.014448
0.017159 0.017159 0.017159
0.019925 0.019925 0.019925
0.022748 0.022748 0.022748
0.025626 0.025626 0.025626
0.028560 0.028560 0.028560
0.031550 0.031550 0.031550
0.034596 0.034596 0.034596
0.037698 0.037698 0.037698
0.040855 0.040855 0.040855
0.044069 0.044069 0.044069
0.047338 0.047338 0.047338
0.050663 0.050663 0.050663
0.054044 0.054044 0.054044
0.057481 0.057481 0.057481
0.060973 0.060973 0.060973
0.064522 0.064522 0.064522
0.068126 0.068126 0.068126
0.071786 0.071786 0.071786
0.075502 0.075502 0.075502
0.079274 0.079274 0.079274
0.000000 0.000000 0.000000
0.000000 0.000000 0.000000
0.002091 0.002091 0.002091
0.004530 0.004530 0.004530
0.007026 0.007026 0.007026
0.009578 0.009578 0.009578
0.012185 0.012185 0.012185
0.014849 0.014849 0.014849
0.017568 0.017568 0.017568
0.020343 0.020343 0.020343
0.023173 0.023173 0.023173
0.026060 0.026060 0.026060
0.029003 0.029003 0.029003
0.032001 0.032001 0.032001
0.035055 0.035055 0.035055
0.038165 0.038165 0.038165
0.041331 0.041331 0.041331
0.044553 0.044553 0.044553
0.047830 0.047830 0.047830
0.051164 0.051164 0.051164
0.054553 0.054553 0.054553
0.057998 0.057998 0.057998
0.061499 0.061499 0.061499
0.065056 0.065056 0.065056
0.068668 0.068668 0.068668
0.072337 0.072337 0.072337
0.076061 0.076061 0.076061
0.079841 0.079841 0.079841
0.083677 0.083677 0.083677
0.087569 0.087569 0.087569
0.091516 0.091516 0.091516
0.095520 0.095520 0.095520
0.099579 0.099579 0.099579
0.009963 0.009963 0.009963
0.012579 0.012579 0.012579
0.015250 0.015250 0.015250
0.017978 0.017978 0.017978
0.020761 0.020761 0.020761
0.023600 0.023600 0.023600
0.026495 0.026495 0.026495
0.029446 0.029446 0.029446
0.032453 0.032453 0.032453
0.035515 0.035515 0.035515
0.038634 0.038634 0.038634
0.041808 0.041808 0.041808
0.045038 0.045038 0.045038
0.048324 0.048324 0.048324
0.051665 0.051665 0.051665
0.055063 0.055063 0.055063
0.058516 0.058516 0.058516
0.062026 0.062026 0.062026
0.065591 0.065591 0.065591
0.069212 0.069212 0.069212
0.072888 0.072888 0.072888
0.076621 0.076621 0.076621
0.080409 0.080409 0.080409
0.084254 0.084254 0.084254
0.088154 0.088154 0.088154
0.092110 0.092110 0.092110
0.096122 0.096122 0.096122
0.100189 0.100189 0.100189
0.104313 0.104313 0.104313
0.108492 0.108492 0.108492
0.112727 0.112727 0.112727
0.117018 0.117018 0.117018
0.121365 0.121365 0.121365
0.024028 0.024028 0.024028
0.026932 0.026932 0.026932
0.029891 0.029891 0.029891
0.032906 0.032906 0.032906
0.035977 0.035977 0.035977
0.039103 0.039103 0.039103
0.042286 0.042286 0.042286
0.045524 0.045524 0.045524
0.048819 0.048819 0.048819
0.052169 0.052169 0.052169
0.055574 0.055574 0.055574
0.059036 0.059036 0.059036
0.062554 0.062554 0.062554
0.066127 0.066127 0.066127
0.069756 0.069756 0.069756
0.073441 0.073441 0.073441
0.077182 0.077182 0.077182
0.080979 0.080979 0.080979
0.084832 0.084832 0.084832
0.088740 0.088740 0.088740
0.092705 0.092705 0.092705
0.096725 0.096725 0.096725
0.100801 0.100801 0.100801
0.104933 0.104933 0.104933
0.109120 0.109120 0.109120
0.113364 0.113364 0.113364
0.117663 0.117663 0.117663
0.122018 0.122018 0.122018
0.126429 0.126429 0.126429
0.130896 0.130896 0.130896
0.135419 0.135419 0.135419
0.139998 0.139998 0.139998
0.144632 0.144632 0.144632
0.039574 0.039574 0.039574
0.042765 0.042765 0.042765
0.046012 0.046012 0.046012
0.049315 0.049315 0.049315
0.052673 0.052673 0.052673
0.056087 0.056087 0.056087
0.059557 0.059557 0.059557
0.063083 0.063083 0.063083
0.066665 0.066665 0.066665
0.070302 0.070302 0.070302
0.073996 0.073996 0.073996
0.077745 0.077745 0.077745
0.081550 0.081550 0.081550
0.085411 0.085411 0.085411
0.089328 0.089328 0.089328
0.093301 0.093301 0.093301
0.097329 0.097329 0.097329
0.101413 0.101413 0.101413
0.105553 0.105553 0.105553
0.109749 0.109749 0.109749
0.114001 0.114001 0.114001
0.118309 0.118309 0.118309
0.122673 0.122673 0.122673
0.127092 0.127092 0.127092
0.131567 0.131567 0.131567
0.136098 0.136098 0.136098
0.140685 0.140685 0.140685
0.145328 0.145328 0.145328
0.150026 0.150026 0.150026
0.154781 0.154781 0.154781
0.159591 0.159591 0.159591
0.164457 0.164457 0.164457
0.169379 0.169379 0.169379
0.056601 0.056601 0.056601
0.060079 0.060079 0.060079
0.063614 0.063614 0.063614
0.067204 0.067204 0.067204
0.070850 0.070850 0.070850
0.074551 0.074551 0.074551
0.078309 0.078309 0.078309
0.082122 0.082122 0.082122
0.085992 0.085992 0.085992
0.089917 0.089917 0.089917
0.093898 0.093898 0.093898
0.097935 0.097935 0.097935
0.102027 0.102027 0.102027
0.106176 0.106176 0.106176
0.110380 0.110380 0.110380
0.114640 0.114640 0.114640
0.118956 0.118956 0.118956
0.123328 0.123328 0.123328
0.127756 0.127756 0.127756
0.132239 0.132239 0.132239
0.136779 0.136779 0.136779
0.141374 0.141374 0.141374
0.146025 0.146025 0.146025
0.150732 0.150732 0.150732
0.155495 0.155495 0.155495
0.160313 0.160313 0.160313
0.165188 0.165188 0.165188
0.170118 0.170118 0.170118
0.175104 0.175104 0.175104
0.180146 0.180146 0.180146
0.185244 0.185244 0.185244
0.190397 0.190397 0.190397
0.195607 0.195607 0.195607
0.075108 0.075108 0.075108
0.078874 0.078874 0.078874
0.082696 0.082696 0.082696
0.086573 0.086573 0.086573
0.090507 0.090507 0.090507
0.094496 0.094496 0.094496
0.098541 0.098541 0.098541
0.102642 0.102642 0.102642
0.106799 0.106799 0.106799
0.111012 0.111012 0.111012
0.115280 0.115280 0.115280
0.119605 0.119605 0.119605
0.123985 0.123985 0.123985
0.128421 0.128421 0.128421
0.132913 0.132913 0.132913
0.137460 0.137460 0.137460
0.142064 0.142064 0.142064
0.146723 0.146723 0.146723
0.151439 0.151439 0.151439
0.156210 0.156210 0.156210
0.161037 0.161037 0.161037
0.165919 0.165919 0.165919
0.170858 0.170858 0.170858
0.175852 0.175852 0.175852
0.180903 0.180903 0.180903
0.186009 0.186009 0.186009
0.191171 0.191171 0.191171
0.196389 0.196389 0.196389
0.201662 0.201662 0.201662
0.206992 0.206992 0.206992
0.212377 0.212377 0.212377
0.217818 0.217818 0.217818
0.223315 0.223315 0.223315
0.095096 0.095096 0.095096
0.099149 0.099149 0.099149
0.103259 0.103259 0.103259
0.107424 0.107424 0.107424
0.111645 0.111645 0.111645
0.115922 0.115922 0.115922
0.120254 0.120254 0.120254
0.124643 0.124643 0.124643
0.129087 0.129087 0.129087
0.133587 0.133587 0.133587
0.138143 0.138143 0.138143
0.142755 0.142755 0.142755
0.147423 0.147423 0.147423
0.152146 0.152146 0.152146
0.156926 0.156926 0.156926
0.161761 0.161761 0.161761
0.166652 0.166652 0.166652
0.171599 0.171599 0.171599
0.176602 0.176602 0.176602
0.181661 0.181661 0.181661
0.186775 0.186775 0.186775
0.191945 0.191945 0.191945
0.197171 0.197171 0.197171
0.202453 0.202453 0.202453
0.207791 0.207791 0.207791
0.213185 0.213185 0.213185
0.218634 0.218634 0.218634
0.224140 0.224140 0.224140
0.229701 0.229701 0.229701
0.235318 0.235318 0.235318
0.240991 0.240991 0.240991
0.246720 0.246720 0.246720
0.252504 0.252504 0.252504
0.116564 0.116564 0.116564
0.120905 0.120905 0.120905
0.125302 0.125302 0.125302
0.129755 0.129755 0.129755
0.134263 0.134263 0.134263
0.138828 0.138828 0.138828
0.143448 0.143448 0.143448
0.148124 0.148124 0.148124
0.152856 0.152856 0.152856
0.157643 0.157643 0.157643
0.162487 0.162487 0.162487
0.167386 0.167386 0.167386
0.172342 0.172342 0.172342
0.177353 0.177353 0.177353
0.182420 0.182420 0.182420
0.187542 0.187542 0.187542
0.192721 0.192721 0.192721
0.197956 0.197956 0.197956
0.203246 0.203246 0.203246
0.208592 0.208592 0.208592
0.213994 0.213994 0.213994
0.219452 0.219452 0.219452
0.224966 0.224966 0.224966
0.230535 0.230535 0.230535
0.236160 0.236160 0.236160
0.241842 0.241842 0.241842
0.247579 0.247579 0.247579
0.253372 0.253372 0.253372
0.259220 0.259220 0.259220
0.265125 0.265125 0.265125
0.271085 0.271085 0.271085
0.277102 0.277102 0.277102
0.283174 0.283174 0.283174
0.139513 0.139513 0.139513
0.144141 0.144141 0.144141
0.148826 0.148826 0.148826
0.153566 0.153566 0.153566
0.158362 0.158362 0.158362
0.163214 0.163214 0.163214
0.168122 0.168122 0.168122
0.173085 0.173085 0.173085
0.178105 0.178105 0.178105
0.183180 0.183180 0.183180
0.188311 0.188311 0.188311
0.193498 0.193498 0.193498
0.198741 0.198741 0.198741
0.204040 0.204040 0.204040
0.209394 0.209394 0.209394
0.214804 0.214804 0.214804
0.220271 0.220271 0.220271
0.225793 0.225793 0.225793
0.231370 0.231370 0.231370
0.237004 0.237004 0.237004
0.242694 0.242694 0.242694
0.248439 0.248439 0.248439
0.254240 0.254240 0.254240
0.260097 0.260097 0.260097
0.266010 0.266010 0.266010
0.271979 0.271979 0.271979
0.278004 0.278004 0.278004
0.284084 0.284084 0.284084
0.290220 0.290220 0.290220
0.296412 0.296412 0.296412
0.302660 0.302660 0.302660
0.308964 0.308964 0.308964
0.315324 0.315324 0.315324
0.163942 0.163942 0.163942
0.168858 0.168858 0.168858
0.173830 0.173830 0.173830
0.178858 0.178858 0.178858
0.183942 0.183942 0.183942
0.189081 0.189081 0.189081
0.194276 0.194276 0.194276
0.199528 0.199528 0.199528
0.204835 0.204835 0.204835
0.210197 0.210197 0.210197
0.215616 0.215616 0.215616
0.221090 0.221090 0.221090
0.226621 0.226621 0.226621
0.232207 0.232207 0.232207
0.237849 0.237849 0.237849
0.243547 0.243547 0.243547
0.249301 0.249301 0.249301
0.255110 0.255110 0.255110
0.260976 0.260976 0.260976
0.266897 0.266897 0.266897
0.272874 0.272874 0.272874
0.278907 0.278907 0.278907
0.284995 0.284995 0.284995
0.291140 0.291140 0.291140
0.297341 0.297341 0.297341
0.303597 0.303597 0.303597
0.309909 0.309909 0.309909
0.316277 0.316277 0.316277
0.322701 0.322701 0.322701
0.329180 0.329180 0.329180
0.335716 0.335716 0.335716
0.342307 0.342307 0.342307
0.348954 0.348954 0.348954
0.189852 0.189852 0.189852
0.195056 0.195056 0.195056
0.200315 0.200315 0.200315
0.205631 0.205631 0.205631
0.211002 0.211002 0.211002
0.216429 0.216429 0.216429
0.221912 0.221912 0.221912
0.227450 0.227450 0.227450
0.233045 0.233045 0.233045
0.238695 0.238695 0.238695
0.244401 0.244401 0.244401
0.250163 0.250163 0.250163
0.255981 0.255981 0.255981
0.261855 0.261855 0.261855
0.267785 0.267785 0.267785
0.273770 0.273770 0.273770
0.279811 0.279811 0.279811
0.285908 0.285908 0.285908
0.292061 0.292061 0.292061
0.298270 0.298270 0.298270
0.304535 0.304535 0.304535
0.310855 0.310855 0.310855
0.317231 0.317231 0.317231
0.323663 0.323663 0.323663
0.330151 0.330151 0.330151
0.336695 0.336695 0.336695
0.343295 0.343295 0.343295
0.349950 0.349950 0.349950
0.356662 0.356662 0.356662
0.363429 0.363429 0.363429
0.370252 0.370252 0.370252
0.377131 0.377131 0.377131
0.384066 0.384066 0.384066
0.217243 0.217243 0.217243
0.222734 0.222734 0.222734
0.228281 0.228281 0.228281
0.233884 0.233884 0.233884
0.239543 0.239543 0.239543
0.245257 0.245257 0.245257
0.251027 0.251027 0.251027
0.256854 0.256854 0.256854
0.262736 0.262736 0.262736
0.268674 0.268674 0.268674
0.274667 0.274667 0.274667
0.280717 0.280717 0.280717
0.286822 0.286822 0.286822
0.292983 0.292983 0.292983
0.299201 0.299201 0.299201
0.305474 0.305474 0.305474
0.311802 0.311802 0.311802
0.318187 0.318187 0.318187
0.324627 0.324627 0.324627
0.331124 0.331124 0.331124
0.337676 0.337676 0.337676
0.344284 0.344284 0.344284
0.350948 0.350948 0.350948
0.357667 0.357667 0.357667
0.364443 0.364443 0.364443
0.371274 0.371274 0.371274
0.378161 0.378161 0.378161
0.385104 0.385104 0.385104
0.392103 0.392103 0.392103
0.399158 0.399158 0.399158
0.406269 0.406269 0.406269
0.413435 0.413435 0.413435
0.420657 0.420657 0.420657
0.246114 0.246114 0.246114
0.251893 0.251893 0.251893
0.257727 0.257727 0.257727
0.263618 0.263618 0.263618
0.269564 0.269564 0.269564
0.275566 0.275566 0.275566
0.281624 0.281624 0.281624
0.287737 0.287737 0.287737
0.293907 0.293907 0.293907
0.300132 0.300132 0.300132
0.306414 0.306414 0.306414
0.312751 0.312751 0.312751
0.319144 0.319144 0.319144
0.325593 0.325593 0.325593
0.332097 0.332097 0.332097
0.338658 0.338658 0.338658
0.345274 0.345274 0.345274
0.351946 0.351946 0.351946
0.358674 0.358674 0.358674
0.365458 0.365458 0.365458
0.372298 0.372298 0.372298
0.379193 0.379193 0.379193
0.386145 0.386145 0.386145
0.393152 0.393152 0.393152
0.400215 0.400215 0.400215
0.407334 0.407334 0.407334
0.414509 0.414509 0.414509
0.421739 0.421739 0.421739
0.429026 0.429026 0.429026
0.436368 0.436368 0.436368
0.443766 0.443766 0.443766
0.451220 0.451220 0.451220
0.458730 0.458730 0.458730
0.276466 0.276466 0.276466
0.282532 0.282532 0.282532
0.288654 0.288654 0.288654
0.294832 0.294832 0.294832
0.301066 0.301066 0.301066
0.307355 0.307355 0.307355
0.313701 0.313701 0.313701
0.320102 0.320102 0.320102
0.326559 0.326559 0.326559
0.333072 0.333072 0.333072
0.339641 0.339641 0.339641
0.346265 0.346265 0.346265
0.352946 0.352946 0.352946
0.359682 0.359682 0.359682
0.366474 0.366474 0.366474
0.373322 0.373322 0.373322
0.380226 0.380226 0.380226
0.387186 0.387186 0.387186
0.394202 0.394202 0.394202
0.401273 0.401273 0.401273
0.408400 0.408400 0.408400
0.415583 0.415583 0.415583
0.422822 0.422822 0.422822
0.430117 0.430117 0.430117
0.437468 0.437468 0.437468
0.444874 0.444874 0.444874
0.452336 0.452336 0.452336
0.459854 0.459854 0.459854
0.467428 0.467428 0.467428
0.475058 0.475058 0.475058
0.482744 0.482744 0.482744
0.490485 0.490485 0.490485
0.498283 0.498283 0.498283
0.308298 0.308298 0.308298
0.314652 0.314652 0.314652
0.321061 0.321061 0.321061
0.327527 0.327527 0.327527
0.334048 0.334048 0.334048
0.340625 0.340625 0.340625
0.347258 0.347258 0.347258
0.353947 0.353947 0.353947
0.360692 0.360692 0.360692
0.367492 0.367492 0.367492
0.374348 0.374348 0.374348
0.381261 0.381261 0.381261
0.388229 0.388229 0.388229
0.395253 0.395253 0.395253
0.402332 0.402332 0.402332
0.409468 0.409468 0.409468
0.416659 0.416659 0.416659
0.423906 0.423906 0.423906
0.431210 0.431210 0.431210
0.438568 0.438568 0.438568
0.445983 0.445983 0.445983
0.453454 0.453454 0.453454
0.460980 0.460980 0.460980
0.468563 0.468563 0.468563
0.476201 0.476201 0.476201
0.483895 0.483895 0.483895
0.491644 0.491644 0.491644
0.499450 0.499450 0.499450
0.507263 0.507263 0.507263
0.515021 0.515021 0.515021
0.522723 0.522723 0.522723
0.530369 0.530369 0.530369
0.537959 0.537959 0.537959
0.341611 0.341611 0.341611
0.348252 0.348252 0.348252
0.354949 0.354949 0.354949
0.361702 0.361702 0.361702
0.368511 0.368511 0.368511
0.375376 0.375376 0.375376
0.382296 0.382296 0.382296
0.389273 0.389273 0.389273
0.396305 0.396305 0.396305
0.403393 0.403393 0.403393
0.410537 0.410537 0.410537
0.417736 0.417736 0.417736
0.424992 0.424992 0.424992
0.432303 0.432303 0.432303
0.439671 0.439671 0.439671
0.447094 0.447094 0.447094
0.454573 0.454573 0.454573
0.462107 0.462107 0.462107
0.469698 0.469698 0.469698
0.477344 0.477344 0.477344
0.485047 0.485047 0.485047
0.492805 0.492805 0.492805
0.500619 0.500619 0.500619
0.508424 0.508424 0.508424
0.516173 0.516173 0.516173
0.523867 0.523867 0.523867
0.531504 0.531504 0.531504
0.539086 0.539086 0.539086
0.546612 0.546612 0.546612
0.554082 0.554082 0.554082
0.561496 0.561496 0.561496
0.568855 0.568855 0.568855
0.576157 0.576157 0.576157
0.376404 0.376404 0.376404
0.383333 0.383333 0.383333
0.390318 0.390318 0.390318
0.397358 0.397358 0.397358
0.404455 0.404455 0.404455
0.411607 0.411607 0.411607
0.418815 0.418815 0.418815
0.426079 0.426079 0.426079
0.433398 0.433398 0.433398
0.440774 0.440774 0.440774
0.448205 0.448205 0.448205
0.455693 0.455693 0.455693
0.463236 0.463236 0.463236
0.470835 0.470835 0.470835
0.478490 0.478490 0.478490
0.486200 0.486200 0.486200
0.493967 0.493967 0.493967
0.501786 0.501786 0.501786
0.509583 0.509583 0.509583
0.517324 0.517324 0.517324
0.525009 0.525009 0.525009
0.532638 0.532638 0.532638
0.540212 0.540212 0.540212
0.547729 0.547729 0.547729
0.555191 0.555191 0.555191
0.562597 0.562597 0.562597
0.569947 0.569947 0.569947
0.577242 0.577242 0.577242
0.584480 0.584480 0.584480
0.591663 0.591663 0.591663
0.598789 0.598789 0.598789
0.605860 0.605860 0.605860
0.612875 0.612875 0.612875
0.412678 0.412678 0.412678
0.419894 0.419894 0.419894
0.427167 0.427167 0.427167
0.434495 0.434495 0.434495
0.441879 0.441879 0.441879
0.449318 0.449318 0.449318
0.456814 0.456814 0.456814
0.464365 0.464365 0.464365
0.471973 0.471973 0.471973
0.479636 0.479636 0.479636
0.487355 0.487355 0.487355
0.495130 0.495130 0.495130
0.502952 0.502952 0.502952
0.510741 0.510741 0.510741
0.518473 0.518473 0.518473
0.526150 0.526150 0.526150
0.533771 0.533771 0.533771
0.541336 0.541336 0.541336
0.548846 0.548846 0.548846
0.556299 0.556299 0.556299
0.563697 0.563697 0.563697
0.571039 0.571039 0.571039
0.578325 0.578325 0.578325
0.585555 0.585555 0.585555
0.592729 0.592729 0.592729
0.599847 0.599847 0.599847
0.606910 0.606910 0.606910
0.613917 0.613917 0.613917
0.620867 0.620867 0.620867
0.627763 0.627763 0.627763
0.634602 0.634602 0.634602
0.641385 0.641385 0.641385
0.648113 0.648113 0.648113
0.450433 0.450433 0.450433
0.457937 0.457937 0.457937
0.465496 0.465496 0.465496
0.473112 0.473112 0.473112
0.480783 0.480783 0.480783
0.488511 0.488511 0.488511
0.496294 0.496294 0.496294
0.504117 0.504117 0.504117
0.511897 0.511897 0.511897
0.519622 0.519622 0.519622
0.527290 0.527290 0.527290
0.534903 0.534903 0.534903
0.542460 0.542460 0.542460
0.549961 0.549961 0.549961
0.557406 0.557406 0.557406
0.564795 0.564795 0.564795
0.572129 0.572129 0.572129
0.579406 0.579406 0.579406
0.586628 0.586628 0.586628
0.593794 0.593794 0.593794
0.600904 0.600904 0.600904
0.607958 0.607958 0.607958
0.614957 0.614957 0.614957
0.621899 0.621899 0.621899
0.628786 0.628786 0.628786
