src/flutter_app/assets/presets/clean-white.cube
# PoseCraft LUT preset
# Generated automatically for Phase 1
TITLE "PoseCraft Preset"
LUT_3D_SIZE 33
DOMAIN_MIN 0.0 0.0 0.0
DOMAIN_MAX 1.0 1.0 1.0
0.077600 0.080800 0.083200
0.020673 0.021526 0.179335
0.024274 0.025275 0.210574
0.027875 0.029025 0.241813
0.031476 0.032774 0.273052
0.035078 0.036524 0.304291
0.038679 0.040274 0.335530
0.042280 0.044023 0.366769
0.045881 0.047773 0.398008
0.049482 0.051523 0.429247
0.053083 0.055272 0.460486
0.056684 0.059022 0.491725
0.060286 0.062772 0.522964
0.063887 0.066521 0.554203
0.067488 0.070271 0.585442
0.071089 0.074020 0.616681
0.074690 0.077770 0.647920
0.078291 0.081520 0.679159
0.081892 0.085269 0.710398
0.085493 0.089019 0.741637
0.089094 0.092768 0.772876
0.092696 0.096518 0.804115
0.096297 0.100268 0.835354
0.099898 0.104017 0.866593
0.103499 0.107767 0.897832
0.109937 0.114471 0.926029
0.139074 0.144809 0.929890
0.168210 0.175147 0.933751
0.197346 0.205484 0.937612
0.226483 0.235822 0.941473
0.255619 0.266160 0.945334
0.284756 0.296498 0.949195
0.313892 0.326836 0.953056
0.020673 0.174162 0.022165
0.020673 0.174162 0.179335
0.024274 0.114887 0.210574
0.027875 0.097629 0.241813
0.031476 0.090875 0.273052
0.035078 0.088322 0.304291
0.038679 0.087870 0.335530
0.042280 0.088618 0.366769
0.045881 0.090117 0.398008
0.049482 0.092116 0.429247
0.053083 0.094465 0.460486
0.056684 0.097069 0.491725
0.060286 0.099864 0.522964
0.063887 0.102805 0.554203
0.067488 0.105862 0.585442
0.071089 0.109012 0.616681
0.074690 0.112236 0.647920
0.078291 0.115522 0.679159
0.081892 0.118860 0.710398
0.085493 0.122241 0.741637
0.089094 0.125659 0.772876
0.092696 0.129109 0.804115
0.096297 0.132585 0.835354
0.099898 0.136086 0.866593
0.103499 0.139607 0.897832
0.109937 0.145865 0.926029
0.139074 0.173972 0.929890
0.168210 0.202245 0.933751
0.197346 0.230666 0.937612
0.226483 0.259219 0.941473
0.255619 0.287890 0.945334
0.284756 0.316670 0.949195
0.313892 0.345546 0.953056
0.024274 0.204500 0.026026
0.024274 0.204500 0.118300
0.024274 0.204500 0.210574
0.027875 0.166233 0.241813
0.031476 0.148975 0.273052
0.035078 0.140120 0.304291
0.038679 0.135466 0.335530
0.042280 0.133214 0.366769
0.045881 0.132461 0.398008
0.049482 0.132710 0.429247
0.053083 0.133658 0.460486
0.056684 0.135116 0.491725
0.060286 0.136956 0.522964
0.063887 0.139090 0.554203
0.067488 0.141454 0.585442
0.071089 0.144003 0.616681
0.074690 0.146702 0.647920
0.078291 0.149525 0.679159
0.081892 0.152451 0.710398
0.085493 0.155464 0.741637
0.089094 0.158550 0.772876
0.092696 0.161699 0.804115
0.096297 0.164903 0.835354
0.099898 0.168155 0.866593
0.103499 0.171447 0.897832
0.109937 0.177259 0.926029
0.139074 0.203136 0.929890
0.168210 0.229344 0.933751
0.197346 0.255847 0.937612
0.226483 0.282615 0.941473
0.255619 0.309621 0.945334
0.284756 0.336841 0.949195
0.313892 0.364256 0.953056
0.027875 0.234838 0.029887
0.027875 0.234838 0.100529
0.027875 0.234838 0.171171
0.027875 0.234838 0.241813
0.031476 0.207075 0.273052
0.035078 0.191918 0.304291
0.038679 0.183062 0.335530
0.042280 0.177809 0.366769
0.045881 0.174806 0.398008
0.049482 0.173303 0.429247
0.053083 0.172851 0.460486
0.056684 0.173163 0.491725
0.060286 0.174048 0.522964
0.063887 0.175374 0.554203
0.067488 0.177046 0.585442
0.071089 0.178995 0.616681
0.074690 0.181169 0.647920
0.078291 0.183528 0.679159
0.081892 0.186042 0.710398
0.085493 0.188686 0.741637
0.089094 0.191440 0.772876
0.092696 0.194290 0.804115
0.096297 0.197221 0.835354
0.099898 0.200223 0.866593
0.103499 0.203288 0.897832
0.109937 0.208652 0.926029
0.139074 0.232300 0.929890
0.168210 0.256443 0.933751
0.197346 0.281029 0.937612
0.226483 0.306011 0.941473
0.255619 0.331351 0.945334
0.284756 0.357013 0.949195
0.313892 0.382967 0.953056
0.031476 0.265176 0.033748
0.031476 0.265176 0.093574
0.031476 0.265176 0.153400
0.031476 0.265176 0.213226
0.031476 0.265176 0.273052
0.035078 0.243716 0.304291
0.038679 0.230659 0.335530
0.042280 0.222404 0.366769
0.045881 0.217150 0.398008
0.049482 0.213897 0.429247
0.053083 0.212044 0.460486
0.056684 0.211211 0.491725
0.060286 0.211141 0.522964
0.063887 0.211658 0.554203
0.067488 0.212637 0.585442
0.071089 0.213986 0.616681
0.074690 0.215635 0.647920
0.078291 0.217531 0.679159
0.081892 0.219633 0.710398
0.085493 0.221908 0.741637
0.089094 0.224331 0.772876
0.092696 0.226880 0.804115
0.096297 0.229539 0.835354
0.099898 0.232292 0.866593
0.103499 0.235128 0.897832
0.109937 0.240046 0.926029
0.139074 0.261464 0.929890
0.168210 0.283542 0.933751
0.197346 0.306210 0.937612
0.226483 0.329408 0.941473
0.255619 0.353081 0.945334
0.284756 0.377184 0.949195
0.313892 0.401677 0.953056
0.035078 0.295513 0.037609
0.035078 0.295513 0.090945
0.035078 0.295513 0.144282
0.035078 0.295513 0.197618
0.035078 0.295513 0.250955
0.035078 0.295513 0.304291
0.038679 0.278255 0.335530
0.042280 0.266999 0.366769
0.045881 0.259494 0.398008
0.049482 0.254491 0.429247
0.053083 0.251237 0.460486
0.056684 0.249258 0.491725
0.060286 0.248233 0.522964
0.063887 0.247942 0.554203
0.067488 0.248229 0.585442
0.071089 0.248978 0.616681
0.074690 0.250101 0.647920
0.078291 0.251534 0.679159
0.081892 0.253224 0.710398
0.085493 0.255131 0.741637
0.089094 0.257222 0.772876
0.092696 0.259471 0.804115
0.096297 0.261856 0.835354
0.099898 0.264360 0.866593
0.103499 0.266968 0.897832
0.109937 0.271440 0.926029
0.139074 0.290627 0.929890
0.168210 0.310641 0.933751
0.197346 0.331392 0.937612
0.226483 0.352804 0.941473
0.255619 0.374811 0.945334
0.284756 0.397356 0.949195
0.313892 0.420387 0.953056
0.038679 0.325851 0.041470
0.038679 0.325851 0.090480
0.038679 0.325851 0.139490
0.038679 0.325851 0.188500
0.038679 0.325851 0.237510
0.038679 0.325851 0.286520
0.038679 0.325851 0.335530
0.042280 0.311594 0.366769
0.045881 0.301839 0.398008
0.049482 0.295084 0.429247
0.053083 0.290431 0.460486
0.056684 0.287305 0.491725
0.060286 0.285325 0.522964
0.063887 0.284227 0.554203
0.067488 0.283821 0.585442
0.071089 0.283969 0.616681
0.074690 0.284568 0.647920
0.078291 0.285537 0.679159
0.081892 0.286815 0.710398
0.085493 0.288353 0.741637
0.089094 0.290112 0.772876
0.092696 0.292061 0.804115
0.096297 0.294174 0.835354
0.099898 0.296429 0.866593
0.103499 0.298808 0.897832
0.109937 0.302834 0.926029
0.139074 0.319791 0.929890
0.168210 0.337740 0.933751
0.197346 0.356573 0.937612
0.226483 0.376200 0.941473
0.255619 0.396541 0.945334
0.284756 0.417527 0.949195
0.313892 0.439098 0.953056
0.042280 0.356189 0.045331
0.042280 0.356189 0.091251
0.042280 0.356189 0.137170
0.042280 0.356189 0.183090
0.042280 0.356189 0.229010
0.042280 0.356189 0.274930
0.042280 0.356189 0.320849
0.042280 0.356189 0.366769
0.045881 0.344183 0.398008
0.049482 0.335678 0.429247
0.053083 0.329624 0.460486
0.056684 0.325352 0.491725
0.060286 0.322417 0.522964
0.063887 0.320511 0.554203
0.067488 0.319412 0.585442
0.071089 0.318961 0.616681
0.074690 0.319034 0.647920
0.078291 0.319539 0.679159
0.081892 0.320406 0.710398
0.085493 0.321575 0.741637
0.089094 0.323003 0.772876
0.092696 0.324652 0.804115
0.096297 0.326492 0.835354
0.099898 0.328498 0.866593
0.103499 0.330649 0.897832
0.109937 0.334228 0.926029
0.139074 0.348955 0.929890
0.168210 0.364839 0.933751
0.197346 0.381755 0.937612
0.226483 0.399596 0.941473
0.255619 0.418271 0.945334
0.284756 0.437699 0.949195
0.313892 0.457808 0.953056
0.045881 0.386527 0.049192
0.045881 0.386527 0.092794
0.045881 0.386527 0.136396
0.045881 0.386527 0.179998
0.045881 0.386527 0.223600
0.045881 0.386527 0.267202
0.045881 0.386527 0.310804
0.045881 0.386527 0.354406
0.045881 0.386527 0.398008
0.049482 0.376271 0.429247
0.053083 0.368817 0.460486
0.056684 0.363399 0.491725
0.060286 0.359509 0.522964
0.063887 0.356795 0.554203
0.067488 0.355004 0.585442
0.071089 0.353952 0.616681
0.074690 0.353500 0.647920
0.078291 0.353542 0.679159
0.081892 0.353997 0.710398
0.085493 0.354798 0.741637
0.089094 0.355894 0.772876
0.092696 0.357242 0.804115
0.096297 0.358809 0.835354
0.099898 0.360566 0.866593
0.103499 0.362489 0.897832
0.109937 0.365622 0.926029
0.139074 0.378119 0.929890
0.168210 0.391938 0.933751
0.197346 0.406936 0.937612
0.226483 0.422993 0.941473
0.255619 0.440001 0.945334
0.284756 0.457870 0.949195
0.313892 0.476518 0.953056
0.049482 0.416865 0.053053
0.049482 0.416865 0.094852
0.049482 0.416865 0.136652
0.049482 0.416865 0.178451
0.049482 0.416865 0.220250
0.049482 0.416865 0.262050
0.049482 0.416865 0.303849
0.049482 0.416865 0.345648
0.049482 0.416865 0.387448
0.049482 0.416865 0.429247
0.053083 0.408010 0.460486
0.056684 0.401446 0.491725
0.060286 0.396602 0.522964
0.063887 0.393079 0.554203
0.067488 0.390596 0.585442
0.071089 0.388943 0.616681
0.074690 0.387966 0.647920
0.078291 0.387545 0.679159
0.081892 0.387587 0.710398
0.085493 0.388020 0.741637
0.089094 0.388784 0.772876
0.092696 0.389833 0.804115
0.096297 0.391127 0.835354
0.099898 0.392635 0.866593
0.103499 0.394329 0.897832
0.109937 0.397015 0.926029
0.139074 0.407283 0.929890
0.168210 0.419036 0.933751
0.197346 0.432118 0.937612
0.226483 0.446389 0.941473
0.255619 0.461732 0.945334
0.284756 0.478042 0.949195
0.313892 0.495228 0.953056
0.053083 0.447203 0.056914
0.053083 0.447203 0.097271
0.053083 0.447203 0.137628
0.053083 0.447203 0.177986
0.053083 0.447203 0.218343
0.053083 0.447203 0.258700
0.053083 0.447203 0.299057
0.053083 0.447203 0.339414
0.053083 0.447203 0.379772
0.053083 0.447203 0.420129
0.053083 0.447203 0.460486
0.056684 0.439493 0.491725
0.060286 0.433694 0.522964
0.063887 0.429364 0.554203
0.067488 0.426188 0.585442
0.071089 0.423935 0.616681
0.074690 0.422432 0.647920
0.078291 0.421548 0.679159
0.081892 0.421178 0.710398
0.085493 0.421242 0.741637
0.089094 0.421675 0.772876
0.092696 0.422423 0.804115
0.096297 0.423445 0.835354
0.099898 0.424703 0.866593
0.103499 0.426169 0.897832
0.109937 0.428409 0.926029
0.139074 0.436446 0.929890
0.168210 0.446135 0.933751
0.197346 0.457299 0.937612
0.226483 0.469785 0.941473
0.255619 0.483462 0.945334
0.284756 0.498213 0.949195
0.313892 0.513938 0.953056
0.056684 0.477541 0.060775
0.056684 0.477541 0.099952
0.056684 0.477541 0.139130
0.056684 0.477541 0.178307
0.056684 0.477541 0.217484
0.056684 0.477541 0.256661
0.056684 0.477541 0.295839
0.056684 0.477541 0.335016
0.056684 0.477541 0.374193
0.056684 0.477541 0.413370
0.056684 0.477541 0.452548
0.056684 0.477541 0.491725
0.060286 0.470786 0.522964
0.063887 0.465648 0.554203
0.067488 0.461779 0.585442
0.071089 0.458926 0.616681
0.074690 0.456899 0.647920
0.078291 0.455551 0.679159
0.081892 0.454769 0.710398
0.085493 0.454465 0.741637
0.089094 0.454566 0.772876
0.092696 0.455014 0.804115
0.096297 0.455762 0.835354
0.099898 0.456772 0.866593
0.103499 0.458010 0.897832
0.109937 0.459803 0.926029
0.139074 0.465610 0.929890
0.168210 0.473234 0.933751
0.197346 0.482481 0.937612
0.226483 0.493182 0.941473
0.255619 0.505192 0.945334
0.284756 0.518385 0.949195
0.313892 0.532649 0.953056
0.060286 0.507879 0.064636
0.060286 0.507879 0.102830
0.060286 0.507879 0.141024
0.060286 0.507879 0.179218
0.060286 0.507879 0.217412
0.060286 0.507879 0.255606
0.060286 0.507879 0.293800
0.060286 0.507879 0.331994
0.060286 0.507879 0.370188
0.060286 0.507879 0.408382
0.060286 0.507879 0.446576
0.060286 0.507879 0.484770
0.060286 0.507878 0.522964
0.063887 0.501932 0.554203
0.067488 0.497371 0.585442
0.071089 0.493918 0.616681
0.074690 0.491365 0.647920
0.078291 0.489554 0.679159
0.081892 0.488360 0.710398
0.085493 0.487687 0.741637
0.089094 0.487456 0.772876
0.092696 0.487605 0.804115
0.096297 0.488080 0.835354
0.099898 0.488841 0.866593
0.103499 0.489850 0.897832
0.109937 0.491197 0.926029
0.139074 0.494774 0.929890
0.168210 0.500333 0.933751
0.197346 0.507662 0.937612
0.226483 0.516578 0.941473
0.255619 0.526922 0.945334
0.284756 0.538556 0.949195
0.313892 0.551359 0.953056
0.063887 0.538216 0.068497
0.063887 0.538216 0.105859
0.063887 0.538216 0.143221
0.063887 0.538216 0.180583
0.063887 0.538216 0.217945
0.063887 0.538216 0.255307
0.063887 0.538216 0.292669
0.063887 0.538216 0.330031
0.063887 0.538216 0.367393
0.063887 0.538216 0.404755
0.063887 0.538216 0.442117
0.063887 0.538216 0.479479
0.063887 0.538216 0.516841
0.063887 0.538216 0.554203
0.067488 0.532963 0.585442
0.071089 0.528909 0.616681
0.074690 0.525831 0.647920
0.078291 0.523557 0.679159
0.081892 0.521951 0.710398
0.085493 0.520909 0.741637
0.089094 0.520347 0.772876
0.092696 0.520195 0.804115
0.096297 0.520398 0.835354
0.099898 0.520909 0.866593
0.103499 0.521690 0.897832
0.109937 0.522591 0.926029
0.139074 0.523937 0.929890
0.168210 0.527432 0.933751
0.197346 0.532844 0.937612
0.226483 0.539974 0.941473
0.255619 0.548652 0.945334
0.284756 0.558728 0.949195
0.313892 0.570069 0.953056
0.067488 0.568554 0.072358
0.067488 0.568554 0.109007
0.067488 0.568554 0.145656
0.067488 0.568554 0.182305
0.067488 0.568554 0.218953
0.067488 0.568554 0.255602
0.067488 0.568554 0.292251
0.067488 0.568554 0.328900
0.067488 0.568554 0.365549
0.067488 0.568554 0.402198
0.067488 0.568554 0.438847
0.067488 0.568554 0.475495
0.067488 0.568554 0.512144
0.067488 0.568554 0.548793
0.067488 0.568554 0.585442
0.071089 0.563901 0.616681
0.074690 0.560297 0.647920
0.078291 0.557559 0.679159
0.081892 0.555542 0.710398
0.085493 0.554132 0.741637
0.089094 0.553238 0.772876
0.092696 0.552786 0.804115
0.096297 0.552716 0.835354
0.099898 0.552978 0.866593
0.103499 0.553530 0.897832
0.109937 0.553984 0.926029
0.139074 0.553101 0.929890
0.168210 0.554531 0.933751
0.197346 0.558025 0.937612
0.226483 0.563371 0.941473
0.255619 0.570382 0.945334
0.284756 0.578899 0.949195
0.313892 0.588779 0.953056
0.071089 0.598892 0.076219
0.071089 0.598892 0.112250
0.071089 0.598892 0.148281
0.071089 0.598892 0.184311
0.071089 0.598892 0.220342
0.071089 0.598892 0.256373
0.071089 0.598892 0.292404
0.071089 0.598892 0.328435
0.071089 0.598892 0.364465
0.071089 0.598892 0.400496
0.071089 0.598892 0.436527
0.071089 0.598892 0.472558
0.071089 0.598892 0.508589
0.071089 0.598892 0.544619
0.071089 0.598892 0.580650
0.071089 0.598892 0.616681
0.074690 0.594764 0.647920
0.078291 0.591562 0.679159
0.081892 0.589133 0.710398
0.085493 0.587354 0.741637
0.089094 0.586128 0.772876
0.092696 0.585376 0.804115
0.096297 0.585033 0.835354
0.099898 0.585046 0.866593
0.103499 0.585371 0.897832
0.109937 0.585378 0.926029
0.139074 0.582265 0.929890
0.168210 0.581630 0.933751
0.197346 0.583206 0.937612
0.226483 0.586767 0.941473
0.255619 0.592112 0.945334
0.284756 0.599071 0.949195
0.313892 0.607490 0.953056
0.074690 0.629230 0.080080
0.074690 0.629230 0.115570
0.074690 0.629230 0.151060
0.074690 0.629230 0.186550
0.074690 0.629230 0.222040
0.074690 0.629230 0.257530
0.074690 0.629230 0.293020
0.074690 0.629230 0.328510
0.074690 0.629230 0.364000
0.074690 0.629230 0.399490
0.074690 0.629230 0.434980
0.074690 0.629230 0.470470
0.074690 0.629230 0.505960
0.074690 0.629230 0.541450
0.074690 0.629230 0.576940
0.074690 0.629230 0.612430
0.074690 0.629230 0.647920
0.078291 0.625565 0.679159
0.081892 0.622724 0.710398
0.085493 0.620577 0.741637
0.089094 0.619019 0.772876
0.092696 0.617967 0.804115
0.096297 0.617351 0.835354
0.099898 0.617115 0.866593
0.103499 0.617211 0.897832
0.109937 0.616772 0.926029
0.139074 0.611429 0.929890
0.168210 0.608728 0.933751
0.197346 0.608388 0.937612
0.226483 0.610163 0.941473
0.255619 0.613843 0.945334
0.284756 0.619242 0.949195
0.313892 0.626200 0.953056
0.078291 0.659568 0.083941
0.078291 0.659568 0.118954
0.078291 0.659568 0.153967
0.078291 0.659568 0.188979
0.078291 0.659568 0.223992
0.078291 0.659568 0.259005
0.078291 0.659568 0.294018
0.078291 0.659568 0.329031
0.078291 0.659568 0.364044
0.078291 0.659568 0.399056
0.078291 0.659568 0.434069
0.078291 0.659568 0.469082
0.078291 0.659568 0.504095
0.078291 0.659568 0.539108
0.078291 0.659568 0.574121
0.078291 0.659568 0.609133
0.078291 0.659568 0.644146
0.078291 0.659568 0.679159
0.081892 0.656315 0.710398
0.085493 0.653799 0.741637
0.089094 0.651910 0.772876
0.092696 0.650557 0.804115
0.096297 0.649669 0.835354
0.099898 0.649184 0.866593
0.103499 0.649051 0.897832
0.109937 0.648166 0.926029
0.139074 0.640592 0.929890
0.168210 0.635827 0.933751
0.197346 0.633569 0.937612
0.226483 0.633560 0.941473
0.255619 0.635573 0.945334
0.284756 0.639413 0.949195
0.313892 0.644910 0.953056
0.081892 0.689906 0.087802
0.081892 0.689906 0.122391
0.081892 0.689906 0.156979
0.081892 0.689906 0.191568
0.081892 0.689906 0.226157
0.081892 0.689906 0.260745
0.081892 0.689906 0.295334
0.081892 0.689906 0.329923
0.081892 0.689906 0.364511
0.081892 0.689906 0.399100
0.081892 0.689906 0.433689
0.081892 0.689906 0.468277
0.081892 0.689906 0.502866
0.081892 0.689906 0.537455
0.081892 0.689906 0.572043
0.081892 0.689906 0.606632
0.081892 0.689906 0.641221
0.081892 0.689906 0.675809
0.081892 0.689906 0.710398
0.085493 0.687021 0.741637
0.089094 0.684800 0.772876
0.092696 0.683148 0.804115
0.096297 0.681986 0.835354
0.099898 0.681252 0.866593
0.103499 0.680891 0.897832
0.109937 0.679560 0.926029
0.139074 0.669756 0.929890
0.168210 0.662926 0.933751
0.197346 0.658751 0.937612
0.226483 0.656956 0.941473
0.255619 0.657303 0.945334
0.284756 0.659585 0.949195
0.313892 0.663620 0.953056
0.085493 0.720244 0.091663
0.085493 0.720244 0.125872
0.085493 0.720244 0.160081
0.085493 0.720244 0.194290
0.085493 0.720244 0.228500
0.085493 0.720244 0.262709
0.085493 0.720244 0.296918
0.085493 0.720244 0.331127
0.085493 0.720244 0.365336
0.085493 0.720244 0.399545
0.085493 0.720244 0.433755
0.085493 0.720244 0.467964
0.085493 0.720244 0.502173
0.085493 0.720244 0.536382
0.085493 0.720244 0.570591
0.085493 0.720244 0.604800
0.085493 0.720244 0.639010
0.085493 0.720244 0.673219
0.085493 0.720244 0.707428
0.085493 0.720244 0.741637
0.089094 0.717691 0.772876
0.092696 0.715738 0.804115
0.096297 0.714304 0.835354
0.099898 0.713321 0.866593
0.103499 0.712732 0.897832
0.109937 0.710954 0.926029
0.139074 0.698920 0.929890
0.168210 0.690025 0.933751
0.197346 0.683932 0.937612
0.226483 0.680352 0.941473
0.255619 0.679033 0.945334
0.284756 0.679756 0.949195
0.313892 0.682331 0.953056
0.089094 0.750582 0.095524
0.089094 0.750582 0.129392
0.089094 0.750582 0.163259
0.089094 0.750582 0.197127
0.089094 0.750582 0.230994
0.089094 0.750582 0.264862
0.089094 0.750582 0.298730
0.089094 0.750582 0.332597
0.089094 0.750582 0.366465
0.089094 0.750582 0.400332
0.089094 0.750582 0.434200
0.089094 0.750582 0.468068
0.089094 0.750582 0.501935
0.089094 0.750582 0.535803
0.089094 0.750582 0.569670
0.089094 0.750582 0.603538
0.089094 0.750582 0.637406
0.089094 0.750582 0.671273
0.089094 0.750582 0.705141
0.089094 0.750582 0.739008
0.089094 0.750582 0.772876
0.092696 0.748329 0.804115
0.096297 0.746622 0.835354
0.099898 0.745389 0.866593
0.103499 0.744572 0.897832
0.109937 0.742347 0.926029
0.139074 0.728084 0.929890
0.168210 0.717124 0.933751
0.197346 0.709114 0.937612
0.226483 0.703748 0.941473
0.255619 0.700763 0.945334
0.284756 0.699928 0.949195
0.313892 0.701041 0.953056
0.092696 0.780919 0.099385
0.092696 0.780919 0.132944
0.092696 0.780919 0.166502
0.092696 0.780919 0.200061
0.092696 0.780919 0.233619
0.092696 0.780919 0.267178
0.092696 0.780919 0.300736
0.092696 0.780919 0.334295
0.092696 0.780919 0.367854
0.092696 0.780919 0.401412
0.092696 0.780919 0.434971
0.092696 0.780919 0.468529
0.092696 0.780919 0.502088
0.092696 0.780919 0.535646
0.092696 0.780919 0.569205
0.092696 0.780919 0.602764
0.092696 0.780919 0.636322
0.092696 0.780919 0.669881
0.092696 0.780919 0.703439
0.092696 0.780919 0.736998
0.092696 0.780919 0.770556
0.092696 0.780919 0.804115
0.096297 0.778940 0.835354
0.099898 0.777458 0.866593
0.103499 0.776412 0.897832
0.109937 0.773741 0.926029
0.139074 0.757247 0.929890
0.168210 0.744223 0.933751
0.197346 0.734295 0.937612
0.226483 0.727145 0.941473
0.255619 0.722493 0.945334
0.284756 0.720099 0.949195
0.313892 0.719751 0.953056
0.096297 0.811257 0.103246
0.096297 0.811257 0.136524
0.096297 0.811257 0.169801
0.096297 0.811257 0.203079
0.096297 0.811257 0.236357
0.096297 0.811257 0.269634
0.096297 0.811257 0.302912
0.096297 0.811257 0.336189
0.096297 0.811257 0.369467
0.096297 0.811257 0.402745
0.096297 0.811257 0.436022
0.096297 0.811257 0.469300
0.096297 0.811257 0.502578
0.096297 0.811257 0.535855
0.096297 0.811257 0.569133
0.096297 0.811257 0.602411
0.096297 0.811257 0.635688
0.096297 0.811257 0.668966
0.096297 0.811257 0.702243
0.096297 0.811257 0.735521
0.096297 0.811257 0.768799
0.096297 0.811257 0.802076
0.096297 0.811257 0.835354
0.099898 0.809527 0.866593
0.103499 0.808252 0.897832
0.109937 0.805135 0.926029
0.139074 0.786411 0.929890
0.168210 0.771322 0.933751
0.197346 0.759477 0.937612
0.226483 0.750541 0.941473
0.255619 0.744224 0.945334
0.284756 0.740271 0.949195
0.313892 0.738461 0.953056
0.099898 0.841595 0.107107
0.099898 0.841595 0.140128
0.099898 0.841595 0.173149
0.099898 0.841595 0.206170
0.099898 0.841595 0.239192
0.099898 0.841595 0.272213
0.099898 0.841595 0.305234
0.099898 0.841595 0.338255
0.099898 0.841595 0.371276
0.099898 0.841595 0.404297
0.099898 0.841595 0.437318
0.099898 0.841595 0.470339
0.099898 0.841595 0.503361
0.099898 0.841595 0.536382
0.099898 0.841595 0.569403
0.099898 0.841595 0.602424
0.099898 0.841595 0.635445
0.099898 0.841595 0.668466
0.099898 0.841595 0.701487
0.099898 0.841595 0.734508
0.099898 0.841595 0.767530
0.099898 0.841595 0.800551
0.099898 0.841595 0.833572
0.099898 0.841595 0.866593
0.103499 0.840093 0.897832
0.109937 0.836529 0.926029
0.139074 0.815575 0.929890
0.168210 0.798420 0.933751
0.197346 0.784658 0.937612
0.226483 0.773937 0.941473
0.255619 0.765954 0.945334
0.284756 0.760442 0.949195
0.313892 0.757172 0.953056
0.103499 0.871933 0.110968
0.103499 0.871933 0.143754
0.103499 0.871933 0.176540
0.103499 0.871933 0.209326
0.103499 0.871933 0.242112
0.103499 0.871933 0.274898
0.103499 0.871933 0.307684
0.103499 0.871933 0.340470
0.103499 0.871933 0.373256
0.103499 0.871933 0.406042
0.103499 0.871933 0.438828
0.103499 0.871933 0.471614
0.103499 0.871933 0.504400
0.103499 0.871933 0.537186
0.103499 0.871933 0.569972
0.103499 0.871933 0.602758
0.103499 0.871933 0.635544
0.103499 0.871933 0.668330
0.103499 0.871933 0.701116
0.103499 0.871933 0.733902
0.103499 0.871933 0.766688
0.103499 0.871933 0.799474
0.103499 0.871933 0.832260
0.103499 0.871933 0.865046
0.103499 0.871933 0.897832
0.109937 0.867923 0.926029
0.139074 0.844739 0.929890
0.168210 0.825519 0.933751
0.197346 0.809840 0.937612
0.226483 0.797334 0.941473
0.255619 0.787684 0.945334
0.284756 0.780614 0.949195
0.313892 0.775882 0.953056
0.109937 0.899317 0.117871
0.109937 0.899317 0.150197
0.109937 0.899317 0.182524
0.109937 0.899317 0.214850
0.109937 0.899317 0.247176
0.109937 0.899317 0.279503
0.109937 0.899317 0.311829
0.109937 0.899317 0.344155
0.109937 0.899317 0.376482
0.109937 0.899317 0.408808
0.109937 0.899317 0.441134
0.109937 0.899317 0.473461
0.109937 0.899317 0.505787
0.109937 0.899317 0.538113
0.109937 0.899317 0.570439
0.109937 0.899317 0.602766
0.109937 0.899317 0.635092
0.109937 0.899317 0.667418
0.109937 0.899317 0.699745
0.109937 0.899317 0.732071
0.109937 0.899317 0.764397
0.109937 0.899317 0.796724
0.109937 0.899317 0.829050
0.109937 0.899317 0.861376
0.109937 0.899317 0.893703
0.109937 0.899317 0.926029
0.139074 0.873902 0.929890
0.168210 0.852618 0.933751
0.197346 0.835021 0.937612
0.226483 0.820730 0.941473
0.255619 0.809414 0.945334
0.284756 0.800785 0.949195
0.313892 0.794592 0.953056
0.139074 0.903066 0.149110
0.139074 0.903066 0.179140
0.139074 0.903066 0.209170
0.139074 0.903066 0.239200
0.139074 0.903066 0.269230
0.139074 0.903066 0.299260
0.139074 0.903066 0.329290
0.139074 0.903066 0.359320
0.139074 0.903066 0.389350
0.139074 0.903066 0.419380
0.139074 0.903066 0.449410
0.139074 0.903066 0.479440
0.139074 0.903066 0.509470
0.139074 0.903066 0.539500
0.139074 0.903066 0.569530
0.139074 0.903066 0.599560
0.139074 0.903066 0.629590
0.139074 0.903066 0.659620
0.139074 0.903066 0.689650
0.139074 0.903066 0.719680
0.139074 0.903066 0.749710
0.139074 0.903066 0.779740
0.139074 0.903066 0.809770
0.139074 0.903066 0.839800
0.139074 0.903066 0.869830
