src/flutter_app/assets/presets/clean-white.cube
# PoseCraft LUT preset
# Generated automatically for Phase 1
TITLE "PoseCraft Preset"
LUT_3D_SIZE 5
DOMAIN_MIN 0.0 0.0 0.0
DOMAIN_MAX 1.0 1.0 1.0
0.077600 0.080800 0.083200
0.045881 0.047773 0.398008
0.074690 0.077770 0.647920
0.103499 0.107767 0.897832
0.313892 0.326836 0.953056
0.045881 0.386527 0.049192
0.045881 0.386527 0.398008
0.074690 0.353500 0.647920
0.103499 0.362489 0.897832
0.313892 0.476518 0.953056
0.074690 0.629230 0.080080
0.074690 0.629230 0.364000
0.074690 0.629230 0.647920
0.103499 0.617211 0.897832
0.313892 0.626200 0.953056
0.103499 0.871933 0.110968
0.103499 0.871933 0.373256
0.103499 0.871933 0.635544
0.103499 0.871933 0.897832
0.313892 0.775882 0.953056
0.313892 0.925564 0.336544
0.313892 0.925564 0.490672
0.313892 0.925564 0.644800
0.313892 0.925564 0.798928
0.313892 0.925564 0.953056
0.371219 0.047773 0.049192
0.371219 0.047773 0.398008
0.339500 0.077770 0.647920
0.348133 0.107767 0.897832
0.457646 0.326836 0.953056
0.371219 0.386527 0.049192
0.339500 0.353500 0.364000
0.348133 0.362489 0.635544
0.457646 0.476518 0.798928
0.546983 0.569539 0.983944
0.339500 0.629230 0.080080
0.348133 0.617211 0.373256
0.348133 0.617211 0.635544
0.457646 0.626200 0.798928
0.546983 0.698213 0.983944
0.348133 0.871933 0.110968
0.457646 0.775882 0.490672
0.457646 0.775882 0.644800
0.457646 0.775882 0.798928
0.546983 0.826887 0.983944
0.457646 0.925564 0.336544
0.546983 0.955561 0.586456
0.546983 0.955561 0.718952
0.546983 0.955561 0.851448
0.546983 0.955561 0.983944
0.604310 0.077770 0.080080
0.604310 0.077770 0.364000
0.604310 0.077770 0.647920
0.592767 0.107767 0.897832
0.601400 0.326836 0.953056
0.604310 0.353500 0.080080
0.592767 0.362489 0.373256
0.592767 0.362489 0.635544
0.601400 0.476518 0.798928
0.670561 0.569539 0.983944
0.604310 0.629230 0.080080
0.592767 0.617211 0.373256
0.601400 0.626200 0.644800
0.670561 0.698213 0.851448
0.780074 0.812242 1.014832
0.592767 0.871933 0.110968
0.601400 0.775882 0.490672
0.670561 0.826887 0.718952
0.670561 0.826887 0.851448
0.780074 0.898900 1.014832
0.601400 0.925564 0.336544
0.670561 0.955561 0.586456
0.780074 0.985558 0.836368
0.780074 0.985558 0.925600
0.780074 0.985558 1.014832
0.837401 0.107767 0.110968
0.837401 0.107767 0.373256
0.837401 0.107767 0.635544
0.837401 0.107767 0.897832
0.745154 0.326836 0.953056
0.837401 0.362489 0.110968
0.745154 0.476518 0.490672
0.745154 0.476518 0.644800
0.745154 0.476518 0.798928
0.794139 0.569539 0.983944
0.837401 0.617211 0.110968
0.745154 0.626200 0.490672
0.794139 0.698213 0.718952
0.794139 0.698213 0.851448
0.863300 0.812242 1.014832
0.837401 0.871933 0.110968
0.745154 0.775882 0.490672
0.794139 0.826887 0.718952
0.863300 0.898900 0.925600
0.970000 1.010000 1.040000
0.745154 0.925564 0.336544
0.794139 0.955561 0.586456
0.863300 0.985558 0.836368
0.970000 1.010000 1.040000
0.970000 1.010000 1.040000
0.888908 0.326836 0.336544
0.888908 0.326836 0.490672
0.888908 0.326836 0.644800
0.888908 0.326836 0.798928
0.888908 0.326836 0.953056
0.888908 0.476518 0.336544
0.917717 0.569539 0.586456
0.917717 0.569539 0.718952
0.917717 0.569539 0.851448
0.917717 0.569539 0.983944
0.888908 0.626200 0.336544
0.917717 0.698213 0.586456
0.946526 0.812242 0.836368
0.946526 0.812242 0.925600
0.946526 0.812242 1.014832
0.888908 0.775882 0.336544
0.917717 0.826887 0.586456
0.946526 0.898900 0.836368
0.970000 1.010000 1.040000
0.970000 1.010000 1.040000
0.888908 0.925564 0.336544
0.917717 0.955561 0.586456
0.946526 0.985558 0.836368
0.970000 1.010000 1.040000
0.970000 1.010000 1.040000
