src/flutter_app/assets/presets/clean-white.cube
# PoseCraft LUT preset
# Generated automatically for Phase 1
TITLE "PoseCraft Preset"
LUT_3D_SIZE 9
DOMAIN_MIN 0.0 0.0 0.0
DOMAIN_MAX 1.0 1.0 1.0
0.077600 0.080800 0.083200
0.031476 0.032774 0.273052
0.045881 0.047773 0.398008
0.060286 0.062772 0.522964
0.074690 0.077770 0.647920
0.089094 0.092768 0.772876
0.103499 0.107767 0.897832
0.197346 0.205484 0.937612
0.313892 0.326836 0.953056
0.031476 0.265176 0.033748
0.031476 0.265176 0.273052
0.045881 0.217150 0.398008
0.060286 0.211141 0.522964
0.074690 0.215635 0.647920
0.089094 0.224331 0.772876
0.103499 0.235128 0.897832
0.197346 0.306210 0.937612
0.313892 0.401677 0.953056
0.045881 0.386527 0.049192
0.045881 0.386527 0.223600
0.045881 0.386527 0.398008
0.060286 0.359509 0.522964
0.074690 0.353500 0.647920
0.089094 0.355894 0.772876
0.103499 0.362489 0.897832
0.197346 0.406936 0.937612
0.313892 0.476518 0.953056
0.060286 0.507879 0.064636
0.060286 0.507879 0.217412
0.060286 0.507879 0.370188
0.060286 0.507878 0.522964
0.074690 0.491365 0.647920
0.089094 0.487456 0.772876
0.103499 0.489850 0.897832
0.197346 0.507662 0.937612
0.313892 0.551359 0.953056
0.074690 0.629230 0.080080
0.074690 0.629230 0.222040
0.074690 0.629230 0.364000
0.074690 0.629230 0.505960
0.074690 0.629230 0.647920
0.089094 0.619019 0.772876
0.103499 0.617211 0.897832
0.197346 0.608388 0.937612
0.313892 0.626200 0.953056
0.089094 0.750582 0.095524
0.089094 0.750582 0.230994
0.089094 0.750582 0.366465
0.089094 0.750582 0.501935
0.089094 0.750582 0.637406
0.089094 0.750582 0.772876
0.103499 0.744572 0.897832
0.197346 0.709114 0.937612
0.313892 0.701041 0.953056
0.103499 0.871933 0.110968
0.103499 0.871933 0.242112
0.103499 0.871933 0.373256
0.103499 0.871933 0.504400
0.103499 0.871933 0.635544
0.103499 0.871933 0.766688
0.103499 0.871933 0.897832
0.197346 0.809840 0.937612
0.313892 0.775882 0.953056
0.197346 0.910566 0.211588
0.197346 0.910566 0.315306
0.197346 0.910566 0.419023
0.197346 0.910566 0.522741
0.197346 0.910566 0.626459
0.197346 0.910566 0.730177
0.197346 0.910566 0.833894
0.197346 0.910565 0.937612
0.313892 0.850723 0.953056
0.313892 0.925564 0.336544
0.313892 0.925564 0.413608
0.313892 0.925564 0.490672
0.313892 0.925564 0.567736
0.313892 0.925564 0.644800
0.313892 0.925564 0.721864
0.313892 0.925564 0.798928
0.313892 0.925564 0.875992
0.313892 0.925564 0.953056
0.254674 0.032774 0.033748
0.254674 0.032774 0.273052
0.208550 0.047773 0.398008
0.202779 0.062772 0.522964
0.207095 0.077770 0.647920
0.215447 0.092768 0.772876
0.225816 0.107767 0.897832
0.294083 0.205484 0.937612
0.385769 0.326836 0.953056
0.254673 0.265176 0.033748
0.208550 0.217150 0.223600
0.202779 0.211141 0.370188
0.207095 0.215635 0.505960
0.215447 0.224331 0.637406
0.225816 0.235128 0.766688
0.294083 0.306210 0.833894
0.385769 0.401677 0.875992
0.430437 0.448187 0.968500
0.208550 0.386527 0.049192
0.202779 0.359510 0.217412
0.202779 0.359509 0.370188
0.207095 0.353500 0.505960
0.215447 0.355894 0.637406
0.225816 0.362489 0.766688
0.294083 0.406936 0.833894
0.385769 0.476518 0.875992
0.430437 0.518527 0.968500
0.202778 0.507879 0.064636
0.207095 0.491365 0.222040
0.207095 0.491365 0.364000
0.207095 0.491365 0.505960
0.215447 0.487456 0.637406
0.225816 0.489850 0.766688
0.294083 0.507662 0.833894
0.385769 0.551359 0.875992
0.430437 0.588866 0.968500
0.207095 0.629230 0.080080
0.215447 0.619019 0.230994
0.215447 0.619019 0.366465
0.215447 0.619019 0.501935
0.215447 0.619019 0.637406
0.225816 0.617211 0.766688
0.294083 0.608388 0.833894
0.385769 0.626200 0.875992
0.430437 0.659205 0.968500
0.215447 0.750582 0.095524
0.225816 0.744572 0.242112
0.225816 0.744572 0.373256
0.225816 0.744572 0.504400
0.225816 0.744572 0.635544
0.225816 0.744572 0.766688
0.294083 0.709114 0.833894
0.385769 0.701041 0.875992
0.430437 0.729545 0.968500
0.225816 0.871933 0.110968
0.294083 0.809840 0.315306
0.294083 0.809840 0.419023
0.294083 0.809840 0.522741
0.294083 0.809840 0.626459
0.294083 0.809840 0.730177
0.294083 0.809840 0.833894
0.385769 0.775882 0.875992
0.430437 0.799884 0.968500
0.294083 0.910566 0.211588
0.385769 0.850723 0.413608
0.385769 0.850723 0.490672
0.385769 0.850723 0.567736
0.385769 0.850723 0.644800
0.385769 0.850723 0.721864
0.385769 0.850723 0.798928
0.385769 0.850723 0.875992
0.430437 0.870223 0.968500
0.385769 0.925564 0.336544
0.430437 0.940563 0.461500
0.430437 0.940563 0.533929
0.430437 0.940563 0.606357
0.430437 0.940563 0.678786
0.430437 0.940563 0.751214
0.430437 0.940563 0.823643
0.430437 0.940563 0.896071
0.430437 0.940562 0.968500
0.371219 0.047773 0.049192
0.371219 0.047773 0.223600
0.371219 0.047773 0.398008
0.345272 0.062772 0.522964
0.339500 0.077770 0.647920
0.341799 0.092768 0.772876
0.348133 0.107767 0.897832
0.390820 0.205484 0.937612
0.457646 0.326836 0.953056
0.371219 0.217150 0.049192
0.345272 0.211141 0.217412
0.345272 0.211141 0.370188
0.339500 0.215635 0.505960
0.341799 0.224331 0.637406
0.348133 0.235128 0.766688
0.390820 0.306210 0.833894
0.457646 0.401677 0.875992
0.497991 0.448187 0.968500
0.371219 0.386527 0.049192
0.345271 0.359510 0.217412
0.339500 0.353500 0.364000
0.341799 0.355894 0.501935
0.348133 0.362489 0.635544
0.390820 0.406936 0.730177
0.457646 0.476518 0.798928
0.497991 0.518527 0.896071
0.546983 0.569539 0.983944
0.345271 0.507879 0.064636
0.339500 0.491365 0.222040
0.341799 0.487456 0.366465
0.341799 0.487456 0.501935
0.348133 0.489850 0.635544
0.390820 0.507662 0.730177
0.457646 0.551359 0.798928
0.497991 0.588866 0.896071
0.546983 0.633876 0.983944
0.339500 0.629230 0.080080
0.341799 0.619019 0.230994
0.348133 0.617211 0.373256
0.348133 0.617211 0.504400
0.348133 0.617211 0.635544
0.390820 0.608388 0.730177
0.457646 0.626200 0.798928
0.497991 0.659205 0.896071
0.546983 0.698213 0.983944
0.341799 0.750582 0.095524
0.348133 0.744572 0.242112
0.390820 0.709114 0.419023
0.390820 0.709114 0.522741
0.390820 0.709114 0.626459
0.390820 0.709114 0.730177
0.457646 0.701041 0.798928
0.497991 0.729545 0.896071
0.546983 0.762550 0.983944
0.348133 0.871933 0.110968
0.390820 0.809840 0.315306
0.457646 0.775882 0.490672
0.457646 0.775882 0.567736
0.457646 0.775882 0.644800
0.457646 0.775882 0.721864
0.457646 0.775882 0.798928
0.497991 0.799884 0.896071
0.546983 0.826887 0.983944
0.390820 0.910566 0.211588
0.457646 0.850723 0.413608
0.497991 0.870223 0.533929
0.497991 0.870223 0.606357
0.497991 0.870223 0.678786
0.497991 0.870223 0.751214
0.497991 0.870223 0.823643
0.497991 0.870223 0.896071
0.546983 0.891224 0.983944
0.457646 0.925564 0.336544
0.497991 0.940563 0.461500
0.546983 0.955561 0.586456
0.546983 0.955561 0.652704
0.546983 0.955561 0.718952
0.546983 0.955561 0.785200
0.546983 0.955561 0.851448
0.546983 0.955561 0.917696
0.546983 0.955561 0.983944
0.487764 0.062772 0.064636
0.487764 0.062772 0.217412
0.487764 0.062772 0.370188
0.487764 0.062772 0.522964
0.471905 0.077770 0.647920
0.468151 0.092768 0.772876
0.470450 0.107767 0.897832
0.487557 0.205484 0.937612
0.529523 0.326836 0.953056
0.487764 0.211141 0.064636
0.471905 0.215635 0.222040
0.471905 0.215635 0.364000
0.471905 0.215635 0.505960
0.468151 0.224331 0.637406
0.470450 0.235128 0.766688
0.487557 0.306210 0.833894
0.529523 0.401677 0.875992
0.565545 0.448187 0.968500
0.487764 0.359509 0.064636
0.471905 0.353500 0.222040
0.468151 0.355894 0.366465
0.468151 0.355894 0.501935
0.470450 0.362489 0.635544
0.487557 0.406936 0.730177
0.529523 0.476518 0.798928
0.565545 0.518527 0.896071
0.608772 0.569539 0.983944
0.487764 0.507879 0.064636
0.471905 0.491365 0.222040
0.468151 0.487456 0.366465
0.470450 0.489850 0.504400
0.487557 0.507662 0.626459
0.529523 0.551359 0.721864
0.565545 0.588866 0.823643
0.608772 0.633876 0.917696
0.663529 0.690891 0.999388
0.471905 0.629230 0.080080
0.468151 0.619019 0.230994
0.470450 0.617211 0.373256
0.487557 0.608388 0.522741
0.487557 0.608388 0.626459
0.529523 0.626200 0.721864
0.565545 0.659205 0.823643
0.608772 0.698213 0.917696
0.663529 0.746824 0.999388
0.468151 0.750582 0.095524
0.470450 0.744572 0.242112
0.487557 0.709114 0.419023
0.529523 0.701041 0.567736
0.529523 0.701041 0.644800
0.529523 0.701041 0.721864
0.565545 0.729545 0.823643
0.608772 0.762550 0.917696
0.663529 0.802758 0.999388
0.470450 0.871933 0.110968
0.487557 0.809840 0.315306
0.529523 0.775882 0.490672
0.565545 0.799884 0.606357
0.565545 0.799884 0.678786
0.565545 0.799884 0.751214
0.565545 0.799884 0.823643
0.608772 0.826887 0.917696
0.663529 0.858692 0.999388
0.487557 0.910566 0.211588
0.529523 0.850723 0.413608
0.565545 0.870223 0.533929
0.608772 0.891224 0.652704
0.608772 0.891224 0.718952
0.608772 0.891224 0.785200
0.608772 0.891224 0.851448
0.608772 0.891224 0.917696
0.663529 0.914626 0.999388
0.529523 0.925564 0.336544
0.565545 0.940563 0.461500
0.608772 0.955561 0.586456
0.663529 0.970560 0.711412
0.663529 0.970560 0.769007
0.663529 0.970560 0.826602
0.663529 0.970560 0.884198
0.663529 0.970560 0.941793
0.663529 0.970560 0.999388
0.604310 0.077770 0.080080
0.604310 0.077770 0.222040
0.604310 0.077770 0.364000
0.604310 0.077770 0.505960
0.604310 0.077770 0.647920
0.594503 0.092768 0.772876
0.592767 0.107767 0.897832
0.584293 0.205484 0.937612
0.601400 0.326836 0.953056
0.604310 0.215635 0.080080
0.594503 0.224331 0.230994
0.594503 0.224331 0.366465
0.594503 0.224331 0.501935
0.594503 0.224331 0.637406
0.592767 0.235128 0.766688
0.584293 0.306210 0.833894
0.601400 0.401677 0.875992
0.633098 0.448187 0.968500
0.604310 0.353500 0.080080
0.594503 0.355894 0.230994
0.592767 0.362489 0.373256
0.592767 0.362489 0.504400
0.592767 0.362489 0.635544
0.584293 0.406936 0.730177
0.601400 0.476518 0.798928
0.633098 0.518527 0.896071
0.670561 0.569539 0.983944
0.604310 0.491365 0.080080
0.594503 0.487456 0.230994
0.592767 0.489850 0.373256
0.584293 0.507662 0.522741
0.584293 0.507662 0.626459
0.601400 0.551359 0.721864
0.633098 0.588866 0.823643
0.670561 0.633876 0.917696
0.717247 0.690891 0.999388
0.604310 0.629230 0.080080
0.594503 0.619019 0.230994
0.592767 0.617211 0.373256
0.584293 0.608388 0.522741
0.601400 0.626200 0.644800
0.633098 0.659205 0.751214
0.670561 0.698213 0.851448
0.717247 0.746824 0.941793
0.780074 0.812242 1.014832
0.594503 0.750582 0.095524
0.592767 0.744572 0.242112
0.584293 0.709114 0.419023
0.601400 0.701041 0.567736
0.633098 0.729545 0.678786
0.633098 0.729545 0.751214
0.670561 0.762550 0.851448
0.717247 0.802758 0.941793
0.780074 0.855571 1.014832
0.592767 0.871933 0.110968
0.584293 0.809840 0.315306
0.601400 0.775882 0.490672
0.633098 0.799884 0.606357
0.670561 0.826887 0.718952
0.670561 0.826887 0.785200
0.670561 0.826887 0.851448
0.717247 0.858692 0.941793
0.780074 0.898900 1.014832
0.584293 0.910566 0.211588
0.601400 0.850723 0.413608
0.633098 0.870223 0.533929
0.670561 0.891224 0.652704
0.717247 0.914626 0.769007
0.717247 0.914626 0.826602
0.717247 0.914626 0.884198
0.717247 0.914626 0.941793
0.780074 0.942229 1.014832
0.601400 0.925564 0.336544
0.633098 0.940563 0.461500
0.670561 0.955561 0.586456
0.717247 0.970560 0.711412
0.780074 0.985558 0.836368
0.780074 0.985558 0.880984
0.780074 0.985558 0.925600
0.780074 0.985558 0.970216
0.780074 0.985558 1.014832
0.720856 0.092768 0.095524
0.720856 0.092768 0.230994
0.720856 0.092768 0.366465
0.720856 0.092768 0.501935
0.720856 0.092768 0.637406
0.720856 0.092768 0.772876
0.715084 0.107767 0.897832
0.681030 0.205484 0.937612
0.673277 0.326836 0.953056
0.720856 0.224331 0.095524
0.715084 0.235128 0.242112
0.715084 0.235128 0.373256
0.715084 0.235128 0.504400
0.715084 0.235128 0.635544
0.715084 0.235128 0.766688
0.681030 0.306210 0.833894
0.673277 0.401677 0.875992
0.700652 0.448187 0.968500
0.720856 0.355894 0.095524
0.715084 0.362489 0.242112
0.681030 0.406936 0.419023
0.681030 0.406936 0.522741
0.681030 0.406936 0.626459
0.681030 0.406936 0.730177
0.673277 0.476518 0.798928
0.700652 0.518527 0.896071
0.732350 0.569539 0.983944
0.720856 0.487456 0.095524
0.715084 0.489850 0.242112
0.681030 0.507662 0.419023
0.673277 0.551359 0.567736
0.673277 0.551359 0.644800
0.673277 0.551359 0.721864
0.700652 0.588866 0.823643
0.732350 0.633876 0.917696
0.770966 0.690891 0.999388
0.720856 0.619019 0.095524
0.715084 0.617211 0.242112
0.681030 0.608388 0.419023
0.673277 0.626200 0.567736
0.700652 0.659205 0.678786
0.700652 0.659205 0.751214
0.732350 0.698213 0.851448
0.770966 0.746824 0.941793
0.821687 0.812242 1.014832
0.720855 0.750582 0.095524
0.715084 0.744572 0.242112
0.681030 0.709114 0.419023
0.673277 0.701041 0.567736
0.700652 0.729545 0.678786
0.732350 0.762550 0.785200
0.770966 0.802758 0.884198
0.821687 0.855571 0.970216
0.896620 0.933593 1.030276
0.715084 0.871933 0.110968
0.681030 0.809840 0.315306
0.673277 0.775882 0.490672
0.700652 0.799884 0.606357
0.732350 0.826887 0.718952
0.770966 0.858692 0.826602
0.770966 0.858692 0.884198
0.821687 0.898900 0.970216
0.896620 0.955915 1.030276
0.681030 0.910566 0.211588
0.673277 0.850723 0.413608
0.700652 0.870223 0.533929
0.732350 0.891224 0.652704
0.770966 0.914626 0.769007
0.821687 0.942229 0.880984
0.821687 0.942229 0.925600
0.821687 0.942229 0.970216
0.896620 0.978236 1.030276
0.673277 0.925564 0.336544
0.700652 0.940563 0.461500
0.732350 0.955561 0.586456
0.770966 0.970560 0.711412
0.821687 0.985558 0.836368
0.896620 1.000557 0.961324
0.896620 1.000557 0.984308
0.896620 1.000557 1.007292
0.896620 1.000557 1.030276
0.837401 0.107767 0.110968
0.837401 0.107767 0.242112
0.837401 0.107767 0.373256
0.837401 0.107767 0.504400
0.837401 0.107767 0.635544
0.837401 0.107767 0.766688
0.837401 0.107767 0.897832
0.777767 0.205484 0.937612
0.745154 0.326836 0.953056
0.837401 0.235128 0.110968
0.777767 0.306210 0.315306
0.777767 0.306210 0.419023
0.777767 0.306210 0.522741
0.777767 0.306210 0.626459
0.777767 0.306210 0.730177
0.777767 0.306210 0.833894
0.745154 0.401677 0.875992
0.768205 0.448187 0.968500
0.837401 0.362489 0.110968
0.777767 0.406936 0.315306
0.745154 0.476518 0.490672
0.745154 0.476518 0.567736
0.745154 0.476518 0.644800
0.745154 0.476518 0.721864
0.745154 0.476518 0.798928
0.768205 0.518527 0.896071
0.794139 0.569539 0.983944
0.837401 0.489850 0.110968
0.777767 0.507662 0.315306
0.745154 0.551359 0.490672
0.768205 0.588866 0.606357
0.768205 0.588866 0.678786
0.768205 0.588866 0.751214
0.768205 0.588866 0.823643
0.794139 0.633876 0.917696
0.824684 0.690891 0.999388
0.837401 0.617211 0.110968
0.777767 0.608388 0.315306
0.745154 0.626200 0.490672
0.768205 0.659205 0.606357
0.794139 0.698213 0.718952
0.794139 0.698213 0.785200
0.794139 0.698213 0.851448
0.824684 0.746824 0.941793
0.863300 0.812242 1.014832
0.837401 0.744572 0.110968
0.777767 0.709114 0.315306
0.745154 0.701041 0.490672
0.768205 0.729545 0.606357
0.794139 0.762550 0.718952
0.824684 0.802758 0.826602
0.824684 0.802758 0.884198
0.863300 0.855571 0.970216
0.918056 0.933593 1.030276
0.837401 0.871933 0.110968
0.777767 0.809840 0.315306
0.745154 0.775882 0.490672
0.768205 0.799884 0.606357
0.794139 0.826887 0.718952
0.824684 0.858692 0.826602
0.863300 0.898900 0.925600
0.918056 0.955915 1.007292
0.970000 1.010000 1.040000
0.777767 0.910566 0.211588
0.745154 0.850723 0.413608
0.768205 0.870223 0.533929
0.794139 0.891224 0.652704
0.824684 0.914626 0.769007
0.863300 0.942229 0.880984
0.918056 0.978236 0.984308
0.918056 0.978236 1.007292
0.970000 1.010000 1.040000
0.745154 0.925564 0.336544
0.768205 0.940563 0.461500
0.794139 0.955561 0.586456
0.824684 0.970560 0.711412
0.863300 0.985558 0.836368
0.918056 1.000557 0.961324
0.970000 1.010000 1.040000
0.970000 1.010000 1.040000
0.970000 1.010000 1.040000
0.874504 0.205484 0.211588
0.874504 0.205484 0.315306
0.874504 0.205484 0.419023
0.874504 0.205484 0.522741
0.874504 0.205484 0.626459
0.874504 0.205484 0.730177
0.874504 0.205484 0.833894
0.874504 0.205484 0.937612
0.817031 0.326836 0.953056
0.874504 0.306210 0.211588
0.817031 0.401677 0.413608
0.817031 0.401677 0.490672
0.817031 0.401677 0.567736
0.817031 0.401677 0.644800
0.817031 0.401677 0.721864
0.817031 0.401677 0.798928
0.817031 0.401677 0.875992
0.835759 0.448187 0.968500
0.874504 0.406936 0.211588
0.817031 0.476518 0.413608
0.835759 0.518527 0.533929
0.835759 0.518527 0.606357
0.835759 0.518527 0.678786
0.835759 0.518527 0.751214
0.835759 0.518527 0.823643
0.835759 0.518527 0.896071
0.855928 0.569539 0.983944
0.874504 0.507662 0.211588
0.817031 0.551359 0.413608
0.835759 0.588866 0.533929
0.855928 0.633876 0.652704
0.855928 0.633876 0.718952
0.855928 0.633876 0.785200
0.855928 0.633876 0.851448
0.855928 0.633876 0.917696
0.878403 0.690891 0.999388
0.874504 0.608388 0.211588
0.817031 0.626200 0.413608
0.835759 0.659205 0.533929
0.855928 0.698213 0.652704
0.878403 0.746824 0.769007
0.878403 0.746824 0.826602
0.878403 0.746824 0.884198
0.878403 0.746824 0.941793
0.904913 0.812242 1.014832
0.874504 0.709114 0.211588
0.817031 0.701041 0.413608
0.835759 0.729545 0.533929
0.855928 0.762550 0.652704
0.878403 0.802758 0.769007
0.904913 0.855571 0.880984
0.904913 0.855571 0.925600
0.904913 0.855571 0.970216
0.939493 0.933593 1.030276
0.874504 0.809840 0.211588
0.817031 0.775882 0.413608
0.835759 0.799884 0.533929
0.855928 0.826887 0.652704
0.878403 0.858692 0.769007
0.904913 0.898900 0.880984
0.939493 0.955915 0.984308
0.939493 0.955915 1.007292
0.970000 1.010000 1.040000
0.874503 0.910566 0.211588
0.817031 0.850723 0.413608
0.835759 0.870223 0.533929
0.855928 0.891224 0.652704
0.878403 0.914626 0.769007
0.904913 0.942229 0.880984
0.939493 0.978236 0.984308
0.970000 1.010000 1.040000
0.970000 1.010000 1.040000
0.817031 0.925564 0.336544
0.835759 0.940563 0.461500
0.855928 0.955561 0.586456
0.878403 0.970560 0.711412
0.904913 0.985558 0.836368
0.939493 1.000557 0.961324
0.970000 1.010000 1.040000
0.970000 1.010000 1.040000
0.970000 1.010000 1.040000
0.888908 0.326836 0.336544
0.888908 0.326836 0.413608
0.888908 0.326836 0.490672
0.888908 0.326836 0.567736
0.888908 0.326836 0.644800
0.888908 0.326836 0.721864
0.888908 0.326836 0.798928
0.888908 0.326836 0.875992
0.888908 0.326836 0.953056
0.888908 0.401677 0.336544
0.903312 0.448187 0.461500
0.903312 0.448187 0.533929
0.903312 0.448187 0.606357
0.903312 0.448187 0.678786
0.903312 0.448187 0.751214
0.903312 0.448187 0.823643
0.903312 0.448187 0.896071
0.903312 0.448187 0.968500
0.888908 0.476518 0.336544
0.903312 0.518527 0.461500
0.917717 0.569539 0.586456
0.917717 0.569539 0.652704
0.917717 0.569539 0.718952
0.917717 0.569539 0.785200
0.917717 0.569539 0.851448
0.917717 0.569539 0.917696
0.917717 0.569539 0.983944
0.888908 0.551359 0.336544
0.903312 0.588866 0.461500
0.917717 0.633876 0.586456
0.932121 0.690891 0.711412
0.932121 0.690891 0.769007
0.932121 0.690891 0.826602
0.932121 0.690891 0.884198
0.932121 0.690891 0.941793
0.932121 0.690891 0.999388
0.888908 0.626200 0.336544
0.903312 0.659205 0.461500
0.917717 0.698213 0.586456
0.932121 0.746824 0.711412
0.946526 0.812242 0.836368
0.946526 0.812242 0.880984
0.946526 0.812242 0.925600
0.946526 0.812242 0.970216
0.946526 0.812242 1.014832
0.888908 0.701041 0.336544
0.903312 0.729545 0.461500
0.917717 0.762550 0.586456
0.932121 0.802758 0.711412
0.946526 0.855571 0.836368
0.960931 0.933593 0.961324
0.960931 0.933593 0.984308
0.960931 0.933593 1.007292
0.960931 0.933593 1.030276
0.888908 0.775882 0.336544
0.903312 0.799884 0.461500
0.917717 0.826887 0.586456
0.932121 0.858692 0.711412
0.946526 0.898900 0.836368
0.960931 0.955915 0.961324
0.970000 1.010000 1.040000
0.970000 1.010000 1.040000
0.970000 1.010000 1.040000
0.888908 0.850723 0.336544
0.903312 0.870223 0.461500
0.917717 0.891224 0.586456
0.932121 0.914626 0.711412
0.946526 0.942229 0.836368
0.960931 0.978236 0.961324
0.970000 1.010000 1.040000
0.970000 1.010000 1.040000
0.970000 1.010000 1.040000
0.888908 0.925564 0.336544
0.903312 0.940563 0.461500
0.917717 0.955561 0.586456
0.932121 0.970560 0.711412
0.946526 0.985558 0.836368
0.960931 1.000557 0.961324
0.970000 1.010000 1.040000
0.970000 1.010000 1.040000
0.970000 1.010000 1.040000
