src/flutter_app/assets/presets/cool-mood.cube
# PoseCraft LUT preset
# Generated automatically for Phase 1
TITLE "PoseCraft Preset"
LUT_3D_SIZE 5
DOMAIN_MIN 0.0 0.0 0.0
DOMAIN_MAX 1.0 1.0 1.0
0.017600 0.019600 0.022400
0.087912 0.046305 0.249480
0.162800 0.085750 0.462000
0.237688 0.125195 0.674520
0.312576 0.164640 0.887040
0.041580 0.218295 0.111888
0.041580 0.166698 0.249480
0.077000 0.149450 0.462000
0.112420 0.140695 0.674520
0.175296 0.164640 0.887040
0.077000 0.404250 0.207200
0.077000 0.404250 0.389200
0.077000 0.308700 0.462000
0.112420 0.295699 0.674520
0.147840 0.286944 0.887040
0.112420 0.590205 0.302512
0.112420 0.590205 0.479659
0.112420 0.590205 0.656805
0.112420 0.450702 0.674520
0.147840 0.439824 0.887040
0.147840 0.776160 0.397824
0.147840 0.776160 0.572544
0.147840 0.776160 0.747264
0.147840 0.745584 0.887040
0.147840 0.592704 0.887040
0.196020 0.097902 0.052920
0.196020 0.046305 0.190512
0.305800 0.085750 0.462000
0.376875 0.125195 0.674520
0.449856 0.164640 0.887040
0.149688 0.218295 0.052920
0.220000 0.245000 0.280000
0.293363 0.280198 0.497373
0.367488 0.317520 0.712320
0.430936 0.325115 0.961240
0.134200 0.404250 0.098000
0.251607 0.435202 0.373371
0.251607 0.388701 0.497373
0.285120 0.378672 0.712320
0.291940 0.342314 0.961240
0.126339 0.590205 0.143080
0.285120 0.623280 0.467712
0.285120 0.623280 0.642432
0.285120 0.531552 0.712320
0.291940 0.514304 0.961240
0.147840 0.776160 0.223104
0.291940 0.841085 0.548464
0.291940 0.841085 0.745024
0.291940 0.841085 0.941584
0.291940 0.686294 0.961240
0.363000 0.181300 0.098000
0.363000 0.085750 0.170800
0.363000 0.085750 0.352800
0.516061 0.125195 0.674520
0.587136 0.164640 0.887040
0.363000 0.340550 0.098000
0.390793 0.326699 0.320227
0.390793 0.280198 0.444229
0.504768 0.317520 0.712320
0.585376 0.325115 0.961240
0.277200 0.404250 0.098000
0.349037 0.435202 0.320227
0.422400 0.470400 0.537600
0.492712 0.497105 0.764680
0.558448 0.511070 1.006320
0.265525 0.590205 0.143080
0.340032 0.623280 0.362880
0.446380 0.669095 0.627088
0.446380 0.617498 0.764680
0.458920 0.584962 1.006320
0.257664 0.776160 0.188160
0.307384 0.841085 0.371560
0.458920 0.880530 0.710752
0.458920 0.880530 0.921872
0.458920 0.769692 1.006320
0.529980 0.264698 0.143080
0.529980 0.125195 0.160795
0.529980 0.125195 0.337941
0.529980 0.125195 0.515088
0.696960 0.164640 0.852096
0.529980 0.419701 0.143080
0.559680 0.409248 0.362880
0.559680 0.317520 0.432768
0.559680 0.317520 0.607488
0.739816 0.325115 0.961240
0.529980 0.574705 0.143080
0.559680 0.562128 0.362880
0.600820 0.548702 0.568120
0.600820 0.497105 0.705712
0.724328 0.511070 1.006320
0.404712 0.590205 0.143080
0.477312 0.623280 0.362880
0.554488 0.669095 0.568120
0.624800 0.695800 0.795200
0.685960 0.697025 1.051400
0.394944 0.776160 0.188160
0.461824 0.841085 0.371560
0.525272 0.880530 0.584080
0.625900 0.919975 0.873040
0.625900 0.853090 1.051400
0.696960 0.348096 0.188160
0.696960 0.195216 0.188160
0.696960 0.164640 0.327936
0.696960 0.164640 0.502656
0.696960 0.164640 0.677376
0.696960 0.500976 0.188160
0.755260 0.479906 0.371560
0.755260 0.325115 0.391216
0.755260 0.325115 0.587776
0.755260 0.325115 0.784336
0.696960 0.653856 0.188160
0.755260 0.651896 0.371560
0.790680 0.621908 0.584080
0.790680 0.511070 0.668528
0.790680 0.511070 0.879648
0.669504 0.776160 0.188160
0.755260 0.823886 0.371560
0.790680 0.806638 0.584080
0.826100 0.763910 0.796600
0.826100 0.697025 0.974960
0.532224 0.776160 0.188160
0.616264 0.841085 0.371560
0.691152 0.880530 0.584080
0.766040 0.919975 0.796600
0.827200 0.921200 1.052800
