src/flutter_app/assets/presets/cool-mood.cube
# PoseCraft LUT preset
# Generated automatically for Phase 1
TITLE "PoseCraft Preset"
LUT_3D_SIZE 33
DOMAIN_MIN 0.0 0.0 0.0
DOMAIN_MAX 1.0 1.0 1.0
0.017600 0.019600 0.022400
0.022385 0.011791 0.063525
0.031746 0.016721 0.090090
0.041107 0.021652 0.116655
0.050468 0.026583 0.143220
0.059829 0.031513 0.169785
0.069190 0.036444 0.196350
0.078551 0.041374 0.222915
0.087912 0.046305 0.249480
0.097273 0.051236 0.276045
0.106634 0.056166 0.302610
0.115995 0.061097 0.329175
0.125356 0.066028 0.355740
0.134717 0.070958 0.382305
0.144078 0.075889 0.408870
0.153439 0.080819 0.435435
0.162800 0.085750 0.462000
0.172161 0.090681 0.488565
0.181522 0.095611 0.515130
0.190883 0.100542 0.541695
0.200244 0.105473 0.568260
0.209605 0.110403 0.594825
0.218966 0.115334 0.621390
0.228327 0.120264 0.647955
0.237688 0.125195 0.674520
0.247049 0.130126 0.701085
0.256410 0.135056 0.727650
0.265771 0.139987 0.754215
0.275132 0.144918 0.780780
0.284493 0.149848 0.807345
0.293854 0.154779 0.833910
0.303215 0.159709 0.860475
0.312576 0.164640 0.887040
0.010588 0.055584 0.028490
0.010588 0.042446 0.063525
0.015015 0.029143 0.090090
0.019443 0.024333 0.116655
0.028303 0.026583 0.143220
0.038808 0.031513 0.169785
0.048932 0.036444 0.196350
0.058837 0.041374 0.222915
0.068607 0.046305 0.249480
0.078286 0.051236 0.276045
0.087901 0.056166 0.302610
0.097470 0.061097 0.329175
0.107004 0.066028 0.355740
0.116512 0.070958 0.382305
0.125999 0.075889 0.408870
0.135469 0.080819 0.435435
0.144925 0.085750 0.462000
0.154370 0.090681 0.488565
0.163806 0.095611 0.515130
0.173234 0.100542 0.541695
0.182655 0.105473 0.568260
0.192070 0.110403 0.594825
0.201481 0.115334 0.621390
0.210887 0.120264 0.647955
0.220290 0.125195 0.674520
0.229689 0.130126 0.701085
0.239085 0.135056 0.727650
0.248479 0.139987 0.754215
0.257870 0.144918 0.780780
0.267259 0.149848 0.807345
0.276646 0.154779 0.833910
0.286032 0.159709 0.860475
0.295416 0.164640 0.887040
0.015015 0.078829 0.040404
0.015015 0.078829 0.075894
0.015015 0.060196 0.090090
0.019443 0.051140 0.116655
0.023870 0.046329 0.143220
0.028298 0.043218 0.169785
0.032725 0.040956 0.196350
0.039124 0.041374 0.222915
0.049302 0.046305 0.249480
0.059299 0.051236 0.276045
0.069168 0.056166 0.302610
0.078945 0.061097 0.329175
0.088653 0.066028 0.355740
0.098307 0.070958 0.382305
0.107919 0.075889 0.408870
0.117498 0.080819 0.435435
0.127050 0.085750 0.462000
0.136579 0.090681 0.488565
0.146090 0.095611 0.515130
0.155585 0.100542 0.541695
0.165066 0.105473 0.568260
0.174536 0.110403 0.594825
0.183996 0.115334 0.621390
0.193447 0.120264 0.647955
0.202891 0.125195 0.674520
0.212329 0.130126 0.701085
0.221760 0.135056 0.727650
0.231186 0.139987 0.754215
0.240608 0.144918 0.780780
0.250025 0.149848 0.807345
0.259439 0.154779 0.833910
0.268849 0.159709 0.860475
0.278256 0.164640 0.887040
0.019443 0.102073 0.052318
0.019443 0.102073 0.082955
0.019443 0.102073 0.113591
0.019443 0.077947 0.116655
0.023870 0.071013 0.143220
0.028298 0.066628 0.169785
0.032725 0.063516 0.196350
0.037153 0.061133 0.222915
0.041580 0.059204 0.249480
0.046008 0.057579 0.276045
0.050435 0.056166 0.302610
0.060420 0.061097 0.329175
0.070301 0.066028 0.355740
0.080102 0.070958 0.382305
0.089840 0.075889 0.408870
0.099528 0.080819 0.435435
0.109175 0.085750 0.462000
0.118788 0.090681 0.488565
0.128374 0.095611 0.515130
0.137935 0.100542 0.541695
0.147477 0.105473 0.568260
0.157001 0.110403 0.594825
0.166511 0.115334 0.621390
0.176008 0.120264 0.647955
0.185493 0.125195 0.674520
0.194968 0.130126 0.701085
0.204435 0.135056 0.727650
0.213894 0.139987 0.754215
0.223346 0.144918 0.780780
0.232791 0.149848 0.807345
0.242231 0.154779 0.833910
0.251666 0.159709 0.860475
0.261096 0.164640 0.887040
0.023870 0.125317 0.064232
0.023870 0.125317 0.092442
0.023870 0.125317 0.120652
0.023870 0.120381 0.143220
0.023870 0.095697 0.143220
0.028298 0.090037 0.169785
0.032725 0.086077 0.196350
0.037153 0.083086 0.222915
0.041580 0.080703 0.249480
0.046008 0.078724 0.276045
0.050435 0.077028 0.302610
0.054863 0.075538 0.329175
0.059290 0.074202 0.355740
0.063718 0.072985 0.382305
0.071761 0.075889 0.408870
0.081558 0.080819 0.435435
0.091300 0.085750 0.462000
0.100997 0.090681 0.488565
0.110658 0.095611 0.515130
0.120286 0.100542 0.541695
0.129888 0.105473 0.568260
0.139467 0.110403 0.594825
0.149026 0.115334 0.621390
0.158568 0.120264 0.647955
0.168095 0.125195 0.674520
0.177608 0.130126 0.701085
0.187110 0.135056 0.727650
0.196601 0.139987 0.754215
0.206083 0.144918 0.780780
0.215557 0.149848 0.807345
0.225023 0.154779 0.833910
0.234483 0.159709 0.860475
0.243936 0.164640 0.887040
0.028298 0.148562 0.076146
0.028298 0.148562 0.102900
0.028298 0.148562 0.129654
0.028298 0.148562 0.156408
0.028298 0.136857 0.169785
0.028298 0.113447 0.169785
0.032725 0.108637 0.196350
0.037153 0.105040 0.222915
0.041580 0.102202 0.249480
0.046008 0.099869 0.276045
0.050435 0.097890 0.302610
0.054863 0.096168 0.329175
0.059290 0.094639 0.355740
0.063718 0.093259 0.382305
0.068145 0.091996 0.408870
0.072573 0.090826 0.435435
0.077000 0.089731 0.462000
0.083207 0.090681 0.488565
0.092941 0.095611 0.515130
0.102637 0.100542 0.541695
0.112299 0.105473 0.568260
0.121932 0.110403 0.594825
0.131541 0.115334 0.621390
0.141128 0.120264 0.647955
0.150696 0.125195 0.674520
0.160248 0.130126 0.701085
0.169785 0.135056 0.727650
0.179309 0.139987 0.754215
0.188821 0.144918 0.780780
0.198323 0.149848 0.807345
0.207816 0.154779 0.833910
0.217300 0.159709 0.860475
0.226776 0.164640 0.887040
0.032725 0.171806 0.088060
0.032725 0.171806 0.113843
0.032725 0.171806 0.139627
0.032725 0.171806 0.165410
0.032725 0.171806 0.191193
0.032725 0.153758 0.196350
0.032725 0.131197 0.196350
0.037153 0.126994 0.222915
0.041580 0.123700 0.249480
0.046008 0.121014 0.276045
0.050435 0.118751 0.302610
0.054863 0.116798 0.329175
0.059290 0.115076 0.355740
0.063718 0.113533 0.382305
0.068145 0.112129 0.408870
0.072573 0.110838 0.435435
0.077000 0.109637 0.462000
0.081428 0.108512 0.488565
0.085855 0.107449 0.515130
0.090283 0.106438 0.541695
0.094710 0.105473 0.568260
0.104398 0.110403 0.594825
0.114056 0.115334 0.621390
0.123688 0.120264 0.647955
0.133298 0.125195 0.674520
0.142888 0.130126 0.701085
0.152460 0.135056 0.727650
0.162017 0.139987 0.754215
0.171559 0.144918 0.780780
0.181089 0.149848 0.807345
0.190608 0.154779 0.833910
0.200117 0.159709 0.860475
0.209616 0.164640 0.887040
0.037153 0.195051 0.099974
0.037153 0.195051 0.125064
0.037153 0.195051 0.150154
0.037153 0.195051 0.175244
0.037153 0.195051 0.200334
0.037153 0.192855 0.222915
0.037153 0.170901 0.222915
0.037153 0.148948 0.222915
0.041580 0.145199 0.249480
0.046008 0.142159 0.276045
0.050435 0.139613 0.302610
0.054863 0.137428 0.329175
0.059290 0.135514 0.355740
0.063718 0.133807 0.382305
0.068145 0.132263 0.408870
0.072573 0.130850 0.435435
0.077000 0.129544 0.462000
0.081428 0.128325 0.488565
0.085855 0.127178 0.515130
0.090283 0.126093 0.541695
0.094710 0.125060 0.568260
0.099138 0.124072 0.594825
0.103565 0.123123 0.621390
0.107992 0.122207 0.647955
0.115900 0.125195 0.674520
0.125528 0.130126 0.701085
0.135135 0.135056 0.727650
0.144724 0.139987 0.754215
0.154297 0.144918 0.780780
0.163855 0.149848 0.807345
0.173400 0.154779 0.833910
0.182934 0.159709 0.860475
0.192456 0.164640 0.887040
0.041580 0.218295 0.111888
0.041580 0.218295 0.136458
0.041580 0.218295 0.161028
0.041580 0.218295 0.185598
0.041580 0.218295 0.210168
0.041580 0.218295 0.234738
0.041580 0.209696 0.249480
0.041580 0.188197 0.249480
0.041580 0.166698 0.249480
0.046008 0.163303 0.276045
0.050435 0.160475 0.302610
0.054863 0.158058 0.329175
0.059290 0.155951 0.355740
0.063718 0.154080 0.382305
0.068145 0.152397 0.408870
0.072573 0.150863 0.435435
0.077000 0.149450 0.462000
0.081428 0.148137 0.488565
0.085855 0.146907 0.515130
0.090283 0.145748 0.541695
0.094710 0.144648 0.568260
0.099138 0.143599 0.594825
0.103565 0.142594 0.621390
0.107992 0.141628 0.647955
0.112420 0.140695 0.674520
0.116848 0.139792 0.701085
0.121275 0.138915 0.727650
0.127432 0.139987 0.754215
0.137035 0.144918 0.780780
0.146621 0.149848 0.807345
0.156193 0.154779 0.833910
0.165750 0.159709 0.860475
0.175296 0.164640 0.887040
0.046008 0.241539 0.123802
0.046008 0.241539 0.147968
0.046008 0.241539 0.172133
0.046008 0.241539 0.196299
0.046008 0.241539 0.220464
0.046008 0.241539 0.244630
0.046008 0.241539 0.268795
0.046008 0.226738 0.276045
0.046008 0.205593 0.276045
0.046008 0.184448 0.276045
0.050435 0.181337 0.302610
0.054863 0.178689 0.329175
0.059290 0.176388 0.355740
0.063718 0.174354 0.382305
0.068145 0.172531 0.408870
0.072573 0.170875 0.435435
0.077000 0.169356 0.462000
0.081428 0.167950 0.488565
0.085855 0.166637 0.515130
0.090283 0.165403 0.541695
0.094710 0.164236 0.568260
0.099138 0.163126 0.594825
0.103565 0.162066 0.621390
0.107992 0.161050 0.647955
0.112420 0.160071 0.674520
0.116848 0.159125 0.701085
0.121275 0.158209 0.727650
0.125703 0.157319 0.754215
0.130130 0.156452 0.780780
0.134558 0.155606 0.807345
0.138985 0.154779 0.833910
0.148567 0.159709 0.860475
0.158136 0.164640 0.887040
0.050435 0.264784 0.135716
0.050435 0.264784 0.159558
0.050435 0.264784 0.183400
0.050435 0.264784 0.207242
0.050435 0.264784 0.231084
0.050435 0.264784 0.254926
0.050435 0.264784 0.278768
0.050435 0.264784 0.302610
0.050435 0.243922 0.302610
0.050435 0.223060 0.302610
0.050435 0.202198 0.302610
0.054863 0.199319 0.329175
0.059290 0.196825 0.355740
0.063718 0.194628 0.382305
0.068145 0.192664 0.408870
0.072573 0.190888 0.435435
0.077000 0.189262 0.462000
0.081428 0.187762 0.488565
0.085855 0.186366 0.515130
0.090283 0.185058 0.541695
0.094710 0.183823 0.568260
0.099138 0.182653 0.594825
0.103565 0.181538 0.621390
0.107992 0.180471 0.647955
0.112420 0.179446 0.674520
0.116848 0.178458 0.701085
0.121275 0.177502 0.727650
0.125703 0.176576 0.754215
0.130130 0.175675 0.780780
0.134558 0.174798 0.807345
0.138985 0.173942 0.833910
0.143412 0.173104 0.860475
0.147840 0.172284 0.887040
0.054863 0.288028 0.147630
0.054863 0.288028 0.171207
0.054863 0.288028 0.194785
0.054863 0.288028 0.218362
0.054863 0.288028 0.241939
0.054863 0.288028 0.265516
0.054863 0.288028 0.289094
0.054863 0.288028 0.312671
0.054863 0.281839 0.329175
0.054863 0.261209 0.329175
0.054863 0.240579 0.329175
0.054863 0.219949 0.329175
0.059290 0.217262 0.355740
0.063718 0.214902 0.382305
0.068145 0.212798 0.408870
0.072573 0.210900 0.435435
0.077000 0.209169 0.462000
0.081428 0.207575 0.488565
0.085855 0.206095 0.515130
0.090283 0.204712 0.541695
0.094710 0.203411 0.568260
0.099138 0.202180 0.594825
0.103565 0.201010 0.621390
0.107992 0.199893 0.647955
0.112420 0.198822 0.674520
0.116848 0.197791 0.701085
0.121275 0.196796 0.727650
0.125703 0.195833 0.754215
0.130130 0.194899 0.780780
0.134558 0.193991 0.807345
0.138985 0.193105 0.833910
0.143412 0.192240 0.860475
0.147840 0.191394 0.887040
0.059290 0.311273 0.159544
0.059290 0.311273 0.182901
0.059290 0.311273 0.206257
0.059290 0.311273 0.229614
0.059290 0.311273 0.252971
0.059290 0.311273 0.276327
0.059290 0.311273 0.299684
0.059290 0.311273 0.323041
0.059290 0.311273 0.346397
0.059290 0.299010 0.355740
0.059290 0.278573 0.355740
0.059290 0.258136 0.355740
0.059290 0.237699 0.355740
0.063718 0.235175 0.382305
0.068145 0.232932 0.408870
0.072573 0.230912 0.435435
0.077000 0.229075 0.462000
0.081428 0.227387 0.488565
0.085855 0.225825 0.515130
0.090283 0.224367 0.541695
0.094710 0.222999 0.568260
0.099138 0.221707 0.594825
0.103565 0.220482 0.621390
0.107992 0.219314 0.647955
0.112420 0.218197 0.674520
0.116848 0.217124 0.701085
0.121275 0.216090 0.727650
0.125703 0.215091 0.754215
0.130130 0.214123 0.780780
0.134558 0.213183 0.807345
0.138985 0.212268 0.833910
0.143412 0.211376 0.860475
0.147840 0.210504 0.887040
0.063718 0.334517 0.171458
0.063718 0.334517 0.194628
0.063718 0.334517 0.217798
0.063718 0.334517 0.240968
0.063718 0.334517 0.264138
0.063718 0.334517 0.287308
0.063718 0.334517 0.310478
0.063718 0.334517 0.333648
0.063718 0.334517 0.356818
0.063718 0.334517 0.379988
0.063718 0.316270 0.382305
0.063718 0.295997 0.382305
0.063718 0.275723 0.382305
0.063718 0.255449 0.382305
0.068145 0.253066 0.408870
0.072573 0.250925 0.435435
0.077000 0.248981 0.462000
0.081428 0.247200 0.488565
0.085855 0.245554 0.515130
0.090283 0.244022 0.541695
0.094710 0.242587 0.568260
0.099138 0.241235 0.594825
0.103565 0.239954 0.621390
0.107992 0.238736 0.647955
0.112420 0.237572 0.674520
0.116848 0.236457 0.701085
0.121275 0.235384 0.727650
0.125703 0.234348 0.754215
0.130130 0.233347 0.780780
0.134558 0.232375 0.807345
0.138985 0.231431 0.833910
0.143412 0.230511 0.860475
0.147840 0.229614 0.887040
0.068145 0.357761 0.183372
0.068145 0.357761 0.206382
0.068145 0.357761 0.229392
0.068145 0.357761 0.252402
0.068145 0.357761 0.275412
0.068145 0.357761 0.298422
0.068145 0.357761 0.321432
0.068145 0.357761 0.344442
0.068145 0.357761 0.367452
0.068145 0.357761 0.390462
0.068145 0.353734 0.408870
0.068145 0.333601 0.408870
0.068145 0.313467 0.408870
0.068145 0.293333 0.408870
0.068145 0.273199 0.408870
0.072573 0.270937 0.435435
0.077000 0.268887 0.462000
0.081428 0.267013 0.488565
0.085855 0.265283 0.515130
0.090283 0.263677 0.541695
0.094710 0.262175 0.568260
0.099138 0.260762 0.594825
0.103565 0.259426 0.621390
0.107992 0.258158 0.647955
0.112420 0.256948 0.674520
0.116848 0.255790 0.701085
0.121275 0.254677 0.727650
0.125703 0.253606 0.754215
0.130130 0.252570 0.780780
0.134558 0.251568 0.807345
0.138985 0.250594 0.833910
0.143412 0.249647 0.860475
0.147840 0.248724 0.887040
0.072573 0.381006 0.195286
0.072573 0.381006 0.218157
0.072573 0.381006 0.241029
0.072573 0.381006 0.263900
0.072573 0.381006 0.286771
0.072573 0.381006 0.309643
0.072573 0.381006 0.332514
0.072573 0.381006 0.355385
0.072573 0.381006 0.378257
0.072573 0.381006 0.401128
0.072573 0.381006 0.423999
0.072573 0.370999 0.435435
0.072573 0.350987 0.435435
0.072573 0.330975 0.435435
0.072573 0.310962 0.435435
0.072573 0.290950 0.435435
0.077000 0.288794 0.462000
0.081428 0.286825 0.488565
0.085855 0.285013 0.515130
0.090283 0.283332 0.541695
0.094710 0.281762 0.568260
0.099138 0.280289 0.594825
0.103565 0.278898 0.621390
0.107992 0.277579 0.647955
0.112420 0.276323 0.674520
0.116848 0.275123 0.701085
0.121275 0.273971 0.727650
0.125703 0.272863 0.754215
0.130130 0.271794 0.780780
0.134558 0.270760 0.807345
0.138985 0.269757 0.833910
0.143412 0.268783 0.860475
0.147840 0.267834 0.887040
0.077000 0.404250 0.207200
0.077000 0.404250 0.229950
0.077000 0.404250 0.252700
0.077000 0.404250 0.275450
0.077000 0.404250 0.298200
0.077000 0.404250 0.320950
0.077000 0.404250 0.343700
0.077000 0.404250 0.366450
0.077000 0.404250 0.389200
0.077000 0.404250 0.411950
0.077000 0.404250 0.434700
0.077000 0.404250 0.457450
0.077000 0.388325 0.462000
0.077000 0.368419 0.462000
0.077000 0.348512 0.462000
0.077000 0.328606 0.462000
0.077000 0.308700 0.462000
0.081428 0.306638 0.488565
0.085855 0.304742 0.515130
0.090283 0.302986 0.541695
0.094710 0.301350 0.568260
0.099138 0.299816 0.594825
0.103565 0.298370 0.621390
0.107992 0.297001 0.647955
0.112420 0.295699 0.674520
0.116848 0.294456 0.701085
0.121275 0.293265 0.727650
0.125703 0.292121 0.754215
0.130130 0.291018 0.780780
0.134558 0.289952 0.807345
0.138985 0.288920 0.833910
0.143412 0.287918 0.860475
0.147840 0.286944 0.887040
0.081428 0.427494 0.219114
0.081428 0.427494 0.241757
0.081428 0.427494 0.264400
0.081428 0.427494 0.287043
0.081428 0.427494 0.309686
0.081428 0.427494 0.332329
0.081428 0.427494 0.354972
0.081428 0.427494 0.377615
0.081428 0.427494 0.400258
0.081428 0.427494 0.422900
0.081428 0.427494 0.445543
0.081428 0.427494 0.468186
0.081428 0.425513 0.488565
0.081428 0.405701 0.488565
0.081428 0.385888 0.488565
0.081428 0.366075 0.488565
0.081428 0.346263 0.488565
0.081428 0.326450 0.488565
0.085855 0.324471 0.515130
0.090283 0.322641 0.541695
0.094710 0.320938 0.568260
0.099138 0.319343 0.594825
0.103565 0.317842 0.621390
0.107992 0.316422 0.647955
0.112420 0.315074 0.674520
0.116848 0.313789 0.701085
0.121275 0.312559 0.727650
0.125703 0.311378 0.754215
0.130130 0.310242 0.780780
0.134558 0.309145 0.807345
0.138985 0.308083 0.833910
0.143412 0.307054 0.860475
0.147840 0.306054 0.887040
0.085855 0.450739 0.231028
0.085855 0.450739 0.253576
0.085855 0.450739 0.276124
0.085855 0.450739 0.298671
0.085855 0.450739 0.321219
0.085855 0.450739 0.343767
0.085855 0.450739 0.366315
0.085855 0.450739 0.388862
0.085855 0.450739 0.411410
0.085855 0.450739 0.433958
0.085855 0.450739 0.456506
0.085855 0.450739 0.479054
0.085855 0.450739 0.501601
0.085855 0.442847 0.515130
0.085855 0.423118 0.515130
0.085855 0.403388 0.515130
0.085855 0.383659 0.515130
0.085855 0.363930 0.515130
0.085855 0.344200 0.515130
0.090283 0.342296 0.541695
0.094710 0.340525 0.568260
0.099138 0.338870 0.594825
0.103565 0.337314 0.621390
0.107992 0.335844 0.647955
0.112420 0.334449 0.674520
0.116848 0.333122 0.701085
0.121275 0.331852 0.727650
0.125703 0.330636 0.754215
0.130130 0.329465 0.780780
0.134558 0.328337 0.807345
0.138985 0.327246 0.833910
0.143412 0.326190 0.860475
0.147840 0.325164 0.887040
0.090283 0.473983 0.242942
0.090283 0.473983 0.265405
0.090283 0.473983 0.287867
0.090283 0.473983 0.310330
0.090283 0.473983 0.332793
0.090283 0.473983 0.355255
0.090283 0.473983 0.377718
0.090283 0.473983 0.400180
0.090283 0.473983 0.422643
0.090283 0.473983 0.445106
0.090283 0.473983 0.467568
0.090283 0.473983 0.490031
0.090283 0.473983 0.512494
0.090283 0.473983 0.534956
0.090283 0.460225 0.541695
0.090283 0.440570 0.541695
0.090283 0.420915 0.541695
0.090283 0.401260 0.541695
0.090283 0.381606 0.541695
0.090283 0.361951 0.541695
0.094710 0.360113 0.568260
0.099138 0.358397 0.594825
0.103565 0.356786 0.621390
0.107992 0.355265 0.647955
0.112420 0.353825 0.674520
0.116848 0.352455 0.701085
0.121275 0.351146 0.727650
0.125703 0.349893 0.754215
0.130130 0.348689 0.780780
0.134558 0.347530 0.807345
0.138985 0.346410 0.833910
0.143412 0.345326 0.860475
0.147840 0.344274 0.887040
0.094710 0.497227 0.254856
0.094710 0.497227 0.277242
0.094710 0.497227 0.299628
0.094710 0.497227 0.322014
0.094710 0.497227 0.344400
0.094710 0.497227 0.366786
0.094710 0.497227 0.389172
0.094710 0.497227 0.411558
0.094710 0.497227 0.433944
0.094710 0.497227 0.456330
0.094710 0.497227 0.478716
0.094710 0.497227 0.501102
0.094710 0.497227 0.523488
0.094710 0.497227 0.545874
0.094710 0.497227 0.568260
0.094710 0.477640 0.568260
0.094710 0.458052 0.568260
0.094710 0.438464 0.568260
0.094710 0.418876 0.568260
0.094710 0.399289 0.568260
0.094710 0.379701 0.568260
0.099138 0.377924 0.594825
0.103565 0.376258 0.621390
0.107992 0.374687 0.647955
0.112420 0.373200 0.674520
0.116848 0.371787 0.701085
0.121275 0.370440 0.727650
0.125703 0.369151 0.754215
0.130130 0.367913 0.780780
0.134558 0.366722 0.807345
0.138985 0.365573 0.833910
0.143412 0.364461 0.860475
0.147840 0.363384 0.887040
0.099138 0.520472 0.266770
0.099138 0.520472 0.289087
0.099138 0.520472 0.311403
0.099138 0.520472 0.333720
0.099138 0.520472 0.356037
0.099138 0.520472 0.378353
0.099138 0.520472 0.400670
0.099138 0.520472 0.422987
0.099138 0.520472 0.445303
0.099138 0.520472 0.467620
0.099138 0.520472 0.489937
0.099138 0.520472 0.512253
0.099138 0.520472 0.534570
0.099138 0.520472 0.556887
0.099138 0.520472 0.579203
0.099138 0.514614 0.594825
0.099138 0.495087 0.594825
0.099138 0.475560 0.594825
0.099138 0.456032 0.594825
0.099138 0.436505 0.594825
0.099138 0.416978 0.594825
0.099138 0.397451 0.594825
0.103565 0.395730 0.621390
0.107992 0.394109 0.647955
0.112420 0.392576 0.674520
0.116848 0.391120 0.701085
0.121275 0.389734 0.727650
0.125703 0.388408 0.754215
0.130130 0.387137 0.780780
0.134558 0.385914 0.807345
0.138985 0.384736 0.833910
0.143412 0.383597 0.860475
0.147840 0.382494 0.887040
0.103565 0.543716 0.278684
0.103565 0.543716 0.300938
0.103565 0.543716 0.323191
0.103565 0.543716 0.345445
0.103565 0.543716 0.367699
0.103565 0.543716 0.389952
0.103565 0.543716 0.412206
0.103565 0.543716 0.434459
0.103565 0.543716 0.456713
0.103565 0.543716 0.478967
0.103565 0.543716 0.501220
0.103565 0.543716 0.523474
0.103565 0.543716 0.545728
0.103565 0.543716 0.567981
0.103565 0.543716 0.590235
0.103565 0.543716 0.612489
0.103565 0.532033 0.621390
0.103565 0.512561 0.621390
0.103565 0.493089 0.621390
0.103565 0.473617 0.621390
0.103565 0.454145 0.621390
0.103565 0.434673 0.621390
0.103565 0.415201 0.621390
0.107992 0.413530 0.647955
0.112420 0.411951 0.674520
0.116848 0.410453 0.701085
0.121275 0.409027 0.727650
0.125703 0.407665 0.754215
0.130130 0.406360 0.780780
0.134558 0.405107 0.807345
0.138985 0.403899 0.833910
0.143412 0.402733 0.860475
0.147840 0.401604 0.887040
0.107992 0.566961 0.290598
0.107992 0.566961 0.312794
0.107992 0.566961 0.334990
0.107992 0.566961 0.357186
0.107992 0.566961 0.379382
0.107992 0.566961 0.401578
0.107992 0.566961 0.423775
0.107992 0.566961 0.445971
0.107992 0.566961 0.468167
0.107992 0.566961 0.490363
0.107992 0.566961 0.512559
0.107992 0.566961 0.534755
0.107992 0.566961 0.556951
0.107992 0.566961 0.579147
0.107992 0.566961 0.601343
0.107992 0.566961 0.623539
0.107992 0.566961 0.645735
0.107992 0.549481 0.647955
0.107992 0.530060 0.647955
0.107992 0.510638 0.647955
0.107992 0.491216 0.647955
0.107992 0.471795 0.647955
0.107992 0.452373 0.647955
0.107992 0.432952 0.647955
0.112420 0.431327 0.674520
0.116848 0.429786 0.701085
0.121275 0.428321 0.727650
0.125703 0.426923 0.754215
0.130130 0.425584 0.780780
0.134558 0.424299 0.807345
0.138985 0.423062 0.833910
0.143412 0.421868 0.860475
0.147840 0.420714 0.887040
0.112420 0.590205 0.302512
0.112420 0.590205 0.324655
0.112420 0.590205 0.346799
0.112420 0.590205 0.368942
0.112420 0.590205 0.391085
0.112420 0.590205 0.413229
0.112420 0.590205 0.435372
0.112420 0.590205 0.457515
0.112420 0.590205 0.479659
0.112420 0.590205 0.501802
0.112420 0.590205 0.523945
0.112420 0.590205 0.546089
0.112420 0.590205 0.568232
0.112420 0.590205 0.590375
0.112420 0.590205 0.612519
0.112420 0.590205 0.634662
0.112420 0.590205 0.656805
0.112420 0.586330 0.674520
0.112420 0.566954 0.674520
0.112420 0.547579 0.674520
0.112420 0.528204 0.674520
0.112420 0.508828 0.674520
0.112420 0.489453 0.674520
0.112420 0.470077 0.674520
0.112420 0.450702 0.674520
0.116848 0.449119 0.701085
0.121275 0.447615 0.727650
0.125703 0.446180 0.754215
0.130130 0.444808 0.780780
0.134558 0.443491 0.807345
0.138985 0.442225 0.833910
0.143412 0.441004 0.860475
0.147840 0.439824 0.887040
0.116848 0.613449 0.314426
0.116848 0.613449 0.336521
0.116848 0.613449 0.358616
0.116848 0.613449 0.380710
0.116848 0.613449 0.402805
0.116848 0.613449 0.424900
0.116848 0.613449 0.446995
0.116848 0.613449 0.469090
0.116848 0.613449 0.491184
0.116848 0.613449 0.513279
0.116848 0.613449 0.535374
0.116848 0.613449 0.557469
0.116848 0.613449 0.579564
0.116848 0.613449 0.601658
0.116848 0.613449 0.623753
0.116848 0.613449 0.645848
0.116848 0.613449 0.667943
0.116848 0.613449 0.690038
0.116848 0.603783 0.701085
0.116848 0.584450 0.701085
0.116848 0.565117 0.701085
0.116848 0.545784 0.701085
0.116848 0.526451 0.701085
0.116848 0.507118 0.701085
0.116848 0.487785 0.701085
0.116848 0.468452 0.701085
0.121275 0.466909 0.727650
0.125703 0.465438 0.754215
0.130130 0.464032 0.780780
0.134558 0.462684 0.807345
0.138985 0.461388 0.833910
0.143412 0.460140 0.860475
0.147840 0.458934 0.887040
0.121275 0.636694 0.326340
0.121275 0.636694 0.348390
0.121275 0.636694 0.370440
0.121275 0.636694 0.392490
0.121275 0.636694 0.414540
0.121275 0.636694 0.436590
0.121275 0.636694 0.458640
0.121275 0.636694 0.480690
0.121275 0.636694 0.502740
0.121275 0.636694 0.524790
0.121275 0.636694 0.546840
0.121275 0.636694 0.568890
0.121275 0.636694 0.590940
0.121275 0.636694 0.612990
0.121275 0.636694 0.635040
0.121275 0.636694 0.657090
0.121275 0.636694 0.679140
0.121275 0.636694 0.701190
0.121275 0.636694 0.723240
0.121275 0.621259 0.727650
0.121275 0.601965 0.727650
0.121275 0.582671 0.727650
0.121275 0.563377 0.727650
0.121275 0.544084 0.727650
0.121275 0.524790 0.727650
