src/flutter_app/assets/presets/cool-mood.cube
# PoseCraft LUT preset
# Generated automatically for Phase 1
TITLE "PoseCraft Preset"
LUT_3D_SIZE 9
DOMAIN_MIN 0.0 0.0 0.0
DOMAIN_MAX 1.0 1.0 1.0
0.017600 0.019600 0.022400
0.050468 0.026583 0.143220
0.087912 0.046305 0.249480
0.125356 0.066028 0.355740
0.162800 0.085750 0.462000
0.200244 0.105473 0.568260
0.237688 0.125195 0.674520
0.275132 0.144918 0.780780
0.312576 0.164640 0.887040
0.023870 0.125317 0.064232
0.023870 0.095697 0.143220
0.041580 0.080703 0.249480
0.059290 0.074202 0.355740
0.091300 0.085750 0.462000
0.129888 0.105473 0.568260
0.168095 0.125195 0.674520
0.206083 0.144918 0.780780
0.243936 0.164640 0.887040
0.041580 0.218295 0.111888
0.041580 0.218295 0.210168
0.041580 0.166698 0.249480
0.059290 0.155951 0.355740
0.077000 0.149450 0.462000
0.094710 0.144648 0.568260
0.112420 0.140695 0.674520
0.137035 0.144918 0.780780
0.175296 0.164640 0.887040
0.059290 0.311273 0.159544
0.059290 0.311273 0.252971
0.059290 0.311273 0.346397
0.059290 0.237699 0.355740
0.077000 0.229075 0.462000
0.094710 0.222999 0.568260
0.112420 0.218197 0.674520
0.130130 0.214123 0.780780
0.147840 0.210504 0.887040
0.077000 0.404250 0.207200
0.077000 0.404250 0.298200
0.077000 0.404250 0.389200
0.077000 0.388325 0.462000
0.077000 0.308700 0.462000
0.094710 0.301350 0.568260
0.112420 0.295699 0.674520
0.130130 0.291018 0.780780
0.147840 0.286944 0.887040
0.094710 0.497227 0.254856
0.094710 0.497227 0.344400
0.094710 0.497227 0.433944
0.094710 0.497227 0.523488
0.094710 0.458052 0.568260
0.094710 0.379701 0.568260
0.112420 0.373200 0.674520
0.130130 0.367913 0.780780
0.147840 0.363384 0.887040
0.112420 0.590205 0.302512
0.112420 0.590205 0.391085
0.112420 0.590205 0.479659
0.112420 0.590205 0.568232
0.112420 0.590205 0.656805
0.112420 0.528204 0.674520
0.112420 0.450702 0.674520
0.130130 0.444808 0.780780
0.147840 0.439824 0.887040
0.130130 0.683183 0.350168
0.130130 0.683183 0.438048
0.130130 0.683183 0.525928
0.130130 0.683183 0.613808
0.130130 0.683183 0.701688
0.130130 0.675493 0.780780
0.130130 0.598598 0.780780
0.130130 0.521703 0.780780
0.147840 0.516264 0.887040
0.147840 0.776160 0.397824
0.147840 0.776160 0.485184
0.147840 0.776160 0.572544
0.147840 0.776160 0.659904
0.147840 0.776160 0.747264
0.147840 0.776160 0.834624
0.147840 0.745584 0.887040
0.147840 0.669144 0.887040
0.147840 0.592704 0.887040
0.112530 0.056203 0.030380
0.112530 0.026583 0.109368
0.165132 0.046305 0.249480
0.198763 0.066028 0.355740
0.234300 0.085750 0.462000
0.270600 0.105473 0.568260
0.307281 0.125195 0.674520
0.344181 0.144918 0.780780
0.381216 0.164640 0.887040
0.085932 0.125317 0.030380
0.118800 0.132300 0.151200
0.154719 0.147776 0.262313
0.191400 0.165375 0.371000
0.228386 0.183824 0.478716
0.265525 0.202697 0.585947
0.302751 0.221812 0.692900
0.340032 0.241080 0.799680
0.367180 0.232138 0.938700
0.072468 0.218295 0.052920
0.132697 0.229524 0.196915
0.132697 0.205000 0.262313
0.148500 0.197225 0.371000
0.165066 0.191659 0.478716
0.195932 0.202697 0.585947
0.233703 0.221812 0.692900
0.271392 0.241080 0.799680
0.291594 0.232138 0.938700
0.066631 0.311273 0.075460
0.148500 0.324625 0.243600
0.148500 0.324625 0.334600
0.148500 0.276850 0.371000
0.165066 0.270010 0.478716
0.182013 0.264698 0.585947
0.199179 0.260260 0.692900
0.216480 0.256368 0.799680
0.216009 0.232138 0.938700
0.077000 0.404250 0.116200
0.165066 0.418877 0.290674
0.165066 0.418877 0.380218
0.165066 0.418877 0.469762
0.165066 0.348361 0.478716
0.182013 0.342200 0.585947
0.199179 0.337155 0.692900
0.216480 0.332808 0.799680
0.208450 0.307895 0.938700
0.094710 0.497227 0.165312
0.182013 0.512703 0.337941
0.182013 0.512703 0.426515
0.182013 0.512703 0.515088
0.182013 0.497203 0.585947
0.182013 0.419701 0.585947
0.199179 0.414050 0.692900
0.216480 0.409248 0.799680
0.208450 0.392070 0.938700
0.112420 0.590205 0.213939
0.199179 0.606288 0.385320
0.199179 0.606288 0.473200
0.199179 0.606288 0.561080
0.199179 0.606288 0.648960
0.199179 0.567840 0.692900
0.199179 0.490945 0.692900
0.216480 0.485688 0.799680
0.208450 0.476245 0.938700
0.130130 0.683183 0.262288
0.216480 0.699720 0.432768
0.216480 0.699720 0.520128
0.216480 0.699720 0.607488
0.216480 0.699720 0.694848
0.216480 0.699720 0.782208
0.216480 0.638568 0.799680
0.216480 0.562128 0.799680
0.208450 0.560420 0.938700
0.147840 0.776160 0.310464
0.208450 0.821362 0.467320
0.208450 0.821362 0.563520
0.208450 0.821362 0.659720
0.208450 0.821362 0.755920
0.208450 0.821362 0.852120
0.208450 0.812945 0.938700
0.208450 0.728770 0.938700
0.208450 0.644595 0.938700
0.196020 0.097902 0.052920
0.196020 0.046305 0.092232
0.196020 0.046305 0.190512
0.272169 0.066028 0.355740
0.305800 0.085750 0.462000
0.340956 0.105473 0.568260
0.376875 0.125195 0.674520
0.413229 0.144918 0.780780
0.449856 0.164640 0.887040
0.196020 0.183897 0.052920
0.206103 0.172300 0.168887
0.206103 0.147776 0.234285
0.262900 0.165375 0.371000
0.298742 0.183824 0.478716
0.335119 0.202697 0.585947
0.371800 0.221812 0.692900
0.408672 0.241080 0.799680
0.442766 0.232138 0.938700
0.149688 0.218295 0.052920
0.184081 0.229524 0.168887
0.220000 0.245000 0.280000
0.256529 0.262175 0.389172
0.293363 0.280198 0.497373
0.330371 0.298708 0.605020
0.367488 0.317520 0.712320
0.397414 0.316312 0.842500
0.430936 0.325115 0.961240
0.140037 0.311273 0.075460
0.177100 0.324625 0.189000
0.235422 0.340526 0.326491
0.235422 0.317020 0.389172
0.251607 0.311199 0.497373
0.268227 0.306397 0.605020
0.298848 0.317520 0.712320
0.321829 0.316312 0.842500
0.353716 0.325115 0.961240
0.134200 0.404250 0.098000
0.172102 0.418877 0.210084
0.251607 0.435202 0.373371
0.251607 0.435202 0.461944
0.251607 0.388701 0.497373
0.268227 0.383292 0.605020
0.285120 0.378672 0.712320
0.284036 0.358400 0.842500
0.291940 0.342314 0.961240
0.129888 0.497227 0.120540
0.182013 0.512703 0.249368
0.268227 0.529393 0.420472
0.268227 0.529393 0.508352
0.268227 0.529393 0.596232
0.268227 0.460187 0.605020
0.285120 0.455112 0.712320
0.284036 0.442575 0.842500
0.291940 0.428309 0.961240
0.126339 0.590205 0.143080
0.199179 0.606288 0.297440
0.285120 0.623280 0.467712
0.285120 0.623280 0.555072
0.285120 0.623280 0.642432
0.285120 0.607992 0.712320
0.285120 0.531552 0.712320
0.284036 0.526750 0.842500
0.291940 0.514304 0.961240
0.130130 0.683183 0.174408
0.216480 0.699720 0.345408
0.284036 0.737188 0.505800
0.284036 0.737188 0.602000
0.284036 0.737188 0.698200
0.284036 0.737188 0.794400
0.284036 0.695100 0.842500
0.284036 0.610925 0.842500
0.291940 0.600299 0.961240
0.147840 0.776160 0.223104
0.208450 0.821362 0.371120
0.291940 0.841085 0.548464
0.291940 0.841085 0.646744
0.291940 0.841085 0.745024
0.291940 0.841085 0.843304
0.291940 0.841085 0.941584
0.291940 0.772289 0.961240
0.291940 0.686294 0.961240
0.279510 0.139601 0.075460
0.279510 0.066028 0.084803
0.279510 0.066028 0.178229
0.279510 0.066028 0.271656
0.363000 0.085750 0.443800
0.411312 0.105473 0.568260
0.446468 0.125195 0.674520
0.482278 0.144918 0.780780
0.518496 0.164640 0.887040
0.279510 0.221349 0.075460
0.291500 0.213150 0.189000
0.291500 0.165375 0.225400
0.291500 0.165375 0.316400
0.369098 0.183824 0.478716
0.404712 0.202697 0.585947
0.440849 0.221812 0.692900
0.477312 0.241080 0.799680
0.518351 0.232138 0.938700
0.279510 0.303098 0.075460
0.291500 0.292775 0.189000
0.305778 0.285680 0.299628
0.305778 0.262175 0.362309
0.362956 0.280198 0.497373
0.399419 0.298708 0.605020
0.436128 0.317520 0.712320
0.473000 0.316312 0.842500
0.508156 0.325115 0.961240
0.213444 0.311273 0.075460
0.248600 0.324625 0.189000
0.284671 0.340526 0.299628
0.321200 0.357700 0.408800
0.357990 0.375603 0.517140
0.394944 0.393960 0.624960
0.427649 0.400488 0.746300
0.461824 0.411110 0.862960
0.494692 0.418093 0.983780
0.205700 0.404250 0.098000
0.242458 0.418877 0.210084
0.279444 0.435202 0.320227
0.337276 0.452498 0.455624
0.337276 0.429429 0.517140
0.353760 0.424536 0.624960
0.359621 0.408905 0.746300
0.384604 0.411110 0.862960
0.415184 0.418093 0.983780
0.200244 0.497227 0.120540
0.237688 0.512703 0.231653
0.275132 0.529393 0.341380
0.353760 0.546840 0.502656
0.353760 0.546840 0.590016
0.353760 0.500976 0.624960
0.359621 0.493080 0.746300
0.369160 0.479906 0.862960
0.375430 0.462364 0.983780
0.195932 0.590205 0.143080
0.233703 0.606288 0.253500
0.285120 0.623280 0.380352
0.359621 0.653013 0.544280
0.359621 0.653013 0.640480
0.359621 0.653013 0.736680
0.359621 0.577255 0.746300
0.369160 0.565901 0.862960
0.375430 0.550907 0.983780
0.192274 0.683183 0.165620
0.230208 0.699720 0.275520
0.284036 0.737188 0.409600
0.369160 0.755090 0.587776
0.369160 0.755090 0.686056
0.369160 0.755090 0.784336
0.369160 0.737891 0.862960
0.369160 0.651896 0.862960
0.375430 0.639450 0.983780
0.189024 0.776160 0.188160
0.208450 0.821362 0.274920
0.291940 0.841085 0.450184
0.375430 0.860808 0.629608
0.375430 0.860808 0.730800
0.375430 0.860808 0.831992
0.375430 0.860808 0.933184
0.375430 0.816536 0.983780
0.375430 0.727993 0.983780
0.363000 0.181300 0.098000
0.363000 0.101675 0.098000
0.363000 0.085750 0.170800
0.363000 0.085750 0.261800
0.363000 0.085750 0.352800
0.446490 0.105473 0.523488
0.516061 0.125195 0.674520
0.551326 0.144918 0.780780
0.587136 0.164640 0.887040
0.363000 0.260925 0.098000
0.376134 0.254339 0.210084
0.376134 0.183824 0.219038
0.376134 0.183824 0.308582
0.376134 0.183824 0.398126
0.460387 0.202697 0.568232
0.509897 0.221812 0.692900
0.545952 0.241080 0.799680
0.593937 0.232138 0.938700
0.363000 0.340550 0.098000
0.376134 0.332690 0.210084
0.390793 0.326699 0.320227
0.390793 0.280198 0.355656
0.390793 0.280198 0.444229
0.468468 0.298708 0.605020
0.504768 0.317520 0.712320
0.548586 0.316312 0.842500
0.585376 0.325115 0.961240
0.348700 0.404250 0.098000
0.376134 0.411041 0.210084
0.390793 0.404201 0.320227
0.406324 0.398671 0.429260
0.406324 0.375603 0.490776
0.463584 0.393960 0.624960
0.503234 0.400488 0.746300
0.539044 0.411110 0.862960
0.574200 0.418093 0.983780
0.277200 0.404250 0.098000
0.312814 0.418877 0.210084
0.349037 0.435202 0.320227
0.385610 0.452498 0.429260
0.422400 0.470400 0.537600
0.457883 0.484663 0.650100
0.492712 0.497105 0.764680
0.526495 0.506636 0.882588
0.558448 0.511070 1.006320
0.270600 0.497227 0.120540
0.307281 0.512703 0.231653
0.344181 0.529393 0.341380
0.381216 0.546840 0.450240
0.435207 0.568838 0.582760
0.435207 0.543585 0.650100
0.446380 0.531503 0.764680
0.454938 0.515490 0.882588
0.475508 0.511070 1.006320
0.265525 0.590205 0.143080
0.302751 0.606288 0.253500
0.340032 0.623280 0.362880
0.367180 0.653013 0.457700
0.446380 0.669095 0.627088
0.446380 0.669095 0.725368
0.446380 0.617498 0.764680
0.454938 0.604033 0.882588
0.458920 0.584962 1.006320
0.261322 0.683183 0.165620
0.298848 0.699720 0.275520
0.321829 0.737188 0.361500
0.369160 0.755090 0.489496
0.454938 0.772264 0.670085
0.454938 0.772264 0.771277
0.454938 0.772264 0.872469
0.454938 0.692576 0.882588
0.458920 0.677327 1.006320
0.257664 0.776160 0.188160
0.276477 0.821362 0.265300
0.307384 0.841085 0.371560
0.375430 0.860808 0.528416
0.458920 0.880530 0.710752
0.458920 0.880530 0.816312
0.458920 0.880530 0.921872
0.458920 0.862057 1.006320
0.458920 0.769692 1.006320
0.446490 0.222999 0.120540
0.446490 0.144648 0.120540
0.446490 0.105473 0.165312
0.446490 0.105473 0.254856
0.446490 0.105473 0.344400
0.446490 0.105473 0.433944
0.529980 0.125195 0.603661
0.613470 0.144918 0.771992
0.655776 0.164640 0.887040
0.446490 0.301350 0.120540
0.460387 0.295699 0.231653
0.460387 0.218197 0.231653
0.460387 0.202697 0.302512
0.460387 0.202697 0.391085
0.460387 0.202697 0.479659
0.544421 0.221812 0.648960
0.614592 0.241080 0.799680
0.669523 0.232138 0.938700
0.446490 0.379701 0.120540
0.460387 0.373200 0.231653
0.475373 0.367913 0.341380
0.475373 0.298708 0.350168
0.475373 0.298708 0.438048
0.475373 0.298708 0.525928
0.559680 0.317520 0.694848
0.624171 0.316312 0.842500
0.662596 0.325115 0.961240
0.446490 0.458052 0.120540
0.460387 0.450702 0.231653
0.475373 0.444808 0.341380
0.491040 0.439824 0.450240
0.491040 0.393960 0.485184
0.491040 0.393960 0.572544
0.578820 0.400488 0.746300
0.616264 0.411110 0.862960
0.653708 0.418093 0.983780
0.411312 0.497227 0.120540
0.446468 0.512703 0.231653
0.475373 0.521703 0.341380
0.491040 0.516264 0.450240
0.510793 0.509915 0.553900
0.510793 0.484663 0.621240
0.569932 0.497105 0.764680
0.606003 0.506636 0.882588
0.641388 0.511070 1.006320
0.340956 0.497227 0.120540
0.376875 0.512703 0.231653
0.413229 0.529393 0.341380
0.449856 0.546840 0.450240
0.488117 0.568838 0.553900
0.523600 0.583100 0.666400
0.558298 0.595179 0.781396
0.591624 0.603435 0.900760
0.622204 0.604048 1.028860
0.335119 0.590205 0.143080
0.371800 0.606288 0.253500
0.408672 0.623280 0.362880
0.442766 0.653013 0.457700
0.477268 0.669095 0.568120
0.534446 0.683721 0.710562
0.534446 0.657159 0.781396
0.541860 0.640381 0.900760
0.542410 0.613921 1.028860
0.330371 0.683183 0.165620
0.367488 0.699720 0.275520
0.397414 0.737188 0.361500
0.430936 0.755090 0.469840
0.462889 0.772264 0.579012
0.541860 0.788165 0.752976
0.541860 0.788165 0.858536
0.541860 0.732746 0.900760
0.542410 0.712656 1.028860
0.326304 0.776160 0.188160
0.352063 0.821362 0.265300
0.384604 0.841085 0.371560
0.415184 0.860808 0.477820
0.458920 0.880530 0.605192
0.542410 0.900252 0.791896
0.542410 0.900252 0.904736
0.542410 0.900252 1.017576
0.542410 0.811391 1.028860
0.529980 0.264698 0.143080
0.529980 0.187196 0.143080
0.529980 0.125195 0.160795
0.529980 0.125195 0.249368
0.529980 0.125195 0.337941
0.529980 0.125195 0.426515
0.529980 0.125195 0.515088
0.613470 0.144918 0.684112
0.696960 0.164640 0.852096
0.529980 0.342200 0.143080
0.544421 0.337155 0.253500
0.544421 0.260260 0.253500
0.544421 0.221812 0.297440
0.544421 0.221812 0.385320
0.544421 0.221812 0.473200
0.544421 0.221812 0.561080
0.628320 0.241080 0.729792
0.737550 0.232138 0.929080
0.529980 0.419701 0.143080
0.544421 0.414050 0.253500
0.559680 0.409248 0.362880
0.559680 0.332808 0.362880
0.559680 0.317520 0.432768
0.559680 0.317520 0.520128
0.559680 0.317520 0.607488
0.661964 0.316312 0.794400
0.739816 0.325115 0.961240
0.529980 0.497203 0.143080
0.544421 0.490945 0.253500
0.559680 0.485688 0.362880
0.586379 0.476245 0.457700
0.586379 0.400488 0.467320
0.586379 0.400488 0.563520
0.586379 0.400488 0.659720
0.678040 0.411110 0.843304
0.733216 0.418093 0.983780
0.529980 0.574705 0.143080
0.544421 0.567840 0.253500
0.559680 0.562128 0.362880
0.586379 0.560420 0.457700
0.600820 0.548702 0.568120
0.600820 0.497105 0.607432
0.600820 0.497105 0.705712
0.685511 0.506636 0.882588
0.724328 0.511070 1.006320
0.474305 0.590205 0.143080
0.509897 0.606288 0.253500
0.545952 0.623280 0.362880
0.586379 0.644595 0.457700
0.600820 0.634697 0.568120
0.613954 0.621741 0.680204
0.613954 0.595179 0.751038
0.674564 0.603435 0.900760
0.710864 0.604048 1.028860
0.404712 0.590205 0.143080
0.440849 0.606288 0.253500
0.477312 0.623280 0.362880
0.518351 0.653013 0.457700
0.554488 0.669095 0.568120
0.590102 0.683721 0.680204
0.624800 0.695800 0.795200
0.657668 0.702783 0.916020
0.685960 0.697025 1.051400
0.399419 0.683183 0.165620
0.436128 0.699720 0.275520
0.473000 0.737188 0.361500
0.508156 0.755090 0.469840
0.542397 0.772264 0.579012
0.575036 0.788165 0.689640
0.631070 0.801517 0.837032
0.631070 0.771897 0.916020
0.625900 0.741615 1.051400
0.394944 0.776160 0.188160
0.427649 0.821362 0.265300
0.461824 0.841085 0.371560
0.494692 0.860808 0.477820
0.525272 0.880530 0.584080
0.551276 0.900252 0.690340
0.625900 0.919975 0.873040
0.625900 0.919975 1.000440
0.625900 0.853090 1.051400
0.613470 0.306397 0.165620
0.613470 0.229502 0.165620
0.613470 0.152607 0.165620
0.613470 0.144918 0.244712
0.613470 0.144918 0.332592
0.613470 0.144918 0.420472
0.613470 0.144918 0.508352
0.613470 0.144918 0.596232
0.696960 0.164640 0.764736
0.613470 0.383292 0.165620
0.628320 0.378672 0.275520
0.628320 0.302232 0.275520
0.628320 0.241080 0.292992
0.628320 0.241080 0.380352
0.628320 0.241080 0.467712
0.628320 0.241080 0.555072
0.628320 0.241080 0.642432
0.737550 0.232138 0.832880
0.613470 0.460187 0.165620
0.628320 0.455112 0.275520
0.661964 0.442575 0.361500
0.661964 0.358400 0.361500
0.661964 0.316312 0.409600
0.661964 0.316312 0.505800
0.661964 0.316312 0.602000
0.661964 0.316312 0.698200
0.755260 0.325115 0.882616
0.613470 0.537082 0.165620
0.628320 0.531552 0.275520
0.661964 0.526750 0.361500
0.678040 0.514304 0.469840
0.678040 0.428309 0.469840
0.678040 0.411110 0.548464
0.678040 0.411110 0.646744
0.678040 0.411110 0.745024
0.772970 0.418093 0.933184
0.613470 0.613977 0.165620
0.628320 0.607992 0.275520
0.661964 0.610925 0.361500
0.678040 0.600299 0.469840
0.693462 0.586324 0.579012
0.693462 0.506636 0.589131
0.693462 0.506636 0.690323
0.693462 0.506636 0.791515
0.790680 0.511070 0.985208
0.606565 0.683183 0.165620
0.628320 0.684432 0.275520
0.661964 0.695100 0.361500
0.678040 0.686294 0.469840
0.693462 0.674867 0.579012
0.707740 0.658854 0.689640
0.707740 0.603435 0.731864
0.707740 0.603435 0.837424
0.799524 0.604048 1.028860
0.537517 0.683183 0.165620
0.573408 0.699720 0.275520
0.624171 0.737188 0.361500
0.662596 0.755090 0.469840
0.693462 0.763410 0.579012
0.707740 0.751219 0.689640
0.719730 0.732403 0.803180
0.719730 0.702783 0.882168
0.786060 0.697025 1.051400
0.468468 0.683183 0.165620
0.504768 0.699720 0.275520
0.548586 0.737188 0.361500
0.585376 0.755090 0.469840
0.621905 0.772264 0.579012
0.657976 0.788165 0.689640
0.693132 0.801517 0.803180
0.726000 0.808500 0.924000
0.749716 0.790002 1.073940
0.463584 0.776160 0.188160
0.503234 0.821362 0.265300
0.539044 0.841085 0.371560
0.574200 0.860808 0.477820
0.608212 0.880530 0.584080
0.639936 0.900252 0.690340
0.665940 0.919975 0.796600
0.709390 0.939698 0.954184
0.709390 0.894789 1.073940
0.696960 0.348096 0.188160
0.696960 0.271656 0.188160
0.696960 0.195216 0.188160
0.696960 0.164640 0.240576
0.696960 0.164640 0.327936
0.696960 0.164640 0.415296
0.696960 0.164640 0.502656
0.696960 0.164640 0.590016
0.696960 0.164640 0.677376
0.696960 0.424536 0.188160
0.737550 0.408905 0.265300
0.737550 0.324730 0.265300
0.737550 0.240555 0.265300
0.737550 0.232138 0.351880
0.737550 0.232138 0.448080
0.737550 0.232138 0.544280
0.737550 0.232138 0.640480
0.737550 0.232138 0.736680
0.696960 0.500976 0.188160
0.737550 0.493080 0.265300
0.755260 0.479906 0.371560
0.755260 0.393911 0.371560
0.755260 0.325115 0.391216
0.755260 0.325115 0.489496
0.755260 0.325115 0.587776
0.755260 0.325115 0.686056
0.755260 0.325115 0.784336
0.696960 0.577416 0.188160
0.737550 0.577255 0.265300
0.755260 0.565901 0.371560
0.772970 0.550907 0.477820
0.772970 0.462364 0.477820
0.772970 0.418093 0.528416
0.772970 0.418093 0.629608
0.772970 0.418093 0.730800
0.772970 0.418093 0.831992
0.696960 0.653856 0.188160
0.737550 0.661430 0.265300
0.755260 0.651896 0.371560
0.772970 0.639450 0.477820
0.790680 0.621908 0.584080
0.790680 0.529543 0.584080
0.790680 0.511070 0.668528
0.790680 0.511070 0.774088
0.790680 0.511070 0.879648
0.696960 0.730296 0.188160
0.737550 0.745605 0.265300
0.755260 0.737891 0.371560
0.772970 0.727993 0.477820
0.790680 0.714273 0.584080
0.808390 0.692909 0.690340
0.808390 0.604048 0.701624
0.808390 0.604048 0.814464
0.808390 0.604048 0.927304
0.669504 0.776160 0.188160
0.729991 0.821362 0.265300
0.755260 0.823886 0.371560
0.772970 0.816536 0.477820
0.790680 0.806638 0.584080
0.808390 0.791644 0.690340
0.826100 0.763910 0.796600
0.826100 0.697025 0.847560
0.826100 0.697025 0.974960
0.600864 0.776160 0.188160
0.654406 0.821362 0.265300
0.693484 0.841085 0.371560
0.733216 0.860808 0.477820
0.774092 0.880530 0.584080
0.808390 0.890379 0.690340
0.826100 0.875385 0.796600
0.843810 0.834911 0.902860
0.843810 0.790002 1.022616
0.532224 0.776160 0.188160
0.578820 0.821362 0.265300
0.616264 0.841085 0.371560
0.653708 0.860808 0.477820
0.691152 0.880530 0.584080
0.728596 0.900252 0.690340
0.766040 0.919975 0.796600
0.803484 0.939698 0.902860
0.827200 0.921200 1.052800
