src/flutter_app/assets/presets/film-warm.cube
# PoseCraft LUT preset
# Generated automatically for Phase 1
TITLE "PoseCraft Preset"
LUT_3D_SIZE 9
DOMAIN_MIN 0.0 0.0 0.0
DOMAIN_MAX 1.0 1.0 1.0
0.141075 0.096525 0.007425
0.062397 0.045696 0.200179
0.056512 0.043554 0.309196
0.057694 0.046123 0.413502
0.060869 0.050021 0.516479
0.064881 0.054477 0.618898
0.069324 0.059220 0.721030
0.074019 0.064131 0.822994
0.078872 0.069148 0.924852
0.060375 0.249375 0.013125
0.058200 0.232800 0.178238
0.056468 0.209892 0.305782
0.057923 0.195788 0.411202
0.061200 0.190800 0.514800
0.065262 0.189736 0.617613
0.069733 0.190716 0.720017
0.074445 0.192898 0.822180
0.082256 0.197978 0.921244
0.056521 0.366700 0.019300
0.056827 0.357673 0.156106
0.056827 0.357673 0.291487
0.057923 0.345142 0.411202
0.061200 0.331200 0.514800
0.065262 0.324582 0.617613
0.069733 0.321781 0.720017
0.074445 0.321222 0.822180
0.082256 0.323344 0.921244
0.059027 0.484025 0.025475
0.059914 0.478086 0.150701
0.059914 0.478086 0.274502
0.059914 0.478086 0.398303
0.061200 0.471600 0.514800
0.065262 0.459428 0.617613
0.069733 0.452846 0.720017
0.074445 0.449546 0.822180
0.082256 0.448710 0.921244
0.063300 0.601350 0.031650
0.064409 0.597091 0.150578
0.064409 0.597091 0.268082
0.064409 0.597091 0.385585
0.064409 0.597091 0.503088
0.065262 0.594274 0.617613
0.069733 0.583911 0.720017
0.074445 0.577871 0.822180
0.082256 0.574077 0.921244
0.068311 0.718675 0.037825
0.069529 0.715471 0.152795
0.069529 0.715471 0.266339
0.069529 0.715471 0.379884
0.069529 0.715471 0.493429
0.069529 0.715471 0.606973
0.069733 0.714976 0.720017
0.074445 0.706195 0.822180
0.082256 0.699443 0.921244
0.073700 0.836000 0.044000
0.074979 0.833521 0.156251
0.074979 0.833521 0.267077
0.074979 0.833521 0.377903
0.074979 0.833521 0.488729
0.074979 0.833521 0.599555
0.074979 0.833521 0.710381
0.074979 0.833521 0.821207
0.082256 0.824809 0.921244
0.082256 0.950175 0.053325
0.107625 0.924375 0.182494
0.107625 0.924375 0.284588
0.107625 0.924375 0.386681
0.107625 0.924375 0.488775
0.107625 0.924375 0.590869
0.107625 0.924375 0.692963
0.107625 0.924375 0.795056
0.107625 0.924375 0.897150
0.145574 1.006501 0.120499
0.147612 1.007888 0.216517
0.147612 1.007888 0.310480
0.147612 1.007888 0.404442
0.147612 1.007888 0.498404
0.147612 1.007888 0.592366
0.147612 1.007888 0.686329
0.147612 1.007888 0.780291
0.147612 1.007888 0.874253
0.262912 0.044028 0.013838
0.252187 0.043563 0.176651
0.231447 0.043554 0.309196
0.213902 0.046123 0.413502
0.207315 0.050021 0.516479
0.205336 0.054477 0.618898
0.205728 0.059220 0.721030
0.207499 0.064131 0.822994
0.210145 0.069148 0.924852
0.262912 0.240269 0.013838
0.224472 0.205810 0.159153
0.212408 0.195262 0.280988
0.206785 0.190637 0.392488
0.205275 0.189750 0.500250
0.205929 0.190831 0.606044
0.207862 0.193074 0.710676
0.216811 0.202564 0.808061
0.257771 0.245230 0.872270
0.224018 0.366700 0.019300
0.211120 0.341088 0.151787
0.208257 0.334493 0.274119
0.206406 0.329448 0.390969
0.205263 0.323783 0.498987
0.206126 0.321523 0.604999
0.208189 0.321300 0.709811
0.225659 0.331617 0.799216
0.258737 0.354848 0.873013
0.210013 0.484025 0.025475
0.205999 0.466115 0.150260
0.205379 0.460871 0.267948
0.205379 0.460871 0.385266
0.205263 0.457762 0.498987
0.206126 0.451972 0.604999
0.208189 0.449164 0.709811
0.225659 0.451396 0.799216
0.258737 0.463496 0.873013
0.205725 0.601350 0.031650
0.205379 0.588073 0.151802
0.205839 0.583911 0.266331
0.205839 0.583911 0.379752
0.205839 0.583911 0.493174
0.206126 0.582421 0.604999
0.208189 0.577029 0.709811
0.225659 0.571175 0.799216
0.258737 0.572143 0.873013
0.205497 0.718675 0.037825
0.207017 0.708492 0.154883
0.208079 0.705171 0.267139
0.208079 0.705171 0.377878
0.208079 0.705171 0.488616
0.208079 0.705171 0.599354
0.208189 0.704893 0.709811
0.225659 0.690954 0.799216
0.258737 0.680790 0.873013
0.207350 0.836000 0.044000
0.209948 0.828029 0.158846
0.233143 0.803607 0.287045
0.233143 0.803607 0.388112
0.233143 0.803607 0.489178
0.233143 0.803607 0.590244
0.233143 0.803607 0.691311
0.233143 0.803607 0.792377
0.258737 0.789438 0.873013
0.212444 0.950175 0.053325
0.257291 0.896985 0.213390
0.260695 0.899555 0.310802
0.260695 0.899555 0.404752
0.260695 0.899555 0.498702
0.260695 0.899555 0.592652
0.260695 0.899555 0.686602
0.260695 0.899555 0.780552
0.260695 0.899555 0.874501
0.258414 1.006501 0.120499
0.265932 1.011689 0.222186
0.269656 1.014094 0.319563
0.269656 1.014094 0.413137
0.269656 1.014094 0.506712
0.269656 1.014094 0.600286
0.269656 1.014094 0.693861
0.269656 1.014094 0.787435
0.269656 1.014094 0.881010
0.384750 0.044550 0.020250
0.378950 0.045050 0.155356
0.378950 0.045050 0.289512
0.370111 0.046123 0.413502
0.353761 0.050021 0.516479
0.345791 0.054477 0.618898
0.342131 0.059220 0.721030
0.340980 0.064131 0.822994
0.341417 0.069148 0.924852
0.384750 0.202500 0.020250
0.360639 0.193116 0.151236
0.355875 0.191625 0.273750
0.352118 0.190637 0.392488
0.345000 0.189750 0.500250
0.341817 0.190831 0.606044
0.340960 0.193074 0.710676
0.345034 0.202564 0.808061
0.370638 0.245230 0.872270
0.384750 0.360450 0.020250
0.360639 0.338303 0.151236
0.349152 0.327937 0.269598
0.344301 0.323703 0.382922
0.341559 0.321500 0.492000
0.340976 0.321312 0.599063
0.350906 0.332571 0.694679
0.371718 0.355004 0.779121
0.378916 0.362255 0.878745
0.360999 0.484025 0.025475
0.349328 0.466115 0.150260
0.343686 0.456445 0.266805
0.341859 0.452641 0.379626
0.341325 0.451215 0.491175
0.341034 0.448858 0.598341
0.358053 0.454895 0.688197
0.372964 0.464845 0.780161
0.380250 0.471825 0.879750
0.348150 0.601350 0.031650
0.343149 0.588073 0.151802
0.341190 0.580273 0.266477
0.340971 0.577029 0.377855
0.340971 0.577029 0.488507
0.341034 0.576286 0.598341
0.358053 0.569345 0.688197
0.372964 0.573430 0.780161
0.380250 0.580050 0.879750
0.342683 0.718675 0.037825
0.341075 0.708492 0.154883
0.341214 0.702212 0.268038
0.356224 0.685276 0.389574
0.356224 0.685276 0.489623
0.356224 0.685276 0.589673
0.358053 0.683795 0.688197
0.372964 0.682016 0.780161
0.380250 0.688275 0.879750
0.341000 0.836000 0.044000
0.341351 0.828029 0.158846
0.369111 0.787380 0.306370
0.373750 0.791250 0.405063
0.373750 0.791250 0.499000
0.373750 0.791250 0.592938
0.373750 0.791250 0.686875
0.373750 0.791250 0.780812
0.380250 0.796500 0.879750
0.342631 0.950175 0.053325
0.370178 0.896985 0.213390
0.377274 0.902504 0.314746
0.382289 0.906211 0.413475
0.382289 0.906211 0.507032
0.382289 0.906211 0.600590
0.382289 0.906211 0.694147
0.382289 0.906211 0.787705
0.382289 0.906211 0.881263
0.371254 1.006501 0.120499
0.378420 1.011689 0.222186
0.386160 1.016827 0.323923
0.391787 1.020212 0.422795
0.391787 1.020212 0.515819
0.391787 1.020212 0.608842
0.391787 1.020212 0.701866
0.391787 1.020212 0.794889
0.391787 1.020212 0.887913
0.506587 0.048728 0.026663
0.502790 0.049460 0.150503
0.502790 0.049460 0.273394
0.502790 0.049460 0.396285
0.500207 0.050021 0.516479
0.486246 0.054477 0.618898
0.478535 0.059220 0.721030
0.474461 0.064131 0.822994
0.472690 0.069148 0.924852
0.506587 0.192154 0.026663
0.489739 0.189845 0.150386
0.486020 0.189730 0.267701
0.486020 0.189730 0.384658
0.484725 0.189750 0.500250
0.477706 0.190831 0.606044
0.474058 0.193074 0.710676
0.473257 0.202564 0.808061
0.483505 0.245230 0.872270
0.506587 0.335580 0.026663
0.489739 0.326639 0.150386
0.480457 0.322568 0.266543
0.477594 0.321656 0.379504
0.476956 0.321500 0.492000
0.473706 0.321312 0.599063
0.474664 0.332571 0.694679
0.484537 0.355004 0.779121
0.491377 0.362255 0.878745
0.506587 0.479006 0.026663
0.489739 0.463433 0.150386
0.480457 0.454991 0.266543
0.475434 0.450564 0.378441
0.473403 0.448888 0.488112
0.476589 0.454468 0.589407
0.485577 0.464694 0.686056
0.492479 0.471665 0.785960
0.499889 0.479166 0.885334
0.490575 0.601350 0.031650
0.480919 0.588073 0.151802
0.475674 0.580273 0.266477
0.473145 0.575843 0.377782
0.476905 0.569345 0.490111
0.480183 0.568514 0.587442
0.487077 0.574728 0.687423
0.494074 0.581418 0.787301
0.501631 0.588564 0.886619
0.479869 0.718675 0.037825
0.475132 0.708492 0.154883
0.472929 0.702212 0.268038
0.481028 0.677691 0.399434
0.486776 0.682974 0.499299
0.486776 0.682974 0.593224
0.487077 0.683249 0.687423
0.494074 0.689559 0.787301
0.501631 0.696195 0.886619
0.474650 0.836000 0.044000
0.472754 0.828029 0.158846
0.482043 0.787380 0.306370
0.488748 0.793205 0.407420
0.494882 0.798368 0.507354
0.494882 0.798368 0.600894
0.494882 0.798368 0.694435
0.494882 0.798368 0.787975
0.501631 0.803826 0.886619
0.472819 0.950175 0.053325
0.483065 0.896985 0.213390
0.489823 0.902504 0.314746
0.497015 0.908076 0.416049
0.503778 0.912972 0.516178
0.503778 0.912972 0.609177
0.503778 0.912972 0.702175
0.503778 0.912972 0.795174
0.503778 0.912972 0.888172
0.484094 1.006501 0.120499
0.490909 1.011689 0.222186
0.498186 1.016827 0.323923
0.506186 1.021889 0.425736
0.514076 1.026174 0.526366
0.514076 1.026174 0.618544
0.514076 1.026174 0.710722
0.514076 1.026174 0.802899
0.514076 1.026174 0.895077
0.628425 0.053964 0.033075
0.625714 0.054786 0.150806
0.625714 0.054786 0.267586
0.625714 0.054786 0.384367
0.625714 0.054786 0.501148
0.625714 0.054786 0.617929
0.614938 0.059220 0.721030
0.607942 0.064131 0.822994
0.603963 0.069148 0.924852
0.628425 0.189746 0.033075
0.615967 0.190405 0.152408
0.613050 0.190950 0.266325
0.613050 0.190950 0.379387
0.613050 0.190950 0.492450
0.613050 0.190950 0.605512
0.607156 0.193074 0.710676
0.601480 0.202564 0.808061
0.596372 0.245230 0.872270
0.628425 0.325528 0.033075
0.615967 0.322126 0.152408
0.608546 0.321200 0.266704
0.606149 0.321351 0.377820
0.606149 0.321351 0.488301
0.606149 0.321351 0.598783
0.598422 0.332571 0.694679
0.597357 0.355004 0.779121
0.603839 0.362255 0.878745
0.628425 0.461309 0.033075
0.615967 0.453848 0.152408
0.608546 0.450011 0.266704
0.604291 0.448450 0.377834
0.595222 0.455778 0.490639
0.595222 0.455778 0.588686
0.598347 0.464694 0.686056
0.604876 0.471665 0.785960
0.611792 0.479166 0.885334
0.628425 0.597091 0.033075
0.615967 0.585569 0.152408
0.608546 0.578821 0.266704
0.604291 0.575071 0.377834
0.594698 0.569599 0.494302
0.599772 0.574728 0.593511
0.605922 0.580960 0.693290
0.612916 0.588069 0.793056
0.620571 0.595886 0.892114
0.617056 0.718675 0.037825
0.609190 0.708492 0.154883
0.604645 0.702212 0.268038
0.594005 0.677691 0.399434
0.600345 0.683800 0.500200
0.606978 0.690133 0.600742
0.607739 0.690855 0.695011
0.614878 0.697576 0.794747
0.622779 0.704883 0.893721
0.608300 0.836000 0.044000
0.604157 0.828029 0.158846
0.594976 0.787380 0.306370
0.601355 0.793205 0.407420
0.608045 0.799175 0.508325
0.615210 0.805366 0.609009
0.615711 0.805789 0.702486
0.615711 0.805789 0.795459
0.622779 0.811617 0.893721
0.603007 0.950175 0.053325
0.595952 0.896985 0.213390
0.602372 0.902504 0.314746
0.609123 0.908076 0.416049
0.616384 0.913732 0.517268
0.624495 0.919527 0.618348
0.625080 0.919920 0.711075
0.625080 0.919920 0.803212
0.625080 0.919920 0.895350
0.596934 1.006501 0.120499
0.603397 1.011689 0.222186
0.610213 1.016827 0.323923
0.617578 1.021889 0.425736
0.625871 1.026821 0.527679
0.635922 1.031508 0.629867
0.636694 1.031806 0.721361
0.636694 1.031806 0.812075
0.636694 1.031806 0.902790
0.750263 0.059651 0.039488
0.748233 0.060517 0.153384
0.748233 0.060517 0.266330
0.748233 0.060517 0.379276
0.748233 0.060517 0.492222
0.748233 0.060517 0.605168
0.748233 0.060517 0.718114
0.741422 0.064131 0.822994
0.735236 0.069148 0.924852
0.750263 0.190716 0.039488
0.740744 0.192898 0.155881
0.738440 0.193810 0.267409
0.738440 0.193810 0.377807
0.738440 0.193810 0.488205
0.738440 0.193810 0.598603
0.738440 0.193810 0.709001
0.729703 0.202564 0.808061
0.709239 0.245230 0.872270
0.750263 0.321781 0.039488
0.740744 0.321222 0.155881
0.733195 0.323344 0.270305
0.711213 0.344537 0.394146
0.711213 0.344537 0.491207
0.711213 0.344537 0.588269
0.711213 0.344537 0.685330
0.710176 0.355004 0.779121
0.716301 0.362255 0.878745
0.750263 0.452846 0.039488
0.740744 0.449546 0.155881
0.733195 0.448710 0.270305
0.708839 0.462160 0.401536
0.712738 0.466513 0.499899
0.712738 0.466513 0.593798
0.712738 0.466513 0.687698
0.717273 0.471665 0.785960
0.723696 0.479166 0.885334
0.750263 0.583911 0.039488
0.740744 0.577871 0.155881
0.733195 0.574077 0.270305
0.708839 0.570866 0.401536
0.714922 0.577361 0.502328
0.719946 0.582804 0.601505
0.719946 0.582804 0.695011
0.724727 0.588069 0.793056
0.731657 0.595886 0.892114
0.750263 0.714976 0.039488
0.740744 0.706195 0.155881
0.733195 0.699443 0.270305
0.708839 0.679572 0.401536
0.714922 0.685742 0.502328
0.721230 0.692165 0.602895
0.727583 0.698667 0.702798
0.732794 0.704031 0.800594
0.740699 0.712239 0.899261
0.741950 0.836000 0.044000
0.735560 0.828029 0.158846
0.707909 0.787380 0.306370
0.713963 0.793205 0.407420
0.720230 0.799175 0.508325
0.726823 0.805366 0.609009
0.733952 0.811920 0.709330
0.735990 0.813760 0.803527
0.743456 0.820351 0.901294
0.733195 0.950175 0.053325
0.708839 0.896985 0.213390
0.714922 0.902504 0.314746
0.721230 0.908076 0.416049
0.727890 0.913732 0.517268
0.735132 0.919527 0.618348
0.743456 0.925577 0.719173
0.745985 0.927265 0.812454
0.745985 0.927265 0.903094
0.709774 1.006501 0.120499
0.715886 1.011689 0.222186
0.722239 1.016827 0.323923
0.728970 1.021889 0.425736
0.736337 1.026821 0.527679
0.744910 1.031508 0.629867
0.756225 1.035637 0.732613
0.760208 1.036542 0.824427
0.760208 1.036542 0.911997
0.872100 0.065571 0.045900
0.870538 0.066462 0.157165
0.870538 0.066462 0.267481
0.870538 0.066462 0.377796
0.870538 0.066462 0.488112
0.870538 0.066462 0.598427
0.870538 0.066462 0.708742
0.870538 0.066462 0.819058
0.866509 0.069148 0.924852
0.872100 0.193436 0.045900
0.847589 0.211838 0.177286
0.824911 0.235589 0.299645
0.824911 0.235589 0.395731
0.824911 0.235589 0.491816
0.824911 0.235589 0.587901
0.824911 0.235589 0.683986
0.824911 0.235589 0.780072
0.822107 0.245230 0.872270
0.872100 0.321300 0.045900
0.847589 0.331617 0.177286
0.822868 0.354848 0.308882
0.825673 0.358327 0.406314
0.825673 0.358327 0.500200
0.825673 0.358327 0.594086
0.825673 0.358327 0.687973
0.825673 0.358327 0.781859
0.828762 0.362255 0.878745
0.872100 0.449164 0.045900
0.847589 0.451396 0.177286
0.822868 0.463496 0.308882
0.828633 0.470393 0.409992
0.832415 0.475085 0.508325
0.832415 0.475085 0.601813
0.832415 0.475085 0.695300
0.832415 0.475085 0.788787
0.835599 0.479166 0.885334
0.872100 0.577029 0.045900
0.847589 0.571175 0.177286
0.822868 0.572143 0.308882
0.828633 0.578698 0.409992
0.834531 0.585637 0.510969
0.839395 0.591605 0.610189
0.839395 0.591605 0.703110
0.839395 0.591605 0.796032
0.842743 0.595886 0.892114
0.872100 0.704893 0.045900
0.847589 0.690954 0.177286
0.822868 0.680790 0.308882
0.828633 0.687003 0.409992
0.834531 0.693491 0.510969
0.840639 0.700410 0.611736
0.846803 0.707697 0.711789
0.846803 0.707697 0.803844
0.850473 0.712239 0.899261
0.872100 0.832757 0.045900
0.847589 0.810734 0.177286
0.822868 0.789438 0.308882
0.828633 0.795308 0.409992
0.834531 0.801345 0.510969
0.840639 0.807644 0.611736
0.847101 0.814385 0.712149
0.854238 0.821971 0.811887
0.859550 0.827750 0.907250
0.863383 0.950175 0.053325
0.821727 0.896985 0.213390
0.827471 0.902504 0.314746
0.833338 0.908076 0.416049
0.839395 0.913732 0.517268
0.845769 0.919527 0.618348
0.852729 0.925577 0.719173
0.860976 0.932191 0.819434
0.865797 0.935703 0.912401
0.822614 1.006501 0.120499
0.828374 1.011689 0.222186
0.834265 1.016827 0.323923
0.840361 1.021889 0.425736
0.846803 1.026821 0.527679
0.853898 1.031508 0.629867
0.862480 1.035637 0.732613
0.875841 1.037974 0.837151
0.888250 1.036750 0.928750
0.952313 0.111545 0.093938
0.936352 0.128898 0.207107
0.936352 0.128898 0.302226
0.936352 0.128898 0.397345
0.936352 0.128898 0.492464
0.936352 0.128898 0.587583
0.936352 0.128898 0.682702
0.936352 0.128898 0.777821
0.936352 0.128898 0.872940
0.952313 0.225995 0.093938
0.936774 0.247673 0.216351
0.938577 0.250173 0.312755
0.938577 0.250173 0.406629
0.938577 0.250173 0.500502
0.938577 0.250173 0.594375
0.938577 0.250173 0.688248
0.938577 0.250173 0.782121
0.938577 0.250173 0.875995
0.952313 0.340445 0.093938
0.936774 0.356259 0.216351
0.942188 0.363600 0.317813
0.944842 0.367408 0.415182
0.944842 0.367408 0.508651
0.944842 0.367408 0.602120
0.944842 0.367408 0.695590
0.944842 0.367408 0.789059
0.944842 0.367408 0.882529
0.952313 0.454895 0.093938
0.936774 0.464845 0.216351
0.942188 0.471825 0.317813
0.947623 0.479341 0.419252
0.951144 0.484606 0.517635
0.951144 0.484606 0.610530
0.951144 0.484606 0.703425
0.951144 0.484606 0.796320
0.951144 0.484606 0.889214
0.952313 0.569345 0.093938
0.936774 0.573430 0.216351
0.942188 0.580050 0.317813
0.947623 0.587087 0.419252
0.953095 0.594787 0.520655
0.957515 0.601735 0.620137
0.957515 0.601735 0.712149
0.957515 0.601735 0.804162
0.957515 0.601735 0.896174
0.952313 0.683795 0.093938
0.936774 0.682016 0.216351
0.942188 0.688275 0.317813
0.947623 0.694834 0.419252
0.953095 0.701868 0.520655
0.958629 0.709724 0.621996
0.964030 0.718720 0.722741
0.964030 0.718720 0.813225
0.964030 0.718720 0.903708
0.952313 0.798245 0.093938
0.936774 0.790601 0.216351
0.942188 0.796500 0.317813
0.947623 0.802580 0.419252
0.953095 0.808948 0.520655
0.958629 0.815815 0.621996
0.964286 0.823661 0.723214
0.970238 0.833877 0.824137
0.970938 0.835312 0.912812
0.952313 0.912695 0.093938
0.936774 0.899187 0.216351
0.942188 0.904725 0.317813
0.947623 0.910326 0.419252
0.953095 0.916029 0.520655
0.958629 0.921906 0.621996
0.964286 0.928125 0.723214
0.970238 0.935174 0.824137
0.977287 0.945293 0.923963
0.935454 1.006501 0.120499
0.940863 1.011689 0.222186
0.946292 1.016827 0.323923
0.951753 1.021889 0.425736
0.957268 1.026821 0.527679
0.962886 1.031508 0.629867
0.968736 1.035637 0.732613
0.975332 1.037974 0.837151
0.988975 1.023400 0.958600
1.050550 0.140645 0.123950
1.051449 0.142051 0.219225
1.051449 0.142051 0.313084
1.051449 0.142051 0.406944
1.051449 0.142051 0.500804
1.051449 0.142051 0.594664
1.051449 0.142051 0.688524
1.051449 0.142051 0.782384
1.051449 0.142051 0.876244
1.050550 0.249166 0.123950
1.055572 0.256997 0.225803
1.057224 0.259776 0.322076
1.057224 0.259776 0.415527
1.057224 0.259776 0.508978
1.057224 0.259776 0.602429
1.057224 0.259776 0.695880
1.057224 0.259776 0.789331
1.057224 0.259776 0.882782
1.050550 0.357687 0.123950
1.055572 0.365138 0.225803
1.060485 0.373301 0.327765
1.062829 0.377671 0.425137
1.062829 0.377671 0.518005
1.062829 0.377671 0.610872
1.062829 0.377671 0.703740
1.062829 0.377671 0.796608
1.062829 0.377671 0.889476
1.050550 0.466208 0.123950
1.055572 0.473278 0.225803
1.060485 0.480932 0.327765
1.065223 0.489528 0.429902
1.068125 0.495875 0.528575
1.068125 0.495875 0.620544
1.068125 0.495875 0.712512
1.068125 0.495875 0.804481
1.068125 0.495875 0.896450
1.050550 0.574728 0.123950
1.055572 0.581418 0.225803
1.060485 0.588564 0.327765
1.065223 0.596443 0.429902
1.069650 0.605618 0.532350
1.072768 0.614732 0.632812
1.072768 0.614732 0.723214
1.072768 0.614732 0.813616
1.072768 0.614732 0.904018
1.050550 0.683249 0.123950
1.055572 0.689559 0.225803
1.060485 0.696195 0.327765
1.065223 0.703357 0.429902
1.069650 0.711450 0.532350
1.073448 0.721431 0.635427
1.075600 0.735400 0.739266
1.075600 0.735400 0.826249
1.075600 0.735400 0.913232
1.050550 0.791770 0.123950
1.055572 0.797699 0.225803
1.060485 0.803826 0.327765
1.065223 0.810272 0.429902
1.069650 0.817282 0.532350
1.073448 0.825436 0.635427
1.075628 0.836532 0.740122
1.070864 0.860253 0.851761
1.068775 0.865725 0.931225
1.050550 0.900291 0.123950
1.055572 0.905839 0.225803
1.060485 0.911457 0.327765
1.065223 0.917187 0.429902
1.069650 0.923114 0.532350
1.073448 0.929441 0.635427
1.075628 0.936798 0.740122
1.070864 0.948574 0.851761
1.000000 1.000000 1.000000
1.050550 1.008812 0.123950
1.055572 1.013980 0.225803
1.060485 1.019088 0.327765
1.065223 1.024101 0.429902
1.069650 1.028945 0.532350
1.073448 1.033446 0.635427
1.075628 1.037064 0.740122
1.070864 1.036895 0.851761
1.000000 1.000000 1.000000
