src/flutter_app/assets/presets/film-warm.cube
# PoseCraft LUT preset
# Generated automatically for Phase 1
TITLE "PoseCraft Preset"
LUT_3D_SIZE 5
DOMAIN_MIN 0.0 0.0 0.0
DOMAIN_MAX 1.0 1.0 1.0
0.141075 0.096525 0.007425
0.056512 0.043554 0.309196
0.060869 0.050021 0.516479
0.069324 0.059220 0.721030
0.078872 0.069148 0.924852
0.056521 0.366700 0.019300
0.056827 0.357673 0.291487
0.061200 0.331200 0.514800
0.069733 0.321781 0.720017
0.082256 0.323344 0.921244
0.063300 0.601350 0.031650
0.064409 0.597091 0.268082
0.064409 0.597091 0.503088
0.069733 0.583911 0.720017
0.082256 0.574077 0.921244
0.073700 0.836000 0.044000
0.074979 0.833521 0.267077
0.074979 0.833521 0.488729
0.074979 0.833521 0.710381
0.082256 0.824809 0.921244
0.145574 1.006501 0.120499
0.147612 1.007888 0.310480
0.147612 1.007888 0.498404
0.147612 1.007888 0.686329
0.147612 1.007888 0.874253
0.384750 0.044550 0.020250
0.378950 0.045050 0.289512
0.353761 0.050021 0.516479
0.342131 0.059220 0.721030
0.341417 0.069148 0.924852
0.384750 0.360450 0.020250
0.349152 0.327937 0.269598
0.341559 0.321500 0.492000
0.350906 0.332571 0.694679
0.378916 0.362255 0.878745
0.348150 0.601350 0.031650
0.341190 0.580273 0.266477
0.340971 0.577029 0.488507
0.358053 0.569345 0.688197
0.380250 0.580050 0.879750
0.341000 0.836000 0.044000
0.369111 0.787380 0.306370
0.373750 0.791250 0.499000
0.373750 0.791250 0.686875
0.380250 0.796500 0.879750
0.371254 1.006501 0.120499
0.386160 1.016827 0.323923
0.391787 1.020212 0.515819
0.391787 1.020212 0.701866
0.391787 1.020212 0.887913
0.628425 0.053964 0.033075
0.625714 0.054786 0.267586
0.625714 0.054786 0.501148
0.614938 0.059220 0.721030
0.603963 0.069148 0.924852
0.628425 0.325528 0.033075
0.608546 0.321200 0.266704
0.606149 0.321351 0.488301
0.598422 0.332571 0.694679
0.603839 0.362255 0.878745
0.628425 0.597091 0.033075
0.608546 0.578821 0.266704
0.594698 0.569599 0.494302
0.605922 0.580960 0.693290
0.620571 0.595886 0.892114
0.608300 0.836000 0.044000
0.594976 0.787380 0.306370
0.608045 0.799175 0.508325
0.615711 0.805789 0.702486
0.622779 0.811617 0.893721
0.596934 1.006501 0.120499
0.610213 1.016827 0.323923
0.625871 1.026821 0.527679
0.636694 1.031806 0.721361
0.636694 1.031806 0.902790
0.872100 0.065571 0.045900
0.870538 0.066462 0.267481
0.870538 0.066462 0.488112
0.870538 0.066462 0.708742
0.866509 0.069148 0.924852
0.872100 0.321300 0.045900
0.822868 0.354848 0.308882
0.825673 0.358327 0.500200
0.825673 0.358327 0.687973
0.828762 0.362255 0.878745
0.872100 0.577029 0.045900
0.822868 0.572143 0.308882
0.834531 0.585637 0.510969
0.839395 0.591605 0.703110
0.842743 0.595886 0.892114
0.872100 0.832757 0.045900
0.822868 0.789438 0.308882
0.834531 0.801345 0.510969
0.847101 0.814385 0.712149
0.859550 0.827750 0.907250
0.822614 1.006501 0.120499
0.834265 1.016827 0.323923
0.846803 1.026821 0.527679
0.862480 1.035637 0.732613
0.888250 1.036750 0.928750
1.050550 0.140645 0.123950
1.051449 0.142051 0.313084
1.051449 0.142051 0.500804
1.051449 0.142051 0.688524
1.051449 0.142051 0.876244
1.050550 0.357687 0.123950
1.060485 0.373301 0.327765
1.062829 0.377671 0.518005
1.062829 0.377671 0.703740
1.062829 0.377671 0.889476
1.050550 0.574728 0.123950
1.060485 0.588564 0.327765
1.069650 0.605618 0.532350
1.072768 0.614732 0.723214
1.072768 0.614732 0.904018
1.050550 0.791770 0.123950
1.060485 0.803826 0.327765
1.069650 0.817282 0.532350
1.075628 0.836532 0.740122
1.068775 0.865725 0.931225
1.050550 1.008812 0.123950
1.060485 1.019088 0.327765
1.069650 1.028945 0.532350
1.075628 1.037064 0.740122
1.000000 1.000000 1.000000
