src/flutter_app/assets/presets/film-warm.cube
# PoseCraft LUT preset
# Generated automatically for Phase 1
TITLE "PoseCraft Preset"
LUT_3D_SIZE 33
DOMAIN_MIN 0.0 0.0 0.0
DOMAIN_MAX 1.0 1.0 1.0
0.141075 0.096525 0.007425
0.098825 0.068675 0.093172
0.077764 0.055050 0.137388
0.067650 0.048752 0.170404
0.062397 0.045696 0.200179
0.059451 0.044177 0.228417
0.057781 0.043509 0.255803
0.056891 0.043361 0.282670
0.056512 0.043554 0.309196
0.056486 0.043982 0.335487
0.056715 0.044579 0.361608
0.057132 0.045303 0.387603
0.057694 0.046123 0.413502
0.058369 0.047018 0.439325
0.059134 0.047974 0.465089
0.059971 0.048977 0.490804
0.060869 0.050021 0.516479
0.061815 0.051097 0.542122
0.062804 0.052201 0.567736
0.063827 0.053329 0.593327
0.064881 0.054477 0.618898
0.065961 0.055642 0.644452
0.067063 0.056822 0.669990
0.068185 0.058016 0.695516
0.069324 0.059220 0.721030
0.070479 0.060435 0.746533
0.071647 0.061660 0.772028
0.072827 0.062892 0.797514
0.074019 0.064131 0.822994
0.075220 0.065377 0.848467
0.076429 0.066629 0.873934
0.077647 0.067886 0.899395
0.078872 0.069148 0.924852
0.095858 0.161381 0.008494
0.075666 0.125043 0.071551
0.073312 0.120724 0.128625
0.065411 0.105894 0.163246
0.061156 0.097446 0.194219
0.058744 0.092223 0.223350
0.057393 0.088856 0.251420
0.056708 0.086656 0.278824
0.056468 0.085235 0.305782
0.056542 0.084362 0.332427
0.056844 0.083889 0.358843
0.057317 0.083715 0.385089
0.057923 0.083772 0.411202
0.058632 0.084011 0.437212
0.059424 0.084396 0.463138
0.060284 0.084899 0.488997
0.061200 0.085500 0.514800
0.062162 0.086182 0.540556
0.063164 0.086933 0.566274
0.064199 0.087742 0.591958
0.065262 0.088601 0.617613
0.066350 0.089503 0.643244
0.067460 0.090443 0.668853
0.068588 0.091416 0.694443
0.069733 0.092418 0.720017
0.070893 0.093445 0.745576
0.072066 0.094495 0.771122
0.073250 0.095566 0.796656
0.074445 0.096655 0.822180
0.075649 0.097760 0.847695
0.076861 0.098880 0.873201
0.078082 0.100013 0.898700
0.082256 0.103954 0.921244
0.073805 0.190712 0.010038
0.065664 0.165198 0.062271
0.065286 0.163964 0.112382
0.065286 0.163964 0.162842
0.061156 0.149865 0.194219
0.058744 0.140582 0.223350
0.057393 0.134304 0.251420
0.056708 0.129914 0.278824
0.056468 0.126787 0.305782
0.056542 0.124547 0.332427
0.056844 0.122953 0.358843
0.057317 0.121845 0.385089
0.057923 0.121111 0.411202
0.058632 0.120671 0.437212
0.059424 0.120467 0.463138
0.060284 0.120454 0.488997
0.061200 0.120600 0.514800
0.062162 0.120877 0.540556
0.063164 0.121266 0.566274
0.064199 0.121749 0.591958
0.065262 0.122312 0.617613
0.066350 0.122946 0.643244
0.067460 0.123641 0.668853
0.068588 0.124389 0.694443
0.069733 0.125184 0.720017
0.070893 0.126020 0.745576
0.072066 0.126893 0.771122
0.073250 0.127800 0.796656
0.074445 0.128736 0.822180
0.075649 0.129698 0.847695
0.076861 0.130685 0.873201
0.078082 0.131693 0.898700
0.082256 0.135295 0.921244
0.064806 0.220044 0.011581
0.060816 0.200521 0.057822
0.060622 0.199503 0.102286
0.060622 0.199503 0.146927
0.060622 0.199503 0.191567
0.058744 0.188941 0.223350
0.057393 0.179752 0.251420
0.056708 0.173173 0.278824
0.056468 0.168340 0.305782
0.056542 0.164732 0.332427
0.056844 0.162018 0.358843
0.057317 0.159975 0.385089
0.057923 0.158449 0.411202
0.058632 0.157331 0.437212
0.059424 0.156538 0.463138
0.060284 0.156010 0.488997
0.061200 0.155700 0.514800
0.062162 0.155573 0.540556
0.063164 0.155599 0.566274
0.064199 0.155755 0.591958
0.065262 0.156024 0.617613
0.066350 0.156389 0.643244
0.067460 0.156839 0.668853
0.068588 0.157362 0.694443
0.069733 0.157950 0.720017
0.070893 0.158595 0.745576
0.072066 0.159292 0.771122
0.073250 0.160034 0.796656
0.074445 0.160817 0.822180
0.075649 0.161636 0.847695
0.076861 0.162489 0.873201
0.078082 0.163372 0.898700
0.082256 0.166637 0.921244
0.060375 0.249375 0.013125
0.058300 0.233658 0.055560
0.058200 0.232800 0.096394
0.058200 0.232800 0.137316
0.058200 0.232800 0.178238
0.058200 0.232800 0.219159
0.057393 0.225200 0.251420
0.056708 0.216432 0.278824
0.056468 0.209892 0.305782
0.056542 0.204917 0.332427
0.056844 0.201083 0.358843
0.057317 0.198105 0.385089
0.057923 0.195788 0.411202
0.058632 0.193990 0.437212
0.059424 0.192608 0.463138
0.060284 0.191565 0.488997
0.061200 0.190800 0.514800
0.062162 0.190268 0.540556
0.063164 0.189932 0.566274
0.064199 0.189762 0.591958
0.065262 0.189736 0.617613
0.066350 0.189832 0.643244
0.067460 0.190037 0.668853
0.068588 0.190335 0.694443
0.069733 0.190716 0.720017
0.070893 0.191171 0.745576
0.072066 0.191690 0.771122
0.073250 0.192268 0.796656
0.074445 0.192898 0.822180
0.075649 0.193575 0.847695
0.076861 0.194294 0.873201
0.078082 0.195052 0.898700
0.082256 0.197978 0.921244
0.058072 0.278706 0.014669
0.057037 0.265621 0.054473
0.056991 0.264884 0.092776
0.056991 0.264884 0.131117
0.056991 0.264884 0.169458
0.056991 0.264884 0.207799
0.056991 0.264884 0.246140
0.056708 0.259690 0.278824
0.056468 0.251444 0.305782
0.056542 0.245102 0.332427
0.056844 0.240147 0.358843
0.057317 0.236235 0.385089
0.057923 0.233126 0.411202
0.058632 0.230650 0.437212
0.059424 0.228679 0.463138
0.060284 0.227120 0.488997
0.061200 0.225900 0.514800
0.062162 0.224963 0.540556
0.063164 0.224265 0.566274
0.064199 0.223769 0.591958
0.065262 0.223447 0.617613
0.066350 0.223275 0.643244
0.067460 0.223235 0.668853
0.068588 0.223308 0.694443
0.069733 0.223482 0.720017
0.070893 0.223746 0.745576
0.072066 0.224089 0.771122
0.073250 0.224502 0.796656
0.074445 0.224979 0.822180
0.075649 0.225513 0.847695
0.076861 0.226099 0.873201
0.078082 0.226731 0.898700
0.082256 0.229320 0.921244
0.056932 0.308037 0.016213
0.056525 0.296880 0.054089
0.056512 0.296238 0.090527
0.056512 0.296238 0.126972
0.056512 0.296238 0.163417
0.056512 0.296238 0.199862
0.056512 0.296238 0.236307
0.056512 0.296238 0.272751
0.056468 0.292996 0.305782
0.056542 0.285287 0.332427
0.056844 0.279212 0.358843
0.057317 0.274365 0.385089
0.057923 0.270465 0.411202
0.058632 0.267309 0.437212
0.059424 0.264750 0.463138
0.060284 0.262675 0.488997
0.061200 0.261000 0.514800
0.062162 0.259658 0.540556
0.063164 0.258598 0.566274
0.064199 0.257776 0.591958
0.065262 0.257159 0.617613
0.066350 0.256719 0.643244
0.067460 0.256433 0.668853
0.068588 0.256281 0.694443
0.069733 0.256249 0.720017
0.070893 0.256321 0.745576
0.072066 0.256487 0.771122
0.073250 0.256736 0.796656
0.074445 0.257060 0.822180
0.075649 0.257451 0.847695
0.076861 0.257903 0.873201
0.078082 0.258410 0.898700
0.082256 0.260661 0.921244
0.056497 0.337369 0.017756
0.056497 0.327684 0.054159
0.056507 0.327118 0.089167
0.056507 0.327118 0.124160
0.056507 0.327118 0.159153
0.056507 0.327118 0.194145
0.056507 0.327118 0.229138
0.056507 0.327118 0.264131
0.056507 0.327118 0.299124
0.056542 0.325472 0.332427
0.056844 0.318276 0.358843
0.057317 0.312495 0.385089
0.057923 0.307803 0.411202
0.058632 0.303969 0.437212
0.059424 0.300820 0.463138
0.060284 0.298230 0.488997
0.061200 0.296100 0.514800
0.062162 0.294354 0.540556
0.063164 0.292931 0.566274
0.064199 0.291782 0.591958
0.065262 0.290870 0.617613
0.066350 0.290162 0.643244
0.067460 0.289630 0.668853
0.068588 0.289254 0.694443
0.069733 0.289015 0.720017
0.070893 0.288896 0.745576
0.072066 0.288885 0.771122
0.073250 0.288970 0.796656
0.074445 0.289141 0.822180
0.075649 0.289389 0.847695
0.076861 0.289708 0.873201
0.078082 0.290090 0.898700
0.082256 0.292003 0.921244
0.056521 0.366700 0.019300
0.056801 0.358178 0.054541
0.056827 0.357673 0.088416
0.056827 0.357673 0.122261
0.056827 0.357673 0.156106
0.056827 0.357673 0.189951
0.056827 0.357673 0.223797
0.056827 0.357673 0.257642
0.056827 0.357673 0.291487
0.056827 0.357673 0.325332
0.056844 0.357341 0.358843
0.057317 0.350625 0.385089
0.057923 0.345142 0.411202
0.058632 0.340628 0.437212
0.059424 0.336891 0.463138
0.060284 0.333785 0.488997
0.061200 0.331200 0.514800
0.062162 0.329049 0.540556
0.063164 0.327263 0.566274
0.064199 0.325789 0.591958
0.065262 0.324582 0.617613
0.066350 0.323605 0.643244
0.067460 0.322828 0.668853
0.068588 0.322227 0.694443
0.069733 0.321781 0.720017
0.070893 0.321472 0.745576
0.072066 0.321284 0.771122
0.073250 0.321204 0.796656
0.074445 0.321222 0.822180
0.075649 0.321328 0.847695
0.076861 0.321513 0.873201
0.078082 0.321769 0.898700
0.082256 0.323344 0.921244
0.056862 0.396031 0.020844
0.057342 0.388450 0.055144
0.057379 0.387996 0.088100
0.057379 0.387996 0.121015
0.057379 0.387996 0.153931
0.057379 0.387996 0.186846
0.057379 0.387996 0.219762
0.057379 0.387996 0.252677
0.057379 0.387996 0.285593
0.057379 0.387996 0.318508
0.057379 0.387996 0.351424
0.057379 0.387996 0.384339
0.057923 0.382480 0.411202
0.058632 0.377288 0.437212
0.059424 0.372962 0.463138
0.060284 0.369340 0.488997
0.061200 0.366300 0.514800
0.062162 0.363744 0.540556
0.063164 0.361596 0.566274
0.064199 0.359796 0.591958
0.065262 0.358293 0.617613
0.066350 0.357048 0.643244
0.067460 0.356026 0.668853
0.068588 0.355201 0.694443
0.069733 0.354547 0.720017
0.070893 0.354047 0.745576
0.072066 0.353682 0.771122
0.073250 0.353438 0.796656
0.074445 0.353303 0.822180
0.075649 0.353266 0.847695
0.076861 0.353317 0.873201
0.078082 0.353449 0.898700
0.082256 0.354686 0.921244
0.057429 0.425362 0.022388
0.058057 0.418558 0.055911
0.058102 0.418148 0.088106
0.058102 0.418148 0.120253
0.058102 0.418148 0.152400
0.058102 0.418148 0.184547
0.058102 0.418148 0.216694
0.058102 0.418148 0.248841
0.058102 0.418148 0.280988
0.058102 0.418148 0.313134
0.058102 0.418148 0.345281
0.058102 0.418148 0.377428
0.058102 0.418148 0.409575
0.058632 0.413947 0.437212
0.059424 0.409032 0.463138
0.060284 0.404895 0.488997
0.061200 0.401400 0.514800
0.062162 0.398439 0.540556
0.063164 0.395929 0.566274
0.064199 0.393803 0.591958
0.065262 0.392005 0.617613
0.066350 0.390491 0.643244
0.067460 0.389224 0.668853
0.068588 0.388174 0.694443
0.069733 0.387314 0.720017
0.070893 0.386622 0.745576
0.072066 0.386080 0.771122
0.073250 0.385672 0.796656
0.074445 0.385384 0.822180
0.075649 0.385204 0.847695
0.076861 0.385122 0.873201
0.078082 0.385128 0.898700
0.082256 0.386027 0.921244
0.058164 0.454694 0.023931
0.058905 0.448541 0.056803
0.058957 0.448168 0.088358
0.058957 0.448168 0.119859
0.058957 0.448168 0.151360
0.058957 0.448168 0.182861
0.058957 0.448168 0.214361
0.058957 0.448168 0.245862
0.058957 0.448168 0.277363
0.058957 0.448168 0.308864
0.058957 0.448168 0.340365
0.058957 0.448168 0.371866
0.058957 0.448168 0.403367
0.058957 0.448168 0.434867
0.059424 0.445103 0.463138
0.060284 0.440451 0.488997
0.061200 0.436500 0.514800
0.062162 0.433135 0.540556
0.063164 0.430262 0.566274
0.064199 0.427810 0.591958
0.065262 0.425716 0.617613
0.066350 0.423934 0.643244
0.067460 0.422422 0.668853
0.068588 0.421147 0.694443
0.069733 0.420080 0.720017
0.070893 0.419197 0.745576
0.072066 0.418479 0.771122
0.073250 0.417906 0.796656
0.074445 0.417465 0.822180
0.075649 0.417143 0.847695
0.076861 0.416927 0.873201
0.078082 0.416807 0.898700
0.082256 0.417369 0.921244
0.059027 0.484025 0.025475
0.059856 0.478428 0.057791
0.059914 0.478086 0.088801
0.059914 0.478086 0.119751
0.059914 0.478086 0.150701
0.059914 0.478086 0.181651
0.059914 0.478086 0.212602
0.059914 0.478086 0.243552
0.059914 0.478086 0.274502
0.059914 0.478086 0.305453
0.059914 0.478086 0.336403
0.059914 0.478086 0.367353
0.059914 0.478086 0.398303
0.059914 0.478086 0.429254
0.059914 0.478086 0.460204
0.060284 0.476006 0.488997
0.061200 0.471600 0.514800
0.062162 0.467830 0.540556
0.063164 0.464595 0.566274
0.064199 0.461816 0.591958
0.065262 0.459428 0.617613
0.066350 0.457377 0.643244
0.067460 0.455620 0.668853
0.068588 0.454120 0.694443
0.069733 0.452846 0.720017
0.070893 0.451772 0.745576
0.072066 0.450877 0.771122
0.073250 0.450140 0.796656
0.074445 0.449546 0.822180
0.075649 0.449081 0.847695
0.076861 0.448731 0.873201
0.078082 0.448487 0.898700
0.082256 0.448710 0.921244
0.059991 0.513356 0.027019
0.060889 0.508238 0.058856
0.060951 0.507924 0.089395
0.060951 0.507924 0.119870
0.060951 0.507924 0.150346
0.060951 0.507924 0.180821
0.060951 0.507924 0.211296
0.060951 0.507924 0.241772
0.060951 0.507924 0.272247
0.060951 0.507924 0.302723
0.060951 0.507924 0.333198
0.060951 0.507924 0.363674
0.060951 0.507924 0.394149
0.060951 0.507924 0.424625
0.060951 0.507924 0.455100
0.060951 0.507924 0.485575
0.061200 0.506700 0.514800
0.062162 0.502525 0.540556
0.063164 0.498928 0.566274
0.064199 0.495823 0.591958
0.065262 0.493139 0.617613
0.066350 0.490820 0.643244
0.067460 0.488818 0.668853
0.068588 0.487093 0.694443
0.069733 0.485612 0.720017
0.070893 0.484348 0.745576
0.072066 0.483275 0.771122
0.073250 0.482374 0.796656
0.074445 0.481627 0.822180
0.075649 0.481019 0.847695
0.076861 0.480536 0.873201
0.078082 0.480166 0.898700
0.082256 0.480052 0.921244
0.061034 0.542687 0.028563
0.061988 0.537986 0.059983
0.062053 0.537697 0.090111
0.062053 0.537697 0.120173
0.062053 0.537697 0.150234
0.062053 0.537697 0.180296
0.062053 0.537697 0.210358
0.062053 0.537697 0.240420
0.062053 0.537697 0.270481
0.062053 0.537697 0.300543
0.062053 0.537697 0.330605
0.062053 0.537697 0.360666
0.062053 0.537697 0.390728
0.062053 0.537697 0.420790
0.062053 0.537697 0.450852
0.062053 0.537697 0.480913
0.062053 0.537697 0.510975
0.062162 0.537220 0.540556
0.063164 0.533261 0.566274
0.064199 0.529830 0.591958
0.065262 0.526851 0.617613
0.066350 0.524263 0.643244
0.067460 0.522016 0.668853
0.068588 0.520066 0.694443
0.069733 0.518378 0.720017
0.070893 0.516923 0.745576
0.072066 0.515674 0.771122
0.073250 0.514608 0.796656
0.074445 0.513709 0.822180
0.075649 0.512957 0.847695
0.076861 0.512341 0.873201
0.078082 0.511846 0.898700
0.082256 0.511394 0.921244
0.062140 0.572019 0.030106
0.063141 0.567684 0.061160
0.063209 0.567416 0.090927
0.063209 0.567416 0.120625
0.063209 0.567416 0.150323
0.063209 0.567416 0.180021
0.063209 0.567416 0.209719
0.063209 0.567416 0.239418
0.063209 0.567416 0.269116
0.063209 0.567416 0.298814
0.063209 0.567416 0.328512
0.063209 0.567416 0.358210
0.063209 0.567416 0.387908
0.063209 0.567416 0.417606
0.063209 0.567416 0.447304
0.063209 0.567416 0.477002
0.063209 0.567416 0.506700
0.063209 0.567416 0.536398
0.063209 0.567416 0.566096
0.064199 0.563837 0.591958
0.065262 0.560563 0.617613
0.066350 0.557706 0.643244
0.067460 0.555214 0.668853
0.068588 0.553039 0.694443
0.069733 0.551145 0.720017
0.070893 0.549498 0.745576
0.072066 0.548072 0.771122
0.073250 0.546842 0.796656
0.074445 0.545790 0.822180
0.075649 0.544896 0.847695
0.076861 0.544145 0.873201
0.078082 0.543525 0.898700
0.082256 0.542735 0.921244
0.063300 0.601350 0.031650
0.064339 0.597339 0.062379
0.064409 0.597091 0.091827
0.064409 0.597091 0.121202
0.064409 0.597091 0.150578
0.064409 0.597091 0.179954
0.064409 0.597091 0.209330
0.064409 0.597091 0.238706
0.064409 0.597091 0.268082
0.064409 0.597091 0.297457
0.064409 0.597091 0.326833
0.064409 0.597091 0.356209
0.064409 0.597091 0.385585
0.064409 0.597091 0.414961
0.064409 0.597091 0.444337
0.064409 0.597091 0.473712
0.064409 0.597091 0.503088
0.064409 0.597091 0.532464
0.064409 0.597091 0.561840
0.064409 0.597091 0.591216
0.065262 0.594274 0.617613
0.066350 0.591149 0.643244
0.067460 0.588412 0.668853
0.068588 0.586012 0.694443
0.069733 0.583911 0.720017
0.070893 0.582073 0.745576
0.072066 0.580470 0.771122
0.073250 0.579077 0.796656
0.074445 0.577871 0.822180
0.075649 0.576834 0.847695
0.076861 0.575950 0.873201
0.078082 0.575204 0.898700
0.082256 0.574077 0.921244
0.064503 0.630681 0.033194
0.065574 0.626960 0.063634
0.065646 0.626729 0.092795
0.065646 0.626729 0.121884
0.065646 0.626729 0.150972
0.065646 0.626729 0.180061
0.065646 0.626729 0.209149
0.065646 0.626729 0.238237
0.065646 0.626729 0.267326
0.065646 0.626729 0.296414
0.065646 0.626729 0.325502
0.065646 0.626729 0.354591
0.065646 0.626729 0.383679
0.065646 0.626729 0.412768
0.065646 0.626729 0.441856
0.065646 0.626729 0.470944
0.065646 0.626729 0.500033
0.065646 0.626729 0.529121
0.065646 0.626729 0.558209
0.065646 0.626729 0.587298
0.065646 0.626729 0.616386
0.066350 0.624593 0.643244
0.067460 0.621609 0.668853
0.068588 0.618985 0.694443
0.069733 0.616677 0.720017
0.070893 0.614649 0.745576
0.072066 0.612869 0.771122
0.073250 0.611311 0.796656
0.074445 0.609952 0.822180
0.075649 0.608772 0.847695
0.076861 0.607755 0.873201
0.078082 0.606884 0.898700
0.082256 0.605418 0.921244
0.065743 0.660013 0.034737
0.066841 0.656551 0.064918
0.066915 0.656335 0.093823
0.066915 0.656335 0.122654
0.066915 0.656335 0.151484
0.066915 0.656335 0.180314
0.066915 0.656335 0.209145
0.066915 0.656335 0.237975
0.066915 0.656335 0.266805
0.066915 0.656335 0.295636
0.066915 0.656335 0.324466
0.066915 0.656335 0.353296
0.066915 0.656335 0.382127
0.066915 0.656335 0.410957
0.066915 0.656335 0.439787
0.066915 0.656335 0.468618
0.066915 0.656335 0.497448
0.066915 0.656335 0.526278
0.066915 0.656335 0.555109
0.066915 0.656335 0.583939
0.066915 0.656335 0.612769
0.066915 0.656335 0.641600
0.067460 0.654807 0.668853
0.068588 0.651958 0.694443
0.069733 0.649443 0.720017
0.070893 0.647224 0.745576
0.072066 0.645267 0.771122
0.073250 0.643545 0.796656
0.074445 0.642033 0.822180
0.075649 0.640710 0.847695
0.076861 0.639559 0.873201
0.078082 0.638563 0.898700
0.082256 0.636760 0.921244
0.067014 0.689344 0.036281
0.068135 0.686116 0.066227
0.068210 0.685915 0.094901
0.068210 0.685915 0.123499
0.068210 0.685915 0.152096
0.068210 0.685915 0.180693
0.068210 0.685915 0.209291
0.068210 0.685915 0.237888
0.068210 0.685915 0.266486
0.068210 0.685915 0.295083
0.068210 0.685915 0.323681
0.068210 0.685915 0.352278
0.068210 0.685915 0.380875
0.068210 0.685915 0.409473
0.068210 0.685915 0.438070
0.068210 0.685915 0.466668
0.068210 0.685915 0.495265
0.068210 0.685915 0.523863
0.068210 0.685915 0.552460
0.068210 0.685915 0.581058
0.068210 0.685915 0.609655
0.068210 0.685915 0.638252
0.068210 0.685915 0.666850
0.068588 0.684932 0.694443
0.069733 0.682210 0.720017
0.070893 0.679799 0.745576
0.072066 0.677665 0.771122
0.073250 0.675779 0.796656
0.074445 0.674114 0.822180
0.075649 0.672649 0.847695
0.076861 0.671364 0.873201
0.078082 0.670243 0.898700
0.082256 0.668101 0.921244
0.068311 0.718675 0.037825
0.069452 0.715660 0.067559
0.069529 0.715471 0.096022
0.069529 0.715471 0.124408
0.069529 0.715471 0.152795
0.069529 0.715471 0.181181
0.069529 0.715471 0.209567
0.069529 0.715471 0.237953
0.069529 0.715471 0.266339
0.069529 0.715471 0.294725
0.069529 0.715471 0.323112
0.069529 0.715471 0.351498
0.069529 0.715471 0.379884
0.069529 0.715471 0.408270
0.069529 0.715471 0.436656
0.069529 0.715471 0.465042
0.069529 0.715471 0.493429
0.069529 0.715471 0.521815
0.069529 0.715471 0.550201
0.069529 0.715471 0.578587
0.069529 0.715471 0.606973
0.069529 0.715471 0.635359
0.069529 0.715471 0.663746
0.069529 0.715471 0.692132
0.069733 0.714976 0.720017
0.070893 0.712374 0.745576
0.072066 0.710064 0.771122
0.073250 0.708013 0.796656
0.074445 0.706195 0.822180
0.075649 0.704587 0.847695
0.076861 0.703169 0.873201
0.078082 0.701922 0.898700
0.082256 0.699443 0.921244
0.069631 0.748006 0.039369
0.070789 0.745185 0.068909
0.070867 0.745008 0.097181
0.070867 0.745008 0.125375
0.070867 0.745008 0.153568
0.070867 0.745008 0.181762
0.070867 0.745008 0.209956
0.070867 0.745008 0.238149
0.070867 0.745008 0.266343
0.070867 0.745008 0.294536
0.070867 0.745008 0.322730
0.070867 0.745008 0.350924
0.070867 0.745008 0.379117
0.070867 0.745008 0.407311
0.070867 0.745008 0.435505
0.070867 0.745008 0.463698
0.070867 0.745008 0.491892
0.070867 0.745008 0.520086
0.070867 0.745008 0.548279
0.070867 0.745008 0.576473
0.070867 0.745008 0.604666
0.070867 0.745008 0.632860
0.070867 0.745008 0.661054
0.070867 0.745008 0.689247
0.070867 0.745008 0.717441
0.070893 0.744949 0.745576
0.072066 0.742462 0.771122
0.073250 0.740247 0.796656
0.074445 0.738276 0.822180
0.075649 0.736525 0.847695
0.076861 0.734973 0.873201
0.078082 0.733601 0.898700
0.082256 0.730784 0.921244
0.070971 0.777338 0.040913
0.072144 0.774693 0.070276
0.072223 0.774527 0.098372
0.072223 0.774527 0.126390
0.072223 0.774527 0.154407
0.072223 0.774527 0.182425
0.072223 0.774527 0.210442
0.072223 0.774527 0.238460
0.072223 0.774527 0.266477
0.072223 0.774527 0.294495
0.072223 0.774527 0.322512
0.072223 0.774527 0.350530
0.072223 0.774527 0.378547
0.072223 0.774527 0.406565
0.072223 0.774527 0.434582
0.072223 0.774527 0.462599
0.072223 0.774527 0.490617
0.072223 0.774527 0.518634
0.072223 0.774527 0.546652
0.072223 0.774527 0.574669
0.072223 0.774527 0.602687
0.072223 0.774527 0.630704
0.072223 0.774527 0.658722
0.072223 0.774527 0.686739
0.072223 0.774527 0.714757
0.072223 0.774527 0.742774
0.072223 0.774527 0.770792
0.073250 0.772481 0.796656
0.074445 0.770357 0.822180
0.075649 0.768464 0.847695
0.076861 0.766778 0.873201
0.078082 0.765281 0.898700
0.082256 0.762126 0.921244
0.072328 0.806669 0.042456
0.073514 0.804187 0.071657
0.073594 0.804031 0.099593
0.073594 0.804031 0.127448
0.073594 0.804031 0.155304
0.073594 0.804031 0.183160
0.073594 0.804031 0.211015
0.073594 0.804031 0.238871
0.073594 0.804031 0.266726
0.073594 0.804031 0.294582
0.073594 0.804031 0.322438
0.073594 0.804031 0.350293
0.073594 0.804031 0.378149
0.073594 0.804031 0.406005
0.073594 0.804031 0.433860
0.073594 0.804031 0.461716
0.073594 0.804031 0.489572
0.073594 0.804031 0.517427
0.073594 0.804031 0.545283
0.073594 0.804031 0.573139
0.073594 0.804031 0.600994
0.073594 0.804031 0.628850
0.073594 0.804031 0.656706
0.073594 0.804031 0.684561
0.073594 0.804031 0.712417
0.073594 0.804031 0.740273
0.073594 0.804031 0.768128
0.073594 0.804031 0.795984
0.074445 0.802438 0.822180
0.075649 0.800402 0.847695
0.076861 0.798583 0.873201
0.078082 0.796960 0.898700
0.082256 0.793467 0.921244
0.073700 0.836000 0.044000
0.074898 0.833668 0.073051
0.074979 0.833521 0.100838
0.074979 0.833521 0.128545
0.074979 0.833521 0.156251
0.074979 0.833521 0.183958
0.074979 0.833521 0.211664
0.074979 0.833521 0.239371
0.074979 0.833521 0.267077
0.074979 0.833521 0.294784
0.074979 0.833521 0.322490
0.074979 0.833521 0.350197
0.074979 0.833521 0.377903
0.074979 0.833521 0.405610
0.074979 0.833521 0.433316
0.074979 0.833521 0.461023
0.074979 0.833521 0.488729
0.074979 0.833521 0.516436
0.074979 0.833521 0.544142
0.074979 0.833521 0.571849
0.074979 0.833521 0.599555
0.074979 0.833521 0.627262
0.074979 0.833521 0.654968
0.074979 0.833521 0.682675
0.074979 0.833521 0.710381
0.074979 0.833521 0.738088
0.074979 0.833521 0.765794
0.074979 0.833521 0.793501
0.074979 0.833521 0.821207
0.075649 0.832340 0.847695
0.076861 0.830387 0.873201
0.078082 0.828639 0.898700
0.082256 0.824809 0.921244
0.075086 0.865331 0.045544
0.076294 0.863138 0.074456
0.076375 0.863000 0.102106
0.076375 0.863000 0.129675
0.076375 0.863000 0.157243
0.076375 0.863000 0.184812
0.076375 0.863000 0.212380
0.076375 0.863000 0.239949
0.076375 0.863000 0.267518
0.076375 0.863000 0.295086
0.076375 0.863000 0.322655
0.076375 0.863000 0.350224
0.076375 0.863000 0.377792
0.076375 0.863000 0.405361
0.076375 0.863000 0.432929
0.076375 0.863000 0.460498
0.076375 0.863000 0.488067
0.076375 0.863000 0.515635
0.076375 0.863000 0.543204
0.076375 0.863000 0.570772
0.076375 0.863000 0.598341
0.076375 0.863000 0.625910
0.076375 0.863000 0.653478
0.076375 0.863000 0.681047
0.076375 0.863000 0.708615
0.076375 0.863000 0.736184
0.076375 0.863000 0.763753
0.076375 0.863000 0.791321
0.076375 0.863000 0.818890
0.076375 0.863000 0.846459
0.076861 0.862192 0.873201
0.078082 0.860319 0.898700
0.082256 0.856150 0.921244
0.076483 0.894662 0.047088
0.077701 0.892597 0.075871
0.077783 0.892467 0.103394
0.077783 0.892467 0.130835
0.077783 0.892467 0.158275
0.077783 0.892467 0.185716
0.077783 0.892467 0.213157
0.077783 0.892467 0.240598
0.077783 0.892467 0.268038
0.077783 0.892467 0.295479
0.077783 0.892467 0.322920
0.077783 0.892467 0.350361
0.077783 0.892467 0.377801
0.077783 0.892467 0.405242
0.077783 0.892467 0.432683
0.077783 0.892467 0.460123
0.077783 0.892467 0.487564
0.077783 0.892467 0.515005
0.077783 0.892467 0.542446
0.077783 0.892467 0.569886
0.077783 0.892467 0.597327
0.077783 0.892467 0.624768
0.077783 0.892467 0.652209
0.077783 0.892467 0.679649
0.077783 0.892467 0.707090
