src/flutter_app/assets/presets/hdr-pop.cube
# PoseCraft LUT preset
# Generated automatically for Phase 1
TITLE "PoseCraft Preset"
LUT_3D_SIZE 9
DOMAIN_MIN 0.0 0.0 0.0
DOMAIN_MAX 1.0 1.0 1.0
0.000000 0.000000 0.000000
0.000000 0.000000 0.000000
0.000000 0.000000 0.100000
0.000000 0.000000 0.250000
0.000000 0.000000 0.400000
0.000000 0.000000 0.550000
0.000000 0.000000 0.700000
0.000000 0.000000 0.850000
0.000000 0.000000 1.000000
0.000000 0.000000 0.000000
0.000000 0.000000 0.000000
0.000000 0.050000 0.100000
0.000000 0.083333 0.250000
0.000000 0.100000 0.400000
0.000000 0.110000 0.550000
0.000000 0.116667 0.700000
0.000000 0.121429 0.850000
0.000000 0.125000 1.000000
0.000000 0.100000 0.000000
0.000000 0.100000 0.050000
0.000000 0.100000 0.100000
0.000000 0.166667 0.250000
0.000000 0.200000 0.400000
0.000000 0.220000 0.550000
0.000000 0.233333 0.700000
0.000000 0.242857 0.850000
0.000000 0.250000 1.000000
0.000000 0.250000 0.000000
0.000000 0.250000 0.083333
0.000000 0.250000 0.166667
0.000000 0.250000 0.250000
0.000000 0.300000 0.400000
0.000000 0.330000 0.550000
0.000000 0.350000 0.700000
0.000000 0.364286 0.850000
0.000000 0.375000 1.000000
0.000000 0.400000 0.000000
0.000000 0.400000 0.100000
0.000000 0.400000 0.200000
0.000000 0.400000 0.300000
0.000000 0.400000 0.400000
0.000000 0.440000 0.550000
0.000000 0.466667 0.700000
0.000000 0.485714 0.850000
0.000000 0.500000 1.000000
0.000000 0.550000 0.000000
0.000000 0.550000 0.110000
0.000000 0.550000 0.220000
0.000000 0.550000 0.330000
0.000000 0.550000 0.440000
0.000000 0.550000 0.550000
0.000000 0.583333 0.700000
0.000000 0.607143 0.850000
0.000000 0.625000 1.000000
0.000000 0.700000 0.000000
0.000000 0.700000 0.116667
0.000000 0.700000 0.233333
0.000000 0.700000 0.350000
0.000000 0.700000 0.466667
0.000000 0.700000 0.583333
0.000000 0.700000 0.700000
0.000000 0.728571 0.850000
0.000000 0.750000 1.000000
0.000000 0.850000 0.000000
0.000000 0.850000 0.121429
0.000000 0.850000 0.242857
0.000000 0.850000 0.364286
0.000000 0.850000 0.485714
0.000000 0.850000 0.607143
0.000000 0.850000 0.728571
0.000000 0.850000 0.850000
0.000000 0.875000 1.000000
0.000000 1.000000 0.000000
0.000000 1.000000 0.125000
0.000000 1.000000 0.250000
0.000000 1.000000 0.375000
0.000000 1.000000 0.500000
0.000000 1.000000 0.625000
0.000000 1.000000 0.750000
0.000000 1.000000 0.875000
0.000000 1.000000 1.000000
0.000000 0.000000 0.000000
0.000000 0.000000 0.000000
0.050000 0.000000 0.100000
0.083333 0.000000 0.250000
0.100000 0.000000 0.400000
0.110000 0.000000 0.550000
0.116667 0.000000 0.700000
0.121429 0.000000 0.850000
0.125000 0.000000 1.000000
0.000000 0.000000 0.000000
0.050000 0.050000 0.050000
0.072917 0.072917 0.177083
0.075000 0.075000 0.325000
0.068750 0.068750 0.481250
0.058333 0.058333 0.641667
0.045536 0.045536 0.804464
0.031250 0.031250 0.968750
0.150000 0.150000 1.000000
0.050000 0.100000 0.000000
0.072917 0.177083 0.072917
0.072917 0.177083 0.177083
0.075000 0.200000 0.325000
0.068750 0.206250 0.481250
0.058333 0.204167 0.641667
0.045536 0.197321 0.804464
0.031250 0.187500 0.968750
0.150000 0.271429 1.000000
0.083333 0.250000 0.000000
0.075000 0.325000 0.075000
0.075000 0.325000 0.200000
0.075000 0.325000 0.325000
0.068750 0.343750 0.481250
0.058333 0.350000 0.641667
0.045536 0.349107 0.804464
0.031250 0.343750 0.968750
0.150000 0.392857 1.000000
0.100000 0.400000 0.000000
0.068750 0.481250 0.068750
0.068750 0.481250 0.206250
0.068750 0.481250 0.343750
0.068750 0.481250 0.481250
0.058333 0.495833 0.641667
0.045536 0.500893 0.804464
0.031250 0.500000 0.968750
0.150000 0.514286 1.000000
0.110000 0.550000 0.000000
0.058333 0.641667 0.058333
0.058333 0.641667 0.204167
0.058333 0.641667 0.350000
0.058333 0.641667 0.495833
0.058333 0.641667 0.641667
0.045536 0.652679 0.804464
0.031250 0.656250 0.968750
0.150000 0.635714 1.000000
0.116667 0.700000 0.000000
0.045536 0.804464 0.045536
0.045536 0.804464 0.197321
0.045536 0.804464 0.349107
0.045536 0.804464 0.500893
0.045536 0.804464 0.652679
0.045536 0.804464 0.804464
0.031250 0.812500 0.968750
0.150000 0.757143 1.000000
0.121429 0.850000 0.000000
0.031250 0.968750 0.031250
0.031250 0.968750 0.187500
0.031250 0.968750 0.343750
0.031250 0.968750 0.500000
0.031250 0.968750 0.656250
0.031250 0.968750 0.812500
0.031250 0.968750 0.968750
0.150000 0.878571 1.000000
0.125000 1.000000 0.000000
0.150000 1.000000 0.150000
0.150000 1.000000 0.271429
0.150000 1.000000 0.392857
0.150000 1.000000 0.514286
0.150000 1.000000 0.635714
0.150000 1.000000 0.757143
0.150000 1.000000 0.878571
0.150000 1.000000 1.000000
0.100000 0.000000 0.000000
0.100000 0.000000 0.050000
0.100000 0.000000 0.100000
0.166667 0.000000 0.250000
0.200000 0.000000 0.400000
0.220000 0.000000 0.550000
0.233333 0.000000 0.700000
0.242857 0.000000 0.850000
0.250000 0.000000 1.000000
0.100000 0.050000 0.000000
0.177083 0.072917 0.072917
0.177083 0.072917 0.177083
0.200000 0.075000 0.325000
0.206250 0.068750 0.481250
0.204167 0.058333 0.641667
0.197321 0.045536 0.804464
0.187500 0.031250 0.968750
0.271429 0.150000 1.000000
0.100000 0.100000 0.000000
0.177083 0.177083 0.072917
0.200000 0.200000 0.200000
0.206250 0.206250 0.343750
0.204167 0.204167 0.495833
0.197321 0.197321 0.652679
0.187500 0.187500 0.812500
0.195536 0.195536 0.954464
0.300000 0.300000 1.000000
0.166667 0.250000 0.000000
0.200000 0.325000 0.075000
0.206250 0.343750 0.206250
0.206250 0.343750 0.343750
0.204167 0.350000 0.495833
0.197321 0.349107 0.652679
0.187500 0.343750 0.812500
0.195536 0.347321 0.954464
0.300000 0.416667 1.000000
0.200000 0.400000 0.000000
0.206250 0.481250 0.068750
0.204167 0.495833 0.204167
0.204167 0.495833 0.350000
0.204167 0.495833 0.495833
0.197321 0.500893 0.652679
0.187500 0.500000 0.812500
0.195536 0.499107 0.954464
0.300000 0.533333 1.000000
0.220000 0.550000 0.000000
0.204167 0.641667 0.058333
0.197321 0.652679 0.197321
0.197321 0.652679 0.349107
0.197321 0.652679 0.500893
0.197321 0.652679 0.652679
0.187500 0.656250 0.812500
0.195536 0.650893 0.954464
0.300000 0.650000 1.000000
0.233333 0.700000 0.000000
0.197321 0.804464 0.045536
0.187500 0.812500 0.187500
0.187500 0.812500 0.343750
0.187500 0.812500 0.500000
0.187500 0.812500 0.656250
0.187500 0.812500 0.812500
0.195536 0.802679 0.954464
0.300000 0.766667 1.000000
0.242857 0.850000 0.000000
0.187500 0.968750 0.031250
0.195536 0.954464 0.195536
0.195536 0.954464 0.347321
0.195536 0.954464 0.499107
0.195536 0.954464 0.650893
0.195536 0.954464 0.802679
0.195536 0.954464 0.954464
0.300000 0.883333 1.000000
0.250000 1.000000 0.000000
0.271429 1.000000 0.150000
0.300000 1.000000 0.300000
0.300000 1.000000 0.416667
0.300000 1.000000 0.533333
0.300000 1.000000 0.650000
0.300000 1.000000 0.766667
0.300000 1.000000 0.883333
0.300000 1.000000 1.000000
0.250000 0.000000 0.000000
0.250000 0.000000 0.083333
0.250000 0.000000 0.166667
0.250000 0.000000 0.250000
0.300000 0.000000 0.400000
0.330000 0.000000 0.550000
0.350000 0.000000 0.700000
0.364286 0.000000 0.850000
0.375000 0.000000 1.000000
0.250000 0.083333 0.000000
0.325000 0.075000 0.075000
0.325000 0.075000 0.200000
0.325000 0.075000 0.325000
0.343750 0.068750 0.481250
0.350000 0.058333 0.641667
0.349107 0.045536 0.804464
0.343750 0.031250 0.968750
0.392857 0.150000 1.000000
0.250000 0.166667 0.000000
0.325000 0.200000 0.075000
0.343750 0.206250 0.206250
0.343750 0.206250 0.343750
0.350000 0.204167 0.495833
0.349107 0.197321 0.652679
0.343750 0.187500 0.812500
0.347321 0.195536 0.954464
0.416667 0.300000 1.000000
0.250000 0.250000 0.000000
0.325000 0.325000 0.075000
0.343750 0.343750 0.206250
0.350000 0.350000 0.350000
0.349107 0.349107 0.500893
0.343750 0.343750 0.656250
0.347321 0.347321 0.802679
0.358333 0.358333 0.941667
0.450000 0.450000 1.000000
0.300000 0.400000 0.000000
0.343750 0.481250 0.068750
0.350000 0.495833 0.204167
0.349107 0.500893 0.349107
0.349107 0.500893 0.500893
0.343750 0.500000 0.656250
0.347321 0.499107 0.802679
0.358333 0.504167 0.941667
0.450000 0.560000 1.000000
0.330000 0.550000 0.000000
0.350000 0.641667 0.058333
0.349107 0.652679 0.197321
0.343750 0.656250 0.343750
0.343750 0.656250 0.500000
0.343750 0.656250 0.656250
0.347321 0.650893 0.802679
0.358333 0.650000 0.941667
0.450000 0.670000 1.000000
0.350000 0.700000 0.000000
0.349107 0.804464 0.045536
0.343750 0.812500 0.187500
0.347321 0.802679 0.347321
0.347321 0.802679 0.499107
0.347321 0.802679 0.650893
0.347321 0.802679 0.802679
0.358333 0.795833 0.941667
0.450000 0.780000 1.000000
0.364286 0.850000 0.000000
0.343750 0.968750 0.031250
0.347321 0.954464 0.195536
0.358333 0.941667 0.358333
0.358333 0.941667 0.504167
0.358333 0.941667 0.650000
0.358333 0.941667 0.795833
0.358333 0.941667 0.941667
0.450000 0.890000 1.000000
0.375000 1.000000 0.000000
0.392857 1.000000 0.150000
0.416667 1.000000 0.300000
0.450000 1.000000 0.450000
0.450000 1.000000 0.560000
0.450000 1.000000 0.670000
0.450000 1.000000 0.780000
0.450000 1.000000 0.890000
0.450000 1.000000 1.000000
0.400000 0.000000 0.000000
0.400000 0.000000 0.100000
0.400000 0.000000 0.200000
0.400000 0.000000 0.300000
0.400000 0.000000 0.400000
0.440000 0.000000 0.550000
0.466667 0.000000 0.700000
0.485714 0.000000 0.850000
0.500000 0.000000 1.000000
0.400000 0.100000 0.000000
0.481250 0.068750 0.068750
0.481250 0.068750 0.206250
0.481250 0.068750 0.343750
0.481250 0.068750 0.481250
0.495833 0.058333 0.641667
0.500893 0.045536 0.804464
0.500000 0.031250 0.968750
0.514286 0.150000 1.000000
0.400000 0.200000 0.000000
0.481250 0.206250 0.068750
0.495833 0.204167 0.204167
0.495833 0.204167 0.350000
0.495833 0.204167 0.495833
0.500893 0.197321 0.652679
0.500000 0.187500 0.812500
0.499107 0.195536 0.954464
0.533333 0.300000 1.000000
0.400000 0.300000 0.000000
0.481250 0.343750 0.068750
0.495833 0.350000 0.204167
0.500893 0.349107 0.349107
0.500893 0.349107 0.500893
0.500000 0.343750 0.656250
0.499107 0.347321 0.802679
0.504167 0.358333 0.941667
0.560000 0.450000 1.000000
0.400000 0.400000 0.000000
0.481250 0.481250 0.068750
0.495833 0.495833 0.204167
0.500893 0.500893 0.349107
0.500000 0.500000 0.500000
0.499107 0.499107 0.650893
0.504167 0.504167 0.795833
0.518750 0.518750 0.931250
0.600000 0.600000 1.000000
0.440000 0.550000 0.000000
0.495833 0.641667 0.058333
0.500893 0.652679 0.197321
0.500000 0.656250 0.343750
0.499107 0.650893 0.499107
0.499107 0.650893 0.650893
0.504167 0.650000 0.795833
0.518750 0.656250 0.931250
0.600000 0.700000 1.000000
0.466667 0.700000 0.000000
0.500893 0.804464 0.045536
0.500000 0.812500 0.187500
0.499107 0.802679 0.347321
0.504167 0.795833 0.504167
0.504167 0.795833 0.650000
0.504167 0.795833 0.795833
0.518750 0.793750 0.931250
0.600000 0.800000 1.000000
0.485714 0.850000 0.000000
0.500000 0.968750 0.031250
0.499107 0.954464 0.195536
0.504167 0.941667 0.358333
0.518750 0.931250 0.518750
0.518750 0.931250 0.656250
0.518750 0.931250 0.793750
0.518750 0.931250 0.931250
0.600000 0.900000 1.000000
0.500000 1.000000 0.000000
0.514286 1.000000 0.150000
0.533333 1.000000 0.300000
0.560000 1.000000 0.450000
0.600000 1.000000 0.600000
0.600000 1.000000 0.700000
0.600000 1.000000 0.800000
0.600000 1.000000 0.900000
0.600000 1.000000 1.000000
0.550000 0.000000 0.000000
0.550000 0.000000 0.110000
0.550000 0.000000 0.220000
0.550000 0.000000 0.330000
0.550000 0.000000 0.440000
0.550000 0.000000 0.550000
0.583333 0.000000 0.700000
0.607143 0.000000 0.850000
0.625000 0.000000 1.000000
0.550000 0.110000 0.000000
0.641667 0.058333 0.058333
0.641667 0.058333 0.204167
0.641667 0.058333 0.350000
0.641667 0.058333 0.495833
0.641667 0.058333 0.641667
0.652679 0.045536 0.804464
0.656250 0.031250 0.968750
0.635714 0.150000 1.000000
0.550000 0.220000 0.000000
0.641667 0.204167 0.058333
0.652679 0.197321 0.197321
0.652679 0.197321 0.349107
0.652679 0.197321 0.500893
0.652679 0.197321 0.652679
0.656250 0.187500 0.812500
0.650893 0.195536 0.954464
0.650000 0.300000 1.000000
0.550000 0.330000 0.000000
0.641667 0.350000 0.058333
0.652679 0.349107 0.197321
0.656250 0.343750 0.343750
0.656250 0.343750 0.500000
0.656250 0.343750 0.656250
0.650893 0.347321 0.802679
0.650000 0.358333 0.941667
0.670000 0.450000 1.000000
0.550000 0.440000 0.000000
0.641667 0.495833 0.058333
0.652679 0.500893 0.197321
0.656250 0.500000 0.343750
0.650893 0.499107 0.499107
0.650893 0.499107 0.650893
0.650000 0.504167 0.795833
0.656250 0.518750 0.931250
0.700000 0.600000 1.000000
0.550000 0.550000 0.000000
0.641667 0.641667 0.058333
0.652679 0.652679 0.197321
0.656250 0.656250 0.343750
0.650893 0.650893 0.499107
0.650000 0.650000 0.650000
0.656250 0.656250 0.793750
0.675000 0.675000 0.925000
0.750000 0.750000 1.000000
0.583333 0.700000 0.000000
0.652679 0.804464 0.045536
0.656250 0.812500 0.187500
0.650893 0.802679 0.347321
0.650000 0.795833 0.504167
0.656250 0.793750 0.656250
0.656250 0.793750 0.793750
0.675000 0.800000 0.925000
0.750000 0.833333 1.000000
0.607143 0.850000 0.000000
0.656250 0.968750 0.031250
0.650893 0.954464 0.195536
0.650000 0.941667 0.358333
0.656250 0.931250 0.518750
0.675000 0.925000 0.675000
0.675000 0.925000 0.800000
0.675000 0.925000 0.925000
0.750000 0.916667 1.000000
0.625000 1.000000 0.000000
0.635714 1.000000 0.150000
0.650000 1.000000 0.300000
0.670000 1.000000 0.450000
0.700000 1.000000 0.600000
0.750000 1.000000 0.750000
0.750000 1.000000 0.833333
0.750000 1.000000 0.916667
0.750000 1.000000 1.000000
0.700000 0.000000 0.000000
0.700000 0.000000 0.116667
0.700000 0.000000 0.233333
0.700000 0.000000 0.350000
0.700000 0.000000 0.466667
0.700000 0.000000 0.583333
0.700000 0.000000 0.700000
0.728571 0.000000 0.850000
0.750000 0.000000 1.000000
0.700000 0.116667 0.000000
0.804464 0.045536 0.045536
0.804464 0.045536 0.197321
0.804464 0.045536 0.349107
0.804464 0.045536 0.500893
0.804464 0.045536 0.652679
0.804464 0.045536 0.804464
0.812500 0.031250 0.968750
0.757143 0.150000 1.000000
0.700000 0.233333 0.000000
0.804464 0.197321 0.045536
0.812500 0.187500 0.187500
0.812500 0.187500 0.343750
0.812500 0.187500 0.500000
0.812500 0.187500 0.656250
0.812500 0.187500 0.812500
0.802679 0.195536 0.954464
0.766667 0.300000 1.000000
0.700000 0.350000 0.000000
0.804464 0.349107 0.045536
0.812500 0.343750 0.187500
0.802679 0.347321 0.347321
0.802679 0.347321 0.499107
0.802679 0.347321 0.650893
0.802679 0.347321 0.802679
0.795833 0.358333 0.941667
0.780000 0.450000 1.000000
0.700000 0.466667 0.000000
0.804464 0.500893 0.045536
0.812500 0.500000 0.187500
0.802679 0.499107 0.347321
0.795833 0.504167 0.504167
0.795833 0.504167 0.650000
0.795833 0.504167 0.795833
0.793750 0.518750 0.931250
0.800000 0.600000 1.000000
0.700000 0.583333 0.000000
0.804464 0.652679 0.045536
0.812500 0.656250 0.187500
0.802679 0.650893 0.347321
0.795833 0.650000 0.504167
0.793750 0.656250 0.656250
0.793750 0.656250 0.793750
0.800000 0.675000 0.925000
0.833333 0.750000 1.000000
0.700000 0.700000 0.000000
0.804464 0.804464 0.045536
0.812500 0.812500 0.187500
0.802679 0.802679 0.347321
0.795833 0.795833 0.504167
0.793750 0.793750 0.656250
0.800000 0.800000 0.800000
0.822917 0.822917 0.927083
0.900000 0.900000 1.000000
0.728571 0.850000 0.000000
0.812500 0.968750 0.031250
0.802679 0.954464 0.195536
0.795833 0.941667 0.358333
0.793750 0.931250 0.518750
0.800000 0.925000 0.675000
0.822917 0.927083 0.822917
0.822917 0.927083 0.927083
0.900000 0.950000 1.000000
0.750000 1.000000 0.000000
0.757143 1.000000 0.150000
0.766667 1.000000 0.300000
0.780000 1.000000 0.450000
0.800000 1.000000 0.600000
0.833333 1.000000 0.750000
0.900000 1.000000 0.900000
0.900000 1.000000 0.950000
0.900000 1.000000 1.000000
0.850000 0.000000 0.000000
0.850000 0.000000 0.121429
0.850000 0.000000 0.242857
0.850000 0.000000 0.364286
0.850000 0.000000 0.485714
0.850000 0.000000 0.607143
0.850000 0.000000 0.728571
0.850000 0.000000 0.850000
0.875000 0.000000 1.000000
0.850000 0.121429 0.000000
0.968750 0.031250 0.031250
0.968750 0.031250 0.187500
0.968750 0.031250 0.343750
0.968750 0.031250 0.500000
0.968750 0.031250 0.656250
0.968750 0.031250 0.812500
0.968750 0.031250 0.968750
0.878571 0.150000 1.000000
0.850000 0.242857 0.000000
0.968750 0.187500 0.031250
0.954464 0.195536 0.195536
0.954464 0.195536 0.347321
0.954464 0.195536 0.499107
0.954464 0.195536 0.650893
0.954464 0.195536 0.802679
0.954464 0.195536 0.954464
0.883333 0.300000 1.000000
0.850000 0.364286 0.000000
0.968750 0.343750 0.031250
0.954464 0.347321 0.195536
0.941667 0.358333 0.358333
0.941667 0.358333 0.504167
0.941667 0.358333 0.650000
0.941667 0.358333 0.795833
0.941667 0.358333 0.941667
0.890000 0.450000 1.000000
0.850000 0.485714 0.000000
0.968750 0.500000 0.031250
0.954464 0.499107 0.195536
0.941667 0.504167 0.358333
0.931250 0.518750 0.518750
0.931250 0.518750 0.656250
0.931250 0.518750 0.793750
0.931250 0.518750 0.931250
0.900000 0.600000 1.000000
0.850000 0.607143 0.000000
0.968750 0.656250 0.031250
0.954464 0.650893 0.195536
0.941667 0.650000 0.358333
0.931250 0.656250 0.518750
0.925000 0.675000 0.675000
0.925000 0.675000 0.800000
0.925000 0.675000 0.925000
0.916667 0.750000 1.000000
0.850000 0.728571 0.000000
0.968750 0.812500 0.031250
0.954464 0.802679 0.195536
0.941667 0.795833 0.358333
0.931250 0.793750 0.518750
0.925000 0.800000 0.675000
0.927083 0.822917 0.822917
0.927083 0.822917 0.927083
0.950000 0.900000 1.000000
0.850000 0.850000 0.000000
0.968750 0.968750 0.031250
0.954464 0.954464 0.195536
0.941667 0.941667 0.358333
0.931250 0.931250 0.518750
0.925000 0.925000 0.675000
0.927083 0.927083 0.822917
0.950000 0.950000 0.950000
1.000000 1.000000 1.000000
0.875000 1.000000 0.000000
0.878571 1.000000 0.150000
0.883333 1.000000 0.300000
0.890000 1.000000 0.450000
0.900000 1.000000 0.600000
0.916667 1.000000 0.750000
0.950000 1.000000 0.900000
1.000000 1.000000 1.000000
1.000000 1.000000 1.000000
1.000000 0.000000 0.000000
1.000000 0.000000 0.125000
1.000000 0.000000 0.250000
1.000000 0.000000 0.375000
1.000000 0.000000 0.500000
1.000000 0.000000 0.625000
1.000000 0.000000 0.750000
1.000000 0.000000 0.875000
1.000000 0.000000 1.000000
1.000000 0.125000 0.000000
1.000000 0.150000 0.150000
1.000000 0.150000 0.271429
1.000000 0.150000 0.392857
1.000000 0.150000 0.514286
1.000000 0.150000 0.635714
1.000000 0.150000 0.757143
1.000000 0.150000 0.878571
1.000000 0.150000 1.000000
1.000000 0.250000 0.000000
1.000000 0.271429 0.150000
1.000000 0.300000 0.300000
1.000000 0.300000 0.416667
1.000000 0.300000 0.533333
1.000000 0.300000 0.650000
1.000000 0.300000 0.766667
1.000000 0.300000 0.883333
1.000000 0.300000 1.000000
1.000000 0.375000 0.000000
1.000000 0.392857 0.150000
1.000000 0.416667 0.300000
1.000000 0.450000 0.450000
1.000000 0.450000 0.560000
1.000000 0.450000 0.670000
1.000000 0.450000 0.780000
1.000000 0.450000 0.890000
1.000000 0.450000 1.000000
1.000000 0.500000 0.000000
1.000000 0.514286 0.150000
1.000000 0.533333 0.300000
1.000000 0.560000 0.450000
1.000000 0.600000 0.600000
1.000000 0.600000 0.700000
1.000000 0.600000 0.800000
1.000000 0.600000 0.900000
1.000000 0.600000 1.000000
1.000000 0.625000 0.000000
1.000000 0.635714 0.150000
1.000000 0.650000 0.300000
1.000000 0.670000 0.450000
1.000000 0.700000 0.600000
1.000000 0.750000 0.750000
1.000000 0.750000 0.833333
1.000000 0.750000 0.916667
1.000000 0.750000 1.000000
1.000000 0.750000 0.000000
1.000000 0.757143 0.150000
1.000000 0.766667 0.300000
1.000000 0.780000 0.450000
1.000000 0.800000 0.600000
1.000000 0.833333 0.750000
1.000000 0.900000 0.900000
1.000000 0.900000 0.950000
1.000000 0.900000 1.000000
1.000000 0.875000 0.000000
1.000000 0.878571 0.150000
1.000000 0.883333 0.300000
1.000000 0.890000 0.450000
1.000000 0.900000 0.600000
1.000000 0.916667 0.750000
1.000000 0.950000 0.900000
1.000000 1.000000 1.000000
1.000000 1.000000 1.000000
1.000000 1.000000 0.000000
1.000000 1.000000 0.150000
1.000000 1.000000 0.300000
1.000000 1.000000 0.450000
1.000000 1.000000 0.600000
1.000000 1.000000 0.750000
1.000000 1.000000 0.900000
1.000000 1.000000 1.000000
1.000000 1.000000 1.000000
