src/flutter_app/assets/presets/hdr-pop.cube
# PoseCraft LUT preset
# Generated automatically for Phase 1
TITLE "PoseCraft Preset"
LUT_3D_SIZE 33
DOMAIN_MIN 0.0 0.0 0.0
DOMAIN_MAX 1.0 1.0 1.0
0.000000 0.000000 0.000000
0.000000 0.000000 0.000000
0.000000 0.000000 0.000000
0.000000 0.000000 0.000000
0.000000 0.000000 0.000000
0.000000 0.000000 0.000000
0.000000 0.000000 0.025000
0.000000 0.000000 0.062500
0.000000 0.000000 0.100000
0.000000 0.000000 0.137500
0.000000 0.000000 0.175000
0.000000 0.000000 0.212500
0.000000 0.000000 0.250000
0.000000 0.000000 0.287500
0.000000 0.000000 0.325000
0.000000 0.000000 0.362500
0.000000 0.000000 0.400000
0.000000 0.000000 0.437500
0.000000 0.000000 0.475000
0.000000 0.000000 0.512500
0.000000 0.000000 0.550000
0.000000 0.000000 0.587500
0.000000 0.000000 0.625000
0.000000 0.000000 0.662500
0.000000 0.000000 0.700000
0.000000 0.000000 0.737500
0.000000 0.000000 0.775000
0.000000 0.000000 0.812500
0.000000 0.000000 0.850000
0.000000 0.000000 0.887500
0.000000 0.000000 0.925000
0.000000 0.000000 0.962500
0.000000 0.000000 1.000000
0.000000 0.000000 0.000000
0.000000 0.000000 0.000000
0.000000 0.000000 0.000000
0.000000 0.000000 0.000000
0.000000 0.000000 0.000000
0.000000 0.000000 0.000000
0.000000 0.004167 0.025000
0.000000 0.008929 0.062500
0.000000 0.012500 0.100000
0.000000 0.015278 0.137500
0.000000 0.017500 0.175000
0.000000 0.019318 0.212500
0.000000 0.020833 0.250000
0.000000 0.022115 0.287500
0.000000 0.023214 0.325000
0.000000 0.024167 0.362500
0.000000 0.025000 0.400000
0.000000 0.025735 0.437500
0.000000 0.026389 0.475000
0.000000 0.026974 0.512500
0.000000 0.027500 0.550000
0.000000 0.027976 0.587500
0.000000 0.028409 0.625000
0.000000 0.028804 0.662500
0.000000 0.029167 0.700000
0.000000 0.029500 0.737500
0.000000 0.029808 0.775000
0.000000 0.030093 0.812500
0.000000 0.030357 0.850000
0.000000 0.030603 0.887500
0.000000 0.030833 0.925000
0.000000 0.031048 0.962500
0.000000 0.031250 1.000000
0.000000 0.000000 0.000000
0.000000 0.000000 0.000000
0.000000 0.000000 0.000000
0.000000 0.000000 0.000000
0.000000 0.000000 0.000000
0.000000 0.000000 0.000000
0.000000 0.008333 0.025000
0.000000 0.017857 0.062500
0.000000 0.025000 0.100000
0.000000 0.030556 0.137500
0.000000 0.035000 0.175000
0.000000 0.038636 0.212500
0.000000 0.041667 0.250000
0.000000 0.044231 0.287500
0.000000 0.046429 0.325000
0.000000 0.048333 0.362500
0.000000 0.050000 0.400000
0.000000 0.051471 0.437500
0.000000 0.052778 0.475000
0.000000 0.053947 0.512500
0.000000 0.055000 0.550000
0.000000 0.055952 0.587500
0.000000 0.056818 0.625000
0.000000 0.057609 0.662500
0.000000 0.058333 0.700000
0.000000 0.059000 0.737500
0.000000 0.059615 0.775000
0.000000 0.060185 0.812500
0.000000 0.060714 0.850000
0.000000 0.061207 0.887500
0.000000 0.061667 0.925000
0.000000 0.062097 0.962500
0.000000 0.062500 1.000000
0.000000 0.000000 0.000000
0.000000 0.000000 0.000000
0.000000 0.000000 0.000000
0.000000 0.000000 0.000000
0.000000 0.000000 0.000000
0.000000 0.000000 0.000000
0.000000 0.012500 0.025000
0.000000 0.026786 0.062500
0.000000 0.037500 0.100000
0.000000 0.045833 0.137500
0.000000 0.052500 0.175000
0.000000 0.057955 0.212500
0.000000 0.062500 0.250000
0.000000 0.066346 0.287500
0.000000 0.069643 0.325000
0.000000 0.072500 0.362500
0.000000 0.075000 0.400000
0.000000 0.077206 0.437500
0.000000 0.079167 0.475000
0.000000 0.080921 0.512500
0.000000 0.082500 0.550000
0.000000 0.083929 0.587500
0.000000 0.085227 0.625000
0.000000 0.086413 0.662500
0.000000 0.087500 0.700000
0.000000 0.088500 0.737500
0.000000 0.089423 0.775000
0.000000 0.090278 0.812500
0.000000 0.091071 0.850000
0.000000 0.091810 0.887500
0.000000 0.092500 0.925000
0.000000 0.093145 0.962500
0.000000 0.093750 1.000000
0.000000 0.000000 0.000000
0.000000 0.000000 0.000000
0.000000 0.000000 0.000000
0.000000 0.000000 0.000000
0.000000 0.000000 0.000000
0.000000 0.000000 0.000000
0.000000 0.016667 0.025000
0.000000 0.035714 0.062500
0.000000 0.050000 0.100000
0.000000 0.061111 0.137500
0.000000 0.070000 0.175000
0.000000 0.077273 0.212500
0.000000 0.083333 0.250000
0.000000 0.088462 0.287500
0.000000 0.092857 0.325000
0.000000 0.096667 0.362500
0.000000 0.100000 0.400000
0.000000 0.102941 0.437500
0.000000 0.105556 0.475000
0.000000 0.107895 0.512500
0.000000 0.110000 0.550000
0.000000 0.111905 0.587500
0.000000 0.113636 0.625000
0.000000 0.115217 0.662500
0.000000 0.116667 0.700000
0.000000 0.118000 0.737500
0.000000 0.119231 0.775000
0.000000 0.120370 0.812500
0.000000 0.121429 0.850000
0.000000 0.122414 0.887500
0.000000 0.123333 0.925000
0.000000 0.124194 0.962500
0.000000 0.125000 1.000000
0.000000 0.000000 0.000000
0.000000 0.000000 0.000000
0.000000 0.000000 0.000000
0.000000 0.000000 0.000000
0.000000 0.000000 0.000000
0.000000 0.000000 0.000000
0.000000 0.020833 0.025000
0.000000 0.044643 0.062500
0.000000 0.062500 0.100000
0.000000 0.076389 0.137500
0.000000 0.087500 0.175000
0.000000 0.096591 0.212500
0.000000 0.104167 0.250000
0.000000 0.110577 0.287500
0.000000 0.116071 0.325000
0.000000 0.120833 0.362500
0.000000 0.125000 0.400000
0.000000 0.128676 0.437500
0.000000 0.131944 0.475000
0.000000 0.134868 0.512500
0.000000 0.137500 0.550000
0.000000 0.139881 0.587500
0.000000 0.142045 0.625000
0.000000 0.144022 0.662500
0.000000 0.145833 0.700000
0.000000 0.147500 0.737500
0.000000 0.149038 0.775000
0.000000 0.150463 0.812500
0.000000 0.151786 0.850000
0.000000 0.153017 0.887500
0.000000 0.154167 0.925000
0.000000 0.155242 0.962500
0.000000 0.156250 1.000000
0.000000 0.025000 0.000000
0.000000 0.025000 0.004167
0.000000 0.025000 0.008333
0.000000 0.025000 0.012500
0.000000 0.025000 0.016667
0.000000 0.025000 0.020833
0.000000 0.025000 0.025000
0.000000 0.053571 0.062500
0.000000 0.075000 0.100000
0.000000 0.091667 0.137500
0.000000 0.105000 0.175000
0.000000 0.115909 0.212500
0.000000 0.125000 0.250000
0.000000 0.132692 0.287500
0.000000 0.139286 0.325000
0.000000 0.145000 0.362500
0.000000 0.150000 0.400000
0.000000 0.154412 0.437500
0.000000 0.158333 0.475000
0.000000 0.161842 0.512500
0.000000 0.165000 0.550000
0.000000 0.167857 0.587500
0.000000 0.170455 0.625000
0.000000 0.172826 0.662500
0.000000 0.175000 0.700000
0.000000 0.177000 0.737500
0.000000 0.178846 0.775000
0.000000 0.180556 0.812500
0.000000 0.182143 0.850000
0.000000 0.183621 0.887500
0.000000 0.185000 0.925000
0.000000 0.186290 0.962500
0.000000 0.187500 1.000000
0.000000 0.062500 0.000000
0.000000 0.062500 0.008929
0.000000 0.062500 0.017857
0.000000 0.062500 0.026786
0.000000 0.062500 0.035714
0.000000 0.062500 0.044643
0.000000 0.062500 0.053571
0.000000 0.062500 0.062500
0.000000 0.087500 0.100000
0.000000 0.106944 0.137500
0.000000 0.122500 0.175000
0.000000 0.135227 0.212500
0.000000 0.145833 0.250000
0.000000 0.154808 0.287500
0.000000 0.162500 0.325000
0.000000 0.169167 0.362500
0.000000 0.175000 0.400000
0.000000 0.180147 0.437500
0.000000 0.184722 0.475000
0.000000 0.188816 0.512500
0.000000 0.192500 0.550000
0.000000 0.195833 0.587500
0.000000 0.198864 0.625000
0.000000 0.201630 0.662500
0.000000 0.204167 0.700000
0.000000 0.206500 0.737500
0.000000 0.208654 0.775000
0.000000 0.210648 0.812500
0.000000 0.212500 0.850000
0.000000 0.214224 0.887500
0.000000 0.215833 0.925000
0.000000 0.217339 0.962500
0.000000 0.218750 1.000000
0.000000 0.100000 0.000000
0.000000 0.100000 0.012500
0.000000 0.100000 0.025000
0.000000 0.100000 0.037500
0.000000 0.100000 0.050000
0.000000 0.100000 0.062500
0.000000 0.100000 0.075000
0.000000 0.100000 0.087500
0.000000 0.100000 0.100000
0.000000 0.122222 0.137500
0.000000 0.140000 0.175000
0.000000 0.154545 0.212500
0.000000 0.166667 0.250000
0.000000 0.176923 0.287500
0.000000 0.185714 0.325000
0.000000 0.193333 0.362500
0.000000 0.200000 0.400000
0.000000 0.205882 0.437500
0.000000 0.211111 0.475000
0.000000 0.215789 0.512500
0.000000 0.220000 0.550000
0.000000 0.223810 0.587500
0.000000 0.227273 0.625000
0.000000 0.230435 0.662500
0.000000 0.233333 0.700000
0.000000 0.236000 0.737500
0.000000 0.238462 0.775000
0.000000 0.240741 0.812500
0.000000 0.242857 0.850000
0.000000 0.244828 0.887500
0.000000 0.246667 0.925000
0.000000 0.248387 0.962500
0.000000 0.250000 1.000000
0.000000 0.137500 0.000000
0.000000 0.137500 0.015278
0.000000 0.137500 0.030556
0.000000 0.137500 0.045833
0.000000 0.137500 0.061111
0.000000 0.137500 0.076389
0.000000 0.137500 0.091667
0.000000 0.137500 0.106944
0.000000 0.137500 0.122222
0.000000 0.137500 0.137500
0.000000 0.157500 0.175000
0.000000 0.173864 0.212500
0.000000 0.187500 0.250000
0.000000 0.199038 0.287500
0.000000 0.208929 0.325000
0.000000 0.217500 0.362500
0.000000 0.225000 0.400000
0.000000 0.231618 0.437500
0.000000 0.237500 0.475000
0.000000 0.242763 0.512500
0.000000 0.247500 0.550000
0.000000 0.251786 0.587500
0.000000 0.255682 0.625000
0.000000 0.259239 0.662500
0.000000 0.262500 0.700000
0.000000 0.265500 0.737500
0.000000 0.268269 0.775000
0.000000 0.270833 0.812500
0.000000 0.273214 0.850000
0.000000 0.275431 0.887500
0.000000 0.277500 0.925000
0.000000 0.279435 0.962500
0.000000 0.281250 1.000000
0.000000 0.175000 0.000000
0.000000 0.175000 0.017500
0.000000 0.175000 0.035000
0.000000 0.175000 0.052500
0.000000 0.175000 0.070000
0.000000 0.175000 0.087500
0.000000 0.175000 0.105000
0.000000 0.175000 0.122500
0.000000 0.175000 0.140000
0.000000 0.175000 0.157500
0.000000 0.175000 0.175000
0.000000 0.193182 0.212500
0.000000 0.208333 0.250000
0.000000 0.221154 0.287500
0.000000 0.232143 0.325000
0.000000 0.241667 0.362500
0.000000 0.250000 0.400000
0.000000 0.257353 0.437500
0.000000 0.263889 0.475000
0.000000 0.269737 0.512500
0.000000 0.275000 0.550000
0.000000 0.279762 0.587500
0.000000 0.284091 0.625000
0.000000 0.288043 0.662500
0.000000 0.291667 0.700000
0.000000 0.295000 0.737500
0.000000 0.298077 0.775000
0.000000 0.300926 0.812500
0.000000 0.303571 0.850000
0.000000 0.306034 0.887500
0.000000 0.308333 0.925000
0.000000 0.310484 0.962500
0.000000 0.312500 1.000000
0.000000 0.212500 0.000000
0.000000 0.212500 0.019318
0.000000 0.212500 0.038636
0.000000 0.212500 0.057955
0.000000 0.212500 0.077273
0.000000 0.212500 0.096591
0.000000 0.212500 0.115909
0.000000 0.212500 0.135227
0.000000 0.212500 0.154545
0.000000 0.212500 0.173864
0.000000 0.212500 0.193182
0.000000 0.212500 0.212500
0.000000 0.229167 0.250000
0.000000 0.243269 0.287500
0.000000 0.255357 0.325000
0.000000 0.265833 0.362500
0.000000 0.275000 0.400000
0.000000 0.283088 0.437500
0.000000 0.290278 0.475000
0.000000 0.296711 0.512500
0.000000 0.302500 0.550000
0.000000 0.307738 0.587500
0.000000 0.312500 0.625000
0.000000 0.316848 0.662500
0.000000 0.320833 0.700000
0.000000 0.324500 0.737500
0.000000 0.327885 0.775000
0.000000 0.331019 0.812500
0.000000 0.333929 0.850000
0.000000 0.336638 0.887500
0.000000 0.339167 0.925000
0.000000 0.341532 0.962500
0.000000 0.343750 1.000000
0.000000 0.250000 0.000000
0.000000 0.250000 0.020833
0.000000 0.250000 0.041667
0.000000 0.250000 0.062500
0.000000 0.250000 0.083333
0.000000 0.250000 0.104167
0.000000 0.250000 0.125000
0.000000 0.250000 0.145833
0.000000 0.250000 0.166667
0.000000 0.250000 0.187500
0.000000 0.250000 0.208333
0.000000 0.250000 0.229167
0.000000 0.250000 0.250000
0.000000 0.265385 0.287500
0.000000 0.278571 0.325000
0.000000 0.290000 0.362500
0.000000 0.300000 0.400000
0.000000 0.308824 0.437500
0.000000 0.316667 0.475000
0.000000 0.323684 0.512500
0.000000 0.330000 0.550000
0.000000 0.335714 0.587500
0.000000 0.340909 0.625000
0.000000 0.345652 0.662500
0.000000 0.350000 0.700000
0.000000 0.354000 0.737500
0.000000 0.357692 0.775000
0.000000 0.361111 0.812500
0.000000 0.364286 0.850000
0.000000 0.367241 0.887500
0.000000 0.370000 0.925000
0.000000 0.372581 0.962500
0.000000 0.375000 1.000000
0.000000 0.287500 0.000000
0.000000 0.287500 0.022115
0.000000 0.287500 0.044231
0.000000 0.287500 0.066346
0.000000 0.287500 0.088462
0.000000 0.287500 0.110577
0.000000 0.287500 0.132692
0.000000 0.287500 0.154808
0.000000 0.287500 0.176923
0.000000 0.287500 0.199038
0.000000 0.287500 0.221154
0.000000 0.287500 0.243269
0.000000 0.287500 0.265385
0.000000 0.287500 0.287500
0.000000 0.301786 0.325000
0.000000 0.314167 0.362500
0.000000 0.325000 0.400000
0.000000 0.334559 0.437500
0.000000 0.343056 0.475000
0.000000 0.350658 0.512500
0.000000 0.357500 0.550000
0.000000 0.363690 0.587500
0.000000 0.369318 0.625000
0.000000 0.374457 0.662500
0.000000 0.379167 0.700000
0.000000 0.383500 0.737500
0.000000 0.387500 0.775000
0.000000 0.391204 0.812500
0.000000 0.394643 0.850000
0.000000 0.397845 0.887500
0.000000 0.400833 0.925000
0.000000 0.403629 0.962500
0.000000 0.406250 1.000000
0.000000 0.325000 0.000000
0.000000 0.325000 0.023214
0.000000 0.325000 0.046429
0.000000 0.325000 0.069643
0.000000 0.325000 0.092857
0.000000 0.325000 0.116071
0.000000 0.325000 0.139286
0.000000 0.325000 0.162500
0.000000 0.325000 0.185714
0.000000 0.325000 0.208929
0.000000 0.325000 0.232143
0.000000 0.325000 0.255357
0.000000 0.325000 0.278571
0.000000 0.325000 0.301786
0.000000 0.325000 0.325000
0.000000 0.338333 0.362500
0.000000 0.350000 0.400000
0.000000 0.360294 0.437500
0.000000 0.369444 0.475000
0.000000 0.377632 0.512500
0.000000 0.385000 0.550000
0.000000 0.391667 0.587500
0.000000 0.397727 0.625000
0.000000 0.403261 0.662500
0.000000 0.408333 0.700000
0.000000 0.413000 0.737500
0.000000 0.417308 0.775000
0.000000 0.421296 0.812500
0.000000 0.425000 0.850000
0.000000 0.428448 0.887500
0.000000 0.431667 0.925000
0.000000 0.434677 0.962500
0.000000 0.437500 1.000000
0.000000 0.362500 0.000000
0.000000 0.362500 0.024167
0.000000 0.362500 0.048333
0.000000 0.362500 0.072500
0.000000 0.362500 0.096667
0.000000 0.362500 0.120833
0.000000 0.362500 0.145000
0.000000 0.362500 0.169167
0.000000 0.362500 0.193333
0.000000 0.362500 0.217500
0.000000 0.362500 0.241667
0.000000 0.362500 0.265833
0.000000 0.362500 0.290000
0.000000 0.362500 0.314167
0.000000 0.362500 0.338333
0.000000 0.362500 0.362500
0.000000 0.375000 0.400000
0.000000 0.386029 0.437500
0.000000 0.395833 0.475000
0.000000 0.404605 0.512500
0.000000 0.412500 0.550000
0.000000 0.419643 0.587500
0.000000 0.426136 0.625000
0.000000 0.432065 0.662500
0.000000 0.437500 0.700000
0.000000 0.442500 0.737500
0.000000 0.447115 0.775000
0.000000 0.451389 0.812500
0.000000 0.455357 0.850000
0.000000 0.459052 0.887500
0.000000 0.462500 0.925000
0.000000 0.465726 0.962500
0.000000 0.468750 1.000000
0.000000 0.400000 0.000000
0.000000 0.400000 0.025000
0.000000 0.400000 0.050000
0.000000 0.400000 0.075000
0.000000 0.400000 0.100000
0.000000 0.400000 0.125000
0.000000 0.400000 0.150000
0.000000 0.400000 0.175000
0.000000 0.400000 0.200000
0.000000 0.400000 0.225000
0.000000 0.400000 0.250000
0.000000 0.400000 0.275000
0.000000 0.400000 0.300000
0.000000 0.400000 0.325000
0.000000 0.400000 0.350000
0.000000 0.400000 0.375000
0.000000 0.400000 0.400000
0.000000 0.411765 0.437500
0.000000 0.422222 0.475000
0.000000 0.431579 0.512500
0.000000 0.440000 0.550000
0.000000 0.447619 0.587500
0.000000 0.454545 0.625000
0.000000 0.460870 0.662500
0.000000 0.466667 0.700000
0.000000 0.472000 0.737500
0.000000 0.476923 0.775000
0.000000 0.481481 0.812500
0.000000 0.485714 0.850000
0.000000 0.489655 0.887500
0.000000 0.493333 0.925000
0.000000 0.496774 0.962500
0.000000 0.500000 1.000000
0.000000 0.437500 0.000000
0.000000 0.437500 0.025735
0.000000 0.437500 0.051471
0.000000 0.437500 0.077206
0.000000 0.437500 0.102941
0.000000 0.437500 0.128676
0.000000 0.437500 0.154412
0.000000 0.437500 0.180147
0.000000 0.437500 0.205882
0.000000 0.437500 0.231618
0.000000 0.437500 0.257353
0.000000 0.437500 0.283088
0.000000 0.437500 0.308824
0.000000 0.437500 0.334559
0.000000 0.437500 0.360294
0.000000 0.437500 0.386029
0.000000 0.437500 0.411765
0.000000 0.437500 0.437500
0.000000 0.448611 0.475000
0.000000 0.458553 0.512500
0.000000 0.467500 0.550000
0.000000 0.475595 0.587500
0.000000 0.482955 0.625000
0.000000 0.489674 0.662500
0.000000 0.495833 0.700000
0.000000 0.501500 0.737500
0.000000 0.506731 0.775000
0.000000 0.511574 0.812500
0.000000 0.516071 0.850000
0.000000 0.520259 0.887500
0.000000 0.524167 0.925000
0.000000 0.527823 0.962500
0.000000 0.531250 1.000000
0.000000 0.475000 0.000000
0.000000 0.475000 0.026389
0.000000 0.475000 0.052778
0.000000 0.475000 0.079167
0.000000 0.475000 0.105556
0.000000 0.475000 0.131944
0.000000 0.475000 0.158333
0.000000 0.475000 0.184722
0.000000 0.475000 0.211111
0.000000 0.475000 0.237500
0.000000 0.475000 0.263889
0.000000 0.475000 0.290278
0.000000 0.475000 0.316667
0.000000 0.475000 0.343056
0.000000 0.475000 0.369444
0.000000 0.475000 0.395833
0.000000 0.475000 0.422222
0.000000 0.475000 0.448611
0.000000 0.475000 0.475000
0.000000 0.485526 0.512500
0.000000 0.495000 0.550000
0.000000 0.503571 0.587500
0.000000 0.511364 0.625000
0.000000 0.518478 0.662500
0.000000 0.525000 0.700000
0.000000 0.531000 0.737500
0.000000 0.536538 0.775000
0.000000 0.541667 0.812500
0.000000 0.546429 0.850000
0.000000 0.550862 0.887500
0.000000 0.555000 0.925000
0.000000 0.558871 0.962500
0.000000 0.562500 1.000000
0.000000 0.512500 0.000000
0.000000 0.512500 0.026974
0.000000 0.512500 0.053947
0.000000 0.512500 0.080921
0.000000 0.512500 0.107895
0.000000 0.512500 0.134868
0.000000 0.512500 0.161842
0.000000 0.512500 0.188816
0.000000 0.512500 0.215789
0.000000 0.512500 0.242763
0.000000 0.512500 0.269737
0.000000 0.512500 0.296711
0.000000 0.512500 0.323684
0.000000 0.512500 0.350658
0.000000 0.512500 0.377632
0.000000 0.512500 0.404605
0.000000 0.512500 0.431579
0.000000 0.512500 0.458553
0.000000 0.512500 0.485526
0.000000 0.512500 0.512500
0.000000 0.522500 0.550000
0.000000 0.531548 0.587500
0.000000 0.539773 0.625000
0.000000 0.547283 0.662500
0.000000 0.554167 0.700000
0.000000 0.560500 0.737500
0.000000 0.566346 0.775000
0.000000 0.571759 0.812500
0.000000 0.576786 0.850000
0.000000 0.581466 0.887500
0.000000 0.585833 0.925000
0.000000 0.589919 0.962500
0.000000 0.593750 1.000000
0.000000 0.550000 0.000000
0.000000 0.550000 0.027500
0.000000 0.550000 0.055000
0.000000 0.550000 0.082500
0.000000 0.550000 0.110000
0.000000 0.550000 0.137500
0.000000 0.550000 0.165000
0.000000 0.550000 0.192500
0.000000 0.550000 0.220000
0.000000 0.550000 0.247500
0.000000 0.550000 0.275000
0.000000 0.550000 0.302500
0.000000 0.550000 0.330000
0.000000 0.550000 0.357500
0.000000 0.550000 0.385000
0.000000 0.550000 0.412500
0.000000 0.550000 0.440000
0.000000 0.550000 0.467500
0.000000 0.550000 0.495000
0.000000 0.550000 0.522500
0.000000 0.550000 0.550000
0.000000 0.559524 0.587500
0.000000 0.568182 0.625000
0.000000 0.576087 0.662500
0.000000 0.583333 0.700000
0.000000 0.590000 0.737500
0.000000 0.596154 0.775000
0.000000 0.601852 0.812500
0.000000 0.607143 0.850000
0.000000 0.612069 0.887500
0.000000 0.616667 0.925000
0.000000 0.620968 0.962500
0.000000 0.625000 1.000000
0.000000 0.587500 0.000000
0.000000 0.587500 0.027976
0.000000 0.587500 0.055952
0.000000 0.587500 0.083929
0.000000 0.587500 0.111905
0.000000 0.587500 0.139881
0.000000 0.587500 0.167857
0.000000 0.587500 0.195833
0.000000 0.587500 0.223810
0.000000 0.587500 0.251786
0.000000 0.587500 0.279762
0.000000 0.587500 0.307738
0.000000 0.587500 0.335714
0.000000 0.587500 0.363690
0.000000 0.587500 0.391667
0.000000 0.587500 0.419643
0.000000 0.587500 0.447619
0.000000 0.587500 0.475595
0.000000 0.587500 0.503571
0.000000 0.587500 0.531548
0.000000 0.587500 0.559524
0.000000 0.587500 0.587500
0.000000 0.596591 0.625000
0.000000 0.604891 0.662500
0.000000 0.612500 0.700000
0.000000 0.619500 0.737500
0.000000 0.625962 0.775000
0.000000 0.631944 0.812500
0.000000 0.637500 0.850000
0.000000 0.642672 0.887500
0.000000 0.647500 0.925000
0.000000 0.652016 0.962500
0.000000 0.656250 1.000000
0.000000 0.625000 0.000000
0.000000 0.625000 0.028409
0.000000 0.625000 0.056818
0.000000 0.625000 0.085227
0.000000 0.625000 0.113636
0.000000 0.625000 0.142045
0.000000 0.625000 0.170455
0.000000 0.625000 0.198864
0.000000 0.625000 0.227273
0.000000 0.625000 0.255682
0.000000 0.625000 0.284091
0.000000 0.625000 0.312500
0.000000 0.625000 0.340909
0.000000 0.625000 0.369318
0.000000 0.625000 0.397727
0.000000 0.625000 0.426136
0.000000 0.625000 0.454545
0.000000 0.625000 0.482955
0.000000 0.625000 0.511364
0.000000 0.625000 0.539773
0.000000 0.625000 0.568182
0.000000 0.625000 0.596591
0.000000 0.625000 0.625000
0.000000 0.633696 0.662500
0.000000 0.641667 0.700000
0.000000 0.649000 0.737500
0.000000 0.655769 0.775000
0.000000 0.662037 0.812500
0.000000 0.667857 0.850000
0.000000 0.673276 0.887500
0.000000 0.678333 0.925000
0.000000 0.683065 0.962500
0.000000 0.687500 1.000000
0.000000 0.662500 0.000000
0.000000 0.662500 0.028804
0.000000 0.662500 0.057609
0.000000 0.662500 0.086413
0.000000 0.662500 0.115217
0.000000 0.662500 0.144022
0.000000 0.662500 0.172826
0.000000 0.662500 0.201630
0.000000 0.662500 0.230435
0.000000 0.662500 0.259239
0.000000 0.662500 0.288043
0.000000 0.662500 0.316848
0.000000 0.662500 0.345652
0.000000 0.662500 0.374457
0.000000 0.662500 0.403261
0.000000 0.662500 0.432065
0.000000 0.662500 0.460870
0.000000 0.662500 0.489674
0.000000 0.662500 0.518478
0.000000 0.662500 0.547283
0.000000 0.662500 0.576087
0.000000 0.662500 0.604891
0.000000 0.662500 0.633696
0.000000 0.662500 0.662500
0.000000 0.670833 0.700000
0.000000 0.678500 0.737500
0.000000 0.685577 0.775000
0.000000 0.692130 0.812500
0.000000 0.698214 0.850000
0.000000 0.703879 0.887500
0.000000 0.709167 0.925000
0.000000 0.714113 0.962500
0.000000 0.718750 1.000000
0.000000 0.700000 0.000000
0.000000 0.700000 0.029167
0.000000 0.700000 0.058333
0.000000 0.700000 0.087500
0.000000 0.700000 0.116667
0.000000 0.700000 0.145833
0.000000 0.700000 0.175000
0.000000 0.700000 0.204167
0.000000 0.700000 0.233333
0.000000 0.700000 0.262500
0.000000 0.700000 0.291667
0.000000 0.700000 0.320833
0.000000 0.700000 0.350000
0.000000 0.700000 0.379167
0.000000 0.700000 0.408333
0.000000 0.700000 0.437500
0.000000 0.700000 0.466667
0.000000 0.700000 0.495833
0.000000 0.700000 0.525000
0.000000 0.700000 0.554167
0.000000 0.700000 0.583333
0.000000 0.700000 0.612500
0.000000 0.700000 0.641667
0.000000 0.700000 0.670833
0.000000 0.700000 0.700000
0.000000 0.708000 0.737500
0.000000 0.715385 0.775000
0.000000 0.722222 0.812500
0.000000 0.728571 0.850000
0.000000 0.734483 0.887500
0.000000 0.740000 0.925000
0.000000 0.745161 0.962500
0.000000 0.750000 1.000000
0.000000 0.737500 0.000000
0.000000 0.737500 0.029500
0.000000 0.737500 0.059000
0.000000 0.737500 0.088500
0.000000 0.737500 0.118000
0.000000 0.737500 0.147500
0.000000 0.737500 0.177000
0.000000 0.737500 0.206500
0.000000 0.737500 0.236000
0.000000 0.737500 0.265500
0.000000 0.737500 0.295000
0.000000 0.737500 0.324500
0.000000 0.737500 0.354000
0.000000 0.737500 0.383500
0.000000 0.737500 0.413000
0.000000 0.737500 0.442500
0.000000 0.737500 0.472000
0.000000 0.737500 0.501500
0.000000 0.737500 0.531000
0.000000 0.737500 0.560500
0.000000 0.737500 0.590000
0.000000 0.737500 0.619500
0.000000 0.737500 0.649000
0.000000 0.737500 0.678500
0.000000 0.737500 0.708000
0.000000 0.737500 0.737500
0.000000 0.745192 0.775000
0.000000 0.752315 0.812500
0.000000 0.758929 0.850000
0.000000 0.765086 0.887500
0.000000 0.770833 0.925000
0.000000 0.776210 0.962500
0.000000 0.781250 1.000000
0.000000 0.775000 0.000000
0.000000 0.775000 0.029808
0.000000 0.775000 0.059615
0.000000 0.775000 0.089423
0.000000 0.775000 0.119231
0.000000 0.775000 0.149038
0.000000 0.775000 0.178846
0.000000 0.775000 0.208654
0.000000 0.775000 0.238462
0.000000 0.775000 0.268269
0.000000 0.775000 0.298077
0.000000 0.775000 0.327885
0.000000 0.775000 0.357692
0.000000 0.775000 0.387500
0.000000 0.775000 0.417308
0.000000 0.775000 0.447115
0.000000 0.775000 0.476923
0.000000 0.775000 0.506731
0.000000 0.775000 0.536538
0.000000 0.775000 0.566346
0.000000 0.775000 0.596154
0.000000 0.775000 0.625962
0.000000 0.775000 0.655769
0.000000 0.775000 0.685577
0.000000 0.775000 0.715385
