src/flutter_app/assets/presets/hdr-pop.cube
# PoseCraft LUT preset
# Generated automatically for Phase 1
TITLE "PoseCraft Preset"
LUT_3D_SIZE 5
DOMAIN_MIN 0.0 0.0 0.0
DOMAIN_MAX 1.0 1.0 1.0
0.000000 0.000000 0.000000
0.000000 0.000000 0.100000
0.000000 0.000000 0.400000
0.000000 0.000000 0.700000
0.000000 0.000000 1.000000
0.000000 0.100000 0.000000
0.000000 0.100000 0.100000
0.000000 0.200000 0.400000
0.000000 0.233333 0.700000
0.000000 0.250000 1.000000
0.000000 0.400000 0.000000
0.000000 0.400000 0.200000
0.000000 0.400000 0.400000
0.000000 0.466667 0.700000
0.000000 0.500000 1.000000
0.000000 0.700000 0.000000
0.000000 0.700000 0.233333
0.000000 0.700000 0.466667
0.000000 0.700000 0.700000
0.000000 0.750000 1.000000
0.000000 1.000000 0.000000
0.000000 1.000000 0.250000
0.000000 1.000000 0.500000
0.000000 1.000000 0.750000
0.000000 1.000000 1.000000
0.100000 0.000000 0.000000
0.100000 0.000000 0.100000
0.200000 0.000000 0.400000
0.233333 0.000000 0.700000
0.250000 0.000000 1.000000
0.100000 0.100000 0.000000
0.200000 0.200000 0.200000
0.204167 0.204167 0.495833
0.187500 0.187500 0.812500
0.300000 0.300000 1.000000
0.200000 0.400000 0.000000
0.204167 0.495833 0.204167
0.204167 0.495833 0.495833
0.187500 0.500000 0.812500
0.300000 0.533333 1.000000
0.233333 0.700000 0.000000
0.187500 0.812500 0.187500
0.187500 0.812500 0.500000
0.187500 0.812500 0.812500
0.300000 0.766667 1.000000
0.250000 1.000000 0.000000
0.300000 1.000000 0.300000
0.300000 1.000000 0.533333
0.300000 1.000000 0.766667
0.300000 1.000000 1.000000
0.400000 0.000000 0.000000
0.400000 0.000000 0.200000
0.400000 0.000000 0.400000
0.466667 0.000000 0.700000
0.500000 0.000000 1.000000
0.400000 0.200000 0.000000
0.495833 0.204167 0.204167
0.495833 0.204167 0.495833
0.500000 0.187500 0.812500
0.533333 0.300000 1.000000
0.400000 0.400000 0.000000
0.495833 0.495833 0.204167
0.500000 0.500000 0.500000
0.504167 0.504167 0.795833
0.600000 0.600000 1.000000
0.466667 0.700000 0.000000
0.500000 0.812500 0.187500
0.504167 0.795833 0.504167
0.504167 0.795833 0.795833
0.600000 0.800000 1.000000
0.500000 1.000000 0.000000
0.533333 1.000000 0.300000
0.600000 1.000000 0.600000
0.600000 1.000000 0.800000
0.600000 1.000000 1.000000
0.700000 0.000000 0.000000
0.700000 0.000000 0.233333
0.700000 0.000000 0.466667
0.700000 0.000000 0.700000
0.750000 0.000000 1.000000
0.700000 0.233333 0.000000
0.812500 0.187500 0.187500
0.812500 0.187500 0.500000
0.812500 0.187500 0.812500
0.766667 0.300000 1.000000
0.700000 0.466667 0.000000
0.812500 0.500000 0.187500
0.795833 0.504167 0.504167
0.795833 0.504167 0.795833
0.800000 0.600000 1.000000
0.700000 0.700000 0.000000
0.812500 0.812500 0.187500
0.795833 0.795833 0.504167
0.800000 0.800000 0.800000
0.900000 0.900000 1.000000
0.750000 1.000000 0.000000
0.766667 1.000000 0.300000
0.800000 1.000000 0.600000
0.900000 1.000000 0.900000
0.900000 1.000000 1.000000
1.000000 0.000000 0.000000
1.000000 0.000000 0.250000
1.000000 0.000000 0.500000
1.000000 0.000000 0.750000
1.000000 0.000000 1.000000
1.000000 0.250000 0.000000
1.000000 0.300000 0.300000
1.000000 0.300000 0.533333
1.000000 0.300000 0.766667
1.000000 0.300000 1.000000
1.000000 0.500000 0.000000
1.000000 0.533333 0.300000
1.000000 0.600000 0.600000
1.000000 0.600000 0.800000
1.000000 0.600000 1.000000
1.000000 0.750000 0.000000
1.000000 0.766667 0.300000
1.000000 0.800000 0.600000
1.000000 0.900000 0.900000
1.000000 0.900000 1.000000
1.000000 1.000000 0.000000
1.000000 1.000000 0.300000
1.000000 1.000000 0.600000
1.000000 1.000000 0.900000
1.000000 1.000000 1.000000
