src/flutter_app/assets/presets/hk-retro.cube
# PoseCraft LUT preset
# Generated automatically for Phase 1
TITLE "PoseCraft Preset"
LUT_3D_SIZE 9
DOMAIN_MIN 0.0 0.0 0.0
DOMAIN_MAX 1.0 1.0 1.0
0.044000 0.042400 0.034000
0.021863 0.041292 0.152044
0.034925 0.065964 0.242888
0.047987 0.090635 0.333731
0.061050 0.115307 0.424575
0.074112 0.139978 0.515419
0.087175 0.164650 0.606262
0.100238 0.189321 0.697106
0.139700 0.233327 0.767550
0.042851 0.189607 0.016894
0.021863 0.189607 0.135826
0.034925 0.200584 0.242888
0.047987 0.213949 0.333731
0.061050 0.232967 0.424575
0.074112 0.254246 0.515419
0.087175 0.276656 0.606262
0.100238 0.299713 0.697106
0.139700 0.336147 0.767550
0.068453 0.302895 0.026988
0.034925 0.302895 0.109030
0.034925 0.302895 0.216979
0.047987 0.337262 0.333731
0.061050 0.350627 0.424575
0.074112 0.368514 0.515419
0.087175 0.388663 0.606262
0.100238 0.410104 0.697106
0.139700 0.438967 0.767550
0.094056 0.416183 0.037081
0.047987 0.416183 0.100367
0.047987 0.416183 0.199250
0.047987 0.416183 0.298133
0.061050 0.468287 0.424575
0.074112 0.482782 0.515419
0.087175 0.500670 0.606262
0.100238 0.520496 0.697106
0.139700 0.541787 0.767550
0.119658 0.529470 0.047175
0.061050 0.529470 0.096237
0.061050 0.529470 0.190587
0.061050 0.529470 0.284937
0.061050 0.529470 0.379287
0.074112 0.597050 0.515419
0.087175 0.612676 0.606262
0.100238 0.630887 0.697106
0.139700 0.644607 0.767550
0.145261 0.642757 0.057269
0.074112 0.642757 0.093921
0.074112 0.642757 0.185551
0.074112 0.642757 0.277181
0.074112 0.642757 0.368811
0.074112 0.642757 0.460441
0.087175 0.724683 0.606262
0.100238 0.741278 0.697106
0.139700 0.747427 0.767550
0.170863 0.756045 0.067362
0.087175 0.756045 0.092511
0.087175 0.756045 0.182328
0.087175 0.756045 0.272145
0.087175 0.756045 0.361961
0.087175 0.756045 0.451778
0.087175 0.756045 0.541594
0.100238 0.851670 0.697106
0.139700 0.850247 0.767550
0.196466 0.869332 0.077456
0.100238 0.869332 0.091620
0.100238 0.869332 0.180141
0.100238 0.869332 0.268663
0.100238 0.869332 0.357184
0.100238 0.869332 0.445705
0.100238 0.869332 0.534227
0.100238 0.869332 0.622748
0.139700 0.953067 0.767550
0.242132 0.957180 0.107950
0.139700 0.957180 0.111248
0.139700 0.957180 0.193698
0.139700 0.957180 0.276148
0.139700 0.957180 0.358598
0.139700 0.957180 0.441048
0.139700 0.957180 0.523498
0.139700 0.957180 0.605948
0.139700 0.957180 0.688398
0.196762 0.021068 0.033112
0.175775 0.021068 0.152044
0.141097 0.033655 0.242888
0.129886 0.046242 0.333731
0.124542 0.058830 0.424575
0.121545 0.071417 0.515419
0.119720 0.084005 0.606262
0.118567 0.096593 0.697106
0.143968 0.134620 0.767550
0.196762 0.169383 0.016894
0.174625 0.168275 0.134937
0.175954 0.184353 0.234848
0.183150 0.204728 0.330225
0.192692 0.226822 0.423789
0.203408 0.249775 0.516446
0.214795 0.273219 0.608585
0.246400 0.311470 0.685100
0.257262 0.334531 0.777644
0.208153 0.302895 0.026988
0.191310 0.292869 0.135965
0.175954 0.292869 0.222982
0.183150 0.322388 0.330225
0.192692 0.341090 0.423789
0.203408 0.361782 0.516446
0.214795 0.383610 0.608585
0.246400 0.414290 0.685100
0.257262 0.437654 0.777644
0.222022 0.416183 0.037081
0.212454 0.411810 0.141525
0.183150 0.411810 0.213231
0.183150 0.411810 0.307581
0.192692 0.455358 0.423789
0.203408 0.473788 0.516446
0.214795 0.494002 0.608585
0.246400 0.517110 0.685100
0.257262 0.540776 0.777644
0.241758 0.529470 0.047175
0.235381 0.528490 0.148899
0.192692 0.528490 0.207542
0.192692 0.528490 0.299172
0.192692 0.528490 0.390802
0.203408 0.585795 0.516446
0.214795 0.604393 0.608585
0.246400 0.619930 0.685100
0.257262 0.643899 0.777644
0.263841 0.642757 0.057269
0.259200 0.644038 0.157179
0.203408 0.644038 0.203884
0.203408 0.644038 0.293700
0.203408 0.644038 0.383517
0.203408 0.644038 0.473334
0.214795 0.714784 0.608585
0.246400 0.722750 0.685100
0.257262 0.747022 0.777644
0.287096 0.756045 0.067362
0.283529 0.758941 0.165978
0.214795 0.758941 0.201386
0.214795 0.758941 0.289908
0.214795 0.758941 0.378429
0.214795 0.758941 0.466951
0.214795 0.758941 0.555472
0.246400 0.825570 0.685100
0.257262 0.850145 0.777644
0.311023 0.869332 0.077456
0.323224 0.854360 0.190400
0.246400 0.854360 0.213486
0.246400 0.854360 0.295936
0.246400 0.854360 0.378386
0.246400 0.854360 0.460836
0.246400 0.854360 0.543286
0.246400 0.854360 0.625736
0.257262 0.953268 0.777644
0.348832 0.957180 0.107950
0.347154 0.969768 0.198794
0.257262 0.969768 0.212025
0.257262 0.969768 0.294717
0.257262 0.969768 0.377410
0.257262 0.969768 0.460103
0.257262 0.969768 0.542796
0.257262 0.969768 0.625489
0.257262 0.969768 0.708182
0.314325 0.033655 0.052895
0.314325 0.033655 0.160846
0.280797 0.033655 0.242888
0.257853 0.046242 0.333731
0.246642 0.058830 0.424575
0.240124 0.071417 0.515419
0.235954 0.084005 0.606262
0.233124 0.096593 0.697106
0.250668 0.134620 0.767550
0.314325 0.135966 0.026988
0.303921 0.169556 0.147831
0.288565 0.169556 0.234848
0.275946 0.176490 0.330225
0.268584 0.185685 0.423789
0.263850 0.196012 0.516446
0.260618 0.206984 0.608585
0.276276 0.237440 0.685100
0.274385 0.247907 0.777644
0.314325 0.270586 0.026988
0.303921 0.278072 0.135965
0.305250 0.294150 0.235875
0.311272 0.313666 0.332159
0.319642 0.334900 0.426629
0.329352 0.357116 0.520063
0.353100 0.389614 0.602650
0.364277 0.412904 0.694951
0.374825 0.435734 0.787738
0.349989 0.416183 0.037081
0.334554 0.411810 0.141525
0.325502 0.414222 0.240529
0.311272 0.414222 0.321163
0.319642 0.446907 0.426629
0.329352 0.467508 0.520063
0.353100 0.492434 0.602650
0.364277 0.516027 0.694951
0.374825 0.539261 0.787738
0.363858 0.529470 0.047175
0.353961 0.528490 0.148899
0.347538 0.532032 0.246996
0.319642 0.532032 0.315256
0.319642 0.532032 0.405073
0.329352 0.577899 0.520063
0.353100 0.595254 0.602650
0.364277 0.619150 0.694951
0.374825 0.642788 0.787738
0.382420 0.642757 0.057269
0.375434 0.644038 0.157179
0.370592 0.648550 0.254499
0.329352 0.648550 0.311153
0.329352 0.648550 0.399674
0.329352 0.648550 0.488196
0.353100 0.698074 0.602650
0.364277 0.722273 0.694951
0.374825 0.746314 0.787738
0.403330 0.756045 0.067362
0.398086 0.758941 0.165978
0.404316 0.751540 0.272850
0.353100 0.751540 0.315724
0.353100 0.751540 0.398174
0.353100 0.751540 0.480624
0.353100 0.751540 0.563074
0.364277 0.825396 0.694951
0.374825 0.849841 0.787738
0.425580 0.869332 0.077456
0.429924 0.854360 0.190400
0.428485 0.866645 0.281487
0.364277 0.866645 0.314564
0.364277 0.866645 0.397257
0.364277 0.866645 0.479949
0.364277 0.866645 0.562642
0.364277 0.866645 0.645335
0.374825 0.953368 0.787738
0.455532 0.957180 0.107950
0.454169 0.969768 0.198794
0.452177 0.982355 0.289637
0.374825 0.982355 0.312882
0.374825 0.982355 0.395899
0.374825 0.982355 0.478916
0.374825 0.982355 0.561932
0.374825 0.982355 0.644949
0.374825 0.982355 0.727966
0.431888 0.046242 0.072679
0.431888 0.046242 0.171563
0.431888 0.046242 0.270446
0.385820 0.046242 0.333731
0.368742 0.058830 0.424575
0.358704 0.071417 0.515419
0.352187 0.084005 0.606262
0.347681 0.096593 0.697106
0.357368 0.134620 0.767550
0.431888 0.125163 0.037081
0.427350 0.176490 0.164169
0.427350 0.176490 0.258519
0.398046 0.176490 0.330225
0.387164 0.185685 0.423789
0.380083 0.196012 0.516446
0.375175 0.206984 0.608585
0.382976 0.237440 0.685100
0.381399 0.247907 0.777644
0.431888 0.248476 0.037081
0.427350 0.265912 0.141525
0.429853 0.299953 0.251524
0.415623 0.299953 0.332159
0.407979 0.308018 0.426629
0.402668 0.317375 0.520063
0.408584 0.340260 0.602650
0.407083 0.351030 0.694951
0.404906 0.361195 0.787738
0.431888 0.371790 0.037081
0.427350 0.383572 0.141525
0.429853 0.400509 0.240529
0.435875 0.420025 0.336812
0.443909 0.441014 0.431542
0.459800 0.467757 0.520200
0.471291 0.491277 0.612258
0.482258 0.514414 0.704721
0.492387 0.536938 0.797831
0.485958 0.529470 0.047175
0.472541 0.528490 0.148899
0.463771 0.532032 0.246996
0.457656 0.538158 0.343021
0.443909 0.538158 0.420919
0.459800 0.570577 0.520200
0.471291 0.594400 0.612258
0.482258 0.617941 0.704721
0.492387 0.641030 0.797831
0.501000 0.642757 0.057269
0.491667 0.644038 0.157179
0.485149 0.648550 0.254499
0.485408 0.648720 0.355300
0.459800 0.648720 0.417962
0.459800 0.648720 0.500412
0.471291 0.697523 0.612258
0.482258 0.721468 0.704721
0.492387 0.745122 0.797831
0.519563 0.756045 0.067362
0.512643 0.758941 0.165978
0.511016 0.751540 0.272850
0.509816 0.763522 0.364179
0.471291 0.763522 0.417103
0.471291 0.763522 0.499796
0.471291 0.763522 0.582489
0.482258 0.824994 0.704721
0.492387 0.849214 0.797831
0.540137 0.869332 0.077456
0.536624 0.854360 0.190400
0.535500 0.866645 0.281487
0.533826 0.878828 0.372654
0.482258 0.878828 0.415823
0.482258 0.878828 0.498840
0.482258 0.878828 0.581856
0.482258 0.878828 0.664873
0.492387 0.953306 0.797831
0.562232 0.957180 0.107950
0.561183 0.969768 0.198794
0.559610 0.982355 0.289637
0.557200 0.994943 0.380481
0.492387 0.994943 0.413869
0.492387 0.994943 0.497339
0.492387 0.994943 0.580809
0.492387 0.994943 0.664279
0.492387 0.994943 0.747749
0.549450 0.058830 0.092463
0.549450 0.058830 0.186813
0.549450 0.058830 0.281163
0.549450 0.058830 0.375513
0.490842 0.058830 0.424575
0.477284 0.071417 0.515419
0.468420 0.084005 0.606262
0.462238 0.096593 0.697106
0.464068 0.134620 0.767550
0.549450 0.120013 0.047175
0.548432 0.185685 0.181886
0.548432 0.185685 0.273516
0.548432 0.185685 0.365146
0.505744 0.185685 0.423789
0.496316 0.196012 0.516446
0.489732 0.206984 0.608585
0.489676 0.237440 0.685100
0.488413 0.247907 0.777644
0.549450 0.237673 0.047175
0.548432 0.258817 0.148899
0.552108 0.308018 0.268552
0.552108 0.308018 0.358368
0.524212 0.308018 0.426629
0.517226 0.317375 0.520063
0.515284 0.340260 0.602650
0.514097 0.351030 0.694951
0.512340 0.361195 0.787738
0.549450 0.355333 0.047175
0.548432 0.373085 0.148899
0.552108 0.393143 0.246996
0.558466 0.427767 0.353643
0.544719 0.427767 0.431542
0.540892 0.443080 0.520200
0.539780 0.454153 0.612258
0.538124 0.464722 0.704721
0.535596 0.474482 0.797831
0.549450 0.472993 0.047175
0.548432 0.487353 0.148899
0.552108 0.505150 0.246996
0.558466 0.524911 0.343021
0.566500 0.545900 0.437750
0.578305 0.569651 0.529565
0.589692 0.593095 0.621704
0.600408 0.616048 0.714361
0.609950 0.638141 0.807925
0.619580 0.642757 0.057269
0.607900 0.644038 0.157179
0.599707 0.648550 0.254499
0.592108 0.648720 0.355300
0.591147 0.660399 0.446872
0.578305 0.660399 0.519642
0.589692 0.696621 0.621704
0.600408 0.720140 0.714361
0.609950 0.743081 0.807925
0.635796 0.756045 0.067362
0.627200 0.758941 0.165978
0.617716 0.751540 0.272850
0.616830 0.763522 0.364179
0.615476 0.775302 0.455671
0.589692 0.775302 0.518764
0.589692 0.775302 0.601780
0.600408 0.824232 0.714361
0.609950 0.848021 0.807925
0.654694 0.869332 0.077456
0.643324 0.854360 0.190400
0.642514 0.866645 0.281487
0.641260 0.878828 0.372654
0.639295 0.890850 0.463951
0.600408 0.890850 0.517372
0.600408 0.890850 0.600842
0.600408 0.890850 0.684312
0.609950 0.952961 0.807925
0.668932 0.957180 0.107950
0.668197 0.969768 0.198794
0.667044 0.982355 0.289637
0.665220 0.994943 0.380481
0.662222 1.007530 0.471325
0.609950 1.007530 0.515083
0.609950 1.007530 0.599233
0.609950 1.007530 0.683383
0.609950 1.007530 0.767533
0.667013 0.071417 0.112247
0.667013 0.071417 0.203877
0.667013 0.071417 0.295507
0.667013 0.071417 0.387137
0.667013 0.071417 0.478767
0.595865 0.071417 0.515419
0.584654 0.084005 0.606262
0.576795 0.096593 0.697106
0.570768 0.134620 0.767550
0.667013 0.117125 0.057269
0.668342 0.196012 0.200291
0.668342 0.196012 0.290108
0.668342 0.196012 0.379924
0.668342 0.196012 0.469741
0.612550 0.196012 0.516446
0.604289 0.206984 0.608585
0.596376 0.237440 0.685100
0.595428 0.247907 0.777644
0.667013 0.231393 0.057269
0.668342 0.254255 0.157179
0.673023 0.317375 0.286367
0.673023 0.317375 0.374888
0.673023 0.317375 0.463410
0.631783 0.317375 0.520063
0.621984 0.340260 0.602650
0.621111 0.351030 0.694951
0.619773 0.361195 0.787738
0.667013 0.345661 0.057269
0.668342 0.366262 0.157179
0.673023 0.388026 0.254499
0.673200 0.443080 0.375088
0.673200 0.443080 0.457538
0.647592 0.443080 0.520200
0.646795 0.454153 0.612258
0.645557 0.464722 0.704721
0.643615 0.474482 0.797831
0.667013 0.459929 0.057269
0.668342 0.478268 0.157179
0.673023 0.498417 0.254499
0.673200 0.521223 0.355300
0.685320 0.557276 0.456795
0.672478 0.557276 0.529565
0.671341 0.568248 0.621704
0.669540 0.578574 0.714361
0.666578 0.587770 0.807925
0.667013 0.574197 0.057269
0.668342 0.590275 0.157179
0.673023 0.608809 0.254499
0.673200 0.624043 0.355300
0.685320 0.648024 0.446872
0.697125 0.671775 0.538687
0.708427 0.695158 0.630891
0.718850 0.717896 0.723775
0.727513 0.739345 0.818019
0.752030 0.756045 0.067362
0.741757 0.758941 0.165978
0.724416 0.751540 0.272850
0.723845 0.763522 0.364179
0.722909 0.775302 0.455671
0.721390 0.786759 0.547421
0.708427 0.786759 0.620875
0.718850 0.822836 0.723775
0.727513 0.845698 0.818019
0.769251 0.869332 0.077456
0.750024 0.854360 0.190400
0.749528 0.866645 0.281487
0.748693 0.878828 0.372654
0.747315 0.890850 0.463951
0.744986 0.902590 0.555475
0.718850 0.902590 0.619429
0.718850 0.902590 0.703579
0.727513 0.952051 0.818019
0.775632 0.957180 0.107950
0.775212 0.969768 0.198794
0.774477 0.982355 0.289637
0.773240 0.994943 0.380481
0.771122 1.007530 0.471325
0.767245 1.020118 0.562169
0.727513 1.020118 0.616750
0.727513 1.020118 0.702033
0.727513 1.020118 0.787317
0.784575 0.084005 0.132030
0.784575 0.084005 0.221847
0.784575 0.084005 0.311664
0.784575 0.084005 0.401481
0.784575 0.084005 0.491297
0.784575 0.084005 0.581114
0.700887 0.084005 0.606262
0.691352 0.096593 0.697106
0.677468 0.134620 0.767550
0.784575 0.115367 0.067362
0.787580 0.206984 0.219091
0.787580 0.206984 0.307612
0.787580 0.206984 0.396133
0.787580 0.206984 0.484655
0.787580 0.206984 0.573176
0.718846 0.206984 0.608585
0.703076 0.237440 0.685100
0.702442 0.247907 0.777644
0.784575 0.227374 0.067362
0.787580 0.251140 0.165978
0.779900 0.340260 0.312426
0.779900 0.340260 0.394876
0.779900 0.340260 0.477326
0.779900 0.340260 0.559776
0.728684 0.340260 0.602650
0.728125 0.351030 0.694951
0.727206 0.361195 0.787738
0.784575 0.339380 0.067362
0.787580 0.361532 0.165978
0.779900 0.393726 0.272850
0.792334 0.454153 0.393949
0.792334 0.454153 0.476642
0.792334 0.454153 0.559335
0.753809 0.454153 0.612258
0.752990 0.464722 0.704721
0.751635 0.474482 0.797831
0.784575 0.451387 0.067362
0.787580 0.471923 0.165978
0.779900 0.496546 0.272850
0.792334 0.520152 0.364179
0.804558 0.568248 0.475595
0.804558 0.568248 0.558612
0.778774 0.568248 0.621704
0.777560 0.578574 0.714361
0.775478 0.587770 0.807925
0.784575 0.563394 0.067362
0.787580 0.582315 0.165978
0.779900 0.599366 0.272850
0.792334 0.623275 0.364179
0.804558 0.646929 0.455671
0.816448 0.682666 0.557438
0.803485 0.682666 0.630891
0.801614 0.692710 0.723775
0.798147 0.701058 0.818019
0.784575 0.675400 0.067362
0.787580 0.692706 0.165978
0.779900 0.702186 0.272850
0.792334 0.726398 0.364179
0.804558 0.750455 0.455671
0.816448 0.774267 0.547421
0.827750 0.797650 0.639625
0.837879 0.820173 0.732735
0.845075 0.840548 0.828113
0.883808 0.869332 0.077456
0.856724 0.854360 0.190400
0.856543 0.866645 0.281487
0.856126 0.878828 0.372654
0.855335 0.890850 0.463951
0.853886 0.902590 0.555475
0.851123 0.913764 0.647452
0.837879 0.913764 0.722501
0.845075 0.949728 0.828113
0.882332 0.957180 0.107950
0.882226 0.969768 0.198794
0.881910 0.982355 0.289637
0.881260 0.994943 0.380481
0.880022 1.007530 0.471325
0.877611 1.020118 0.562169
0.872267 1.032705 0.653012
0.845075 1.032705 0.719550
0.845075 1.032705 0.807100
0.902137 0.096593 0.151814
0.902137 0.096593 0.240336
0.902137 0.096593 0.328857
0.902137 0.096593 0.417379
0.902137 0.096593 0.505900
0.902137 0.096593 0.594421
0.902137 0.096593 0.682943
0.805910 0.096593 0.697106
0.784168 0.134620 0.767550
0.902137 0.114255 0.077456
0.886600 0.237440 0.249764
0.886600 0.237440 0.332214
0.886600 0.237440 0.414664
0.886600 0.237440 0.497114
0.886600 0.237440 0.579564
0.886600 0.237440 0.662014
0.809776 0.237440 0.685100
0.809456 0.247907 0.777644
0.902137 0.224647 0.077456
0.886600 0.266230 0.190400
0.899348 0.351030 0.331102
0.899348 0.351030 0.413795
0.899348 0.351030 0.496488
0.899348 0.351030 0.579181
0.899348 0.351030 0.661874
0.835140 0.351030 0.694951
0.834640 0.361195 0.787738
0.902137 0.335038 0.077456
0.886600 0.369050 0.190400
0.899348 0.392280 0.281487
0.911992 0.464722 0.412502
0.911992 0.464722 0.495519
0.911992 0.464722 0.578536
0.911992 0.464722 0.661552
0.860424 0.464722 0.704721
0.859655 0.474482 0.797831
0.902137 0.445429 0.077456
0.886600 0.471870 0.190400
0.899348 0.495402 0.281487
0.911992 0.518556 0.372654
0.924467 0.578574 0.494000
0.924467 0.578574 0.577470
0.924467 0.578574 0.660940
0.885580 0.578574 0.714361
0.884378 0.587770 0.807925
0.902137 0.555821 0.077456
0.886600 0.574690 0.190400
0.899348 0.598525 0.281487
0.911992 0.622082 0.372654
0.924467 0.645193 0.463951
0.936650 0.692710 0.575671
0.936650 0.692710 0.659821
0.910514 0.692710 0.723775
0.908514 0.701058 0.818019
0.902137 0.666212 0.077456
0.886600 0.677510 0.190400
0.899348 0.701648 0.281487
0.911992 0.725609 0.372654
0.924467 0.749285 0.463951
0.936650 0.772464 0.555475
0.948246 0.807411 0.657686
0.935002 0.807411 0.732735
0.931183 0.814345 0.828113
0.902137 0.776604 0.077456
0.886600 0.780330 0.190400
0.899348 0.804771 0.281487
0.911992 0.829136 0.372654
0.924467 0.853377 0.463951
0.936650 0.877404 0.555475
0.948246 0.901002 0.647452
0.958375 0.923525 0.740562
0.962638 0.941752 0.838206
0.989032 0.957180 0.107950
0.989240 0.969768 0.198794
0.989344 0.982355 0.289637
0.989280 0.994943 0.380481
0.988922 1.007530 0.471325
0.987978 1.020118 0.562169
0.985567 1.032705 0.653012
0.977290 1.045293 0.743856
0.962638 1.045293 0.826884
0.993300 0.134620 0.187102
0.993300 0.134620 0.269552
0.993300 0.134620 0.352002
0.993300 0.134620 0.434452
0.993300 0.134620 0.516902
0.993300 0.134620 0.599352
0.993300 0.134620 0.681802
0.993300 0.134620 0.764252
0.890868 0.134620 0.767550
0.993300 0.138733 0.107950
1.006363 0.247907 0.268256
1.006363 0.247907 0.350949
1.006363 0.247907 0.433641
1.006363 0.247907 0.516334
1.006363 0.247907 0.599027
1.006363 0.247907 0.681720
1.006363 0.247907 0.764413
0.916471 0.247907 0.777644
0.993300 0.241553 0.107950
1.006363 0.264407 0.198794
1.019425 0.361195 0.349409
1.019425 0.361195 0.432426
1.019425 0.361195 0.515443
1.019425 0.361195 0.598460
1.019425 0.361195 0.681476
1.019425 0.361195 0.764493
0.942073 0.361195 0.787738
0.993300 0.344373 0.107950
1.006363 0.367530 0.198794
1.019425 0.390182 0.289637
1.032488 0.474482 0.430563
1.032488 0.474482 0.514033
1.032488 0.474482 0.597503
1.032488 0.474482 0.680973
1.032488 0.474482 0.764443
0.967676 0.474482 0.797831
0.993300 0.447193 0.107950
1.006363 0.470653 0.198794
1.019425 0.493709 0.289637
1.032488 0.516119 0.380481
1.045550 0.587770 0.511717
1.045550 0.587770 0.595867
1.045550 0.587770 0.680017
1.045550 0.587770 0.764167
0.993278 0.587770 0.807925
0.993300 0.550013 0.107950
1.006363 0.573776 0.198794
1.019425 0.597236 0.289637
1.032488 0.620211 0.380481
1.045550 0.642339 0.471325
1.058612 0.701058 0.592871
1.058612 0.701058 0.678154
1.058612 0.701058 0.763437
1.018881 0.701058 0.818019
0.993300 0.652833 0.107950
1.006363 0.676899 0.198794
1.019425 0.700762 0.289637
1.032488 0.724303 0.380481
1.045550 0.747279 0.471325
1.058612 0.769124 0.562169
1.071675 0.814345 0.674024
1.071675 0.814345 0.761575
1.044483 0.814345 0.828113
0.993300 0.755653 0.107950
1.006363 0.780021 0.198794
1.019425 0.804289 0.289637
1.032488 0.828395 0.380481
1.045550 0.852219 0.471325
1.058612 0.875477 0.562169
1.071675 0.897322 0.653012
1.084738 0.927633 0.755178
1.070086 0.927633 0.838206
0.993300 0.858473 0.107950
1.006363 0.883144 0.198794
1.019425 0.907816 0.289637
1.032488 0.932487 0.380481
1.045550 0.957159 0.471325
1.058612 0.981830 0.562169
1.071675 1.006502 0.653012
1.084738 1.031173 0.743856
1.089000 1.049400 0.841500
