src/flutter_app/assets/presets/hk-retro.cube
# PoseCraft LUT preset
# Generated automatically for Phase 1
TITLE "PoseCraft Preset"
LUT_3D_SIZE 5
DOMAIN_MIN 0.0 0.0 0.0
DOMAIN_MAX 1.0 1.0 1.0
0.044000 0.042400 0.034000
0.034925 0.065964 0.242888
0.061050 0.115307 0.424575
0.087175 0.164650 0.606262
0.139700 0.233327 0.767550
0.068453 0.302895 0.026988
0.034925 0.302895 0.216979
0.061050 0.350627 0.424575
0.087175 0.388663 0.606262
0.139700 0.438967 0.767550
0.119658 0.529470 0.047175
0.061050 0.529470 0.190587
0.061050 0.529470 0.379287
0.087175 0.612676 0.606262
0.139700 0.644607 0.767550
0.170863 0.756045 0.067362
0.087175 0.756045 0.182328
0.087175 0.756045 0.361961
0.087175 0.756045 0.541594
0.139700 0.850247 0.767550
0.242132 0.957180 0.107950
0.139700 0.957180 0.193698
0.139700 0.957180 0.358598
0.139700 0.957180 0.523498
0.139700 0.957180 0.688398
0.314325 0.033655 0.052895
0.280797 0.033655 0.242888
0.246642 0.058830 0.424575
0.235954 0.084005 0.606262
0.250668 0.134620 0.767550
0.314325 0.270586 0.026988
0.305250 0.294150 0.235875
0.319642 0.334900 0.426629
0.353100 0.389614 0.602650
0.374825 0.435734 0.787738
0.363858 0.529470 0.047175
0.347538 0.532032 0.246996
0.319642 0.532032 0.405073
0.353100 0.595254 0.602650
0.374825 0.642788 0.787738
0.403330 0.756045 0.067362
0.404316 0.751540 0.272850
0.353100 0.751540 0.398174
0.353100 0.751540 0.563074
0.374825 0.849841 0.787738
0.455532 0.957180 0.107950
0.452177 0.982355 0.289637
0.374825 0.982355 0.395899
0.374825 0.982355 0.561932
0.374825 0.982355 0.727966
0.549450 0.058830 0.092463
0.549450 0.058830 0.281163
0.490842 0.058830 0.424575
0.468420 0.084005 0.606262
0.464068 0.134620 0.767550
0.549450 0.237673 0.047175
0.552108 0.308018 0.268552
0.524212 0.308018 0.426629
0.515284 0.340260 0.602650
0.512340 0.361195 0.787738
0.549450 0.472993 0.047175
0.552108 0.505150 0.246996
0.566500 0.545900 0.437750
0.589692 0.593095 0.621704
0.609950 0.638141 0.807925
0.635796 0.756045 0.067362
0.617716 0.751540 0.272850
0.615476 0.775302 0.455671
0.589692 0.775302 0.601780
0.609950 0.848021 0.807925
0.668932 0.957180 0.107950
0.667044 0.982355 0.289637
0.662222 1.007530 0.471325
0.609950 1.007530 0.599233
0.609950 1.007530 0.767533
0.784575 0.084005 0.132030
0.784575 0.084005 0.311664
0.784575 0.084005 0.491297
0.700887 0.084005 0.606262
0.677468 0.134620 0.767550
0.784575 0.227374 0.067362
0.779900 0.340260 0.312426
0.779900 0.340260 0.477326
0.728684 0.340260 0.602650
0.727206 0.361195 0.787738
0.784575 0.451387 0.067362
0.779900 0.496546 0.272850
0.804558 0.568248 0.475595
0.778774 0.568248 0.621704
0.775478 0.587770 0.807925
0.784575 0.675400 0.067362
0.779900 0.702186 0.272850
0.804558 0.750455 0.455671
0.827750 0.797650 0.639625
0.845075 0.840548 0.828113
0.882332 0.957180 0.107950
0.881910 0.982355 0.289637
0.880022 1.007530 0.471325
0.872267 1.032705 0.653012
0.845075 1.032705 0.807100
0.993300 0.134620 0.187102
0.993300 0.134620 0.352002
0.993300 0.134620 0.516902
0.993300 0.134620 0.681802
0.890868 0.134620 0.767550
0.993300 0.241553 0.107950
1.019425 0.361195 0.349409
1.019425 0.361195 0.515443
1.019425 0.361195 0.681476
0.942073 0.361195 0.787738
0.993300 0.447193 0.107950
1.019425 0.493709 0.289637
1.045550 0.587770 0.511717
1.045550 0.587770 0.680017
0.993278 0.587770 0.807925
0.993300 0.652833 0.107950
1.019425 0.700762 0.289637
1.045550 0.747279 0.471325
1.071675 0.814345 0.674024
1.044483 0.814345 0.828113
0.993300 0.858473 0.107950
1.019425 0.907816 0.289637
1.045550 0.957159 0.471325
1.071675 1.006502 0.653012
1.089000 1.049400 0.841500
