src/flutter_app/assets/presets/hk-retro.cube
# PoseCraft LUT preset
# Generated automatically for Phase 1
TITLE "PoseCraft Preset"
LUT_3D_SIZE 33
DOMAIN_MIN 0.0 0.0 0.0
DOMAIN_MAX 1.0 1.0 1.0
0.044000 0.042400 0.034000
0.012066 0.022789 0.083911
0.015331 0.028957 0.106622
0.018597 0.035124 0.129333
0.021863 0.041292 0.152044
0.025128 0.047460 0.174755
0.028394 0.053628 0.197466
0.031659 0.059796 0.220177
0.034925 0.065964 0.242888
0.038191 0.072132 0.265598
0.041456 0.078300 0.288309
0.044722 0.084467 0.311020
0.047987 0.090635 0.333731
0.051253 0.096803 0.356442
0.054519 0.102971 0.379153
0.057784 0.109139 0.401864
0.061050 0.115307 0.424575
0.064316 0.121475 0.447286
0.067581 0.127643 0.469997
0.070847 0.133810 0.492708
0.074112 0.139978 0.515419
0.077378 0.146146 0.538130
0.080644 0.152314 0.560841
0.083909 0.158482 0.583552
0.087175 0.164650 0.606262
0.090441 0.170818 0.628973
0.093706 0.176986 0.651684
0.096972 0.183153 0.674395
0.100238 0.189321 0.697106
0.103503 0.195489 0.719817
0.106769 0.201657 0.742528
0.110309 0.208026 0.765027
0.139700 0.233327 0.767550
0.023649 0.104642 0.009323
0.012066 0.104642 0.074960
0.015331 0.088052 0.106622
0.018597 0.082913 0.129333
0.021863 0.083427 0.152044
0.025128 0.086203 0.174755
0.028394 0.090110 0.197466
0.031659 0.094662 0.220177
0.034925 0.099619 0.242888
0.038191 0.104844 0.265598
0.041456 0.110259 0.288309
0.044722 0.115810 0.311020
0.047987 0.121464 0.333731
0.051253 0.127197 0.356442
0.054519 0.132992 0.379153
0.057784 0.138837 0.401864
0.061050 0.144722 0.424575
0.064316 0.150640 0.447286
0.067581 0.156586 0.469997
0.070847 0.162556 0.492708
0.074112 0.168545 0.515419
0.077378 0.174552 0.538130
0.080644 0.180573 0.560841
0.083909 0.186606 0.583552
0.087175 0.192651 0.606262
0.090441 0.198706 0.628973
0.093706 0.204770 0.651684
0.096972 0.210841 0.674395
0.100238 0.216919 0.697106
0.103503 0.223003 0.719817
0.106769 0.229093 0.742528
0.110309 0.235373 0.765027
0.139700 0.259032 0.767550
0.030049 0.132964 0.011847
0.015331 0.132964 0.047861
0.015331 0.132964 0.095249
0.018597 0.130701 0.129333
0.021863 0.125562 0.152044
0.025128 0.124946 0.174755
0.028394 0.126591 0.197466
0.031659 0.129529 0.220177
0.034925 0.133274 0.242888
0.038191 0.137557 0.265598
0.041456 0.142218 0.288309
0.044722 0.147152 0.311020
0.047987 0.152292 0.333731
0.051253 0.157590 0.356442
0.054519 0.163012 0.379153
0.057784 0.168534 0.401864
0.061050 0.174137 0.424575
0.064316 0.179806 0.447286
0.067581 0.185530 0.469997
0.070847 0.191301 0.492708
0.074112 0.197112 0.515419
0.077378 0.202957 0.538130
0.080644 0.208831 0.560841
0.083909 0.214731 0.583552
0.087175 0.220653 0.606262
0.090441 0.226595 0.628973
0.093706 0.232554 0.651684
0.096972 0.238529 0.674395
0.100238 0.244517 0.697106
0.103503 0.250518 0.719817
0.106769 0.256530 0.742528
0.110309 0.262719 0.765027
0.139700 0.284737 0.767550
0.036450 0.161286 0.014370
0.018597 0.161286 0.038896
0.018597 0.161286 0.077216
0.018597 0.161286 0.115537
0.021863 0.167697 0.152044
0.025128 0.163689 0.174755
0.028394 0.163073 0.197466
0.031659 0.164395 0.220177
0.034925 0.166929 0.242888
0.038191 0.170270 0.265598
0.041456 0.174177 0.288309
0.044722 0.178494 0.311020
0.047987 0.183120 0.333731
0.051253 0.187984 0.356442
0.054519 0.193033 0.379153
0.057784 0.198232 0.401864
0.061050 0.203552 0.424575
0.064316 0.208971 0.447286
0.067581 0.214474 0.469997
0.070847 0.220047 0.492708
0.074112 0.225679 0.515419
0.077378 0.231363 0.538130
0.080644 0.237090 0.560841
0.083909 0.242856 0.583552
0.087175 0.248655 0.606262
0.090441 0.254483 0.628973
0.093706 0.260338 0.651684
0.096972 0.266216 0.674395
0.100238 0.272115 0.697106
0.103503 0.278032 0.719817
0.106769 0.283966 0.742528
0.110309 0.290065 0.765027
0.139700 0.310442 0.767550
0.042851 0.189607 0.016894
0.021863 0.189607 0.034463
0.021863 0.189607 0.068251
0.021863 0.189607 0.102038
0.021863 0.189607 0.135826
0.025128 0.202432 0.174755
0.028394 0.199555 0.197466
0.031659 0.199262 0.220177
0.034925 0.200584 0.242888
0.038191 0.202983 0.265598
0.041456 0.206136 0.288309
0.044722 0.209837 0.311020
0.047987 0.213949 0.333731
0.051253 0.218377 0.356442
0.054519 0.223054 0.379153
0.057784 0.227930 0.401864
0.061050 0.232967 0.424575
0.064316 0.238137 0.447286
0.067581 0.243418 0.469997
0.070847 0.248793 0.492708
0.074112 0.254246 0.515419
0.077378 0.259768 0.538130
0.080644 0.265349 0.560841
0.083909 0.270980 0.583552
0.087175 0.276656 0.606262
0.090441 0.282372 0.628973
0.093706 0.288122 0.651684
0.096972 0.293904 0.674395
0.100238 0.299713 0.697106
0.103503 0.305546 0.719817
0.106769 0.311402 0.742528
0.110309 0.317411 0.765027
0.139700 0.336147 0.767550
0.049251 0.217929 0.019417
0.025128 0.217929 0.031844
0.025128 0.217929 0.062912
0.025128 0.217929 0.093979
0.025128 0.217929 0.125047
0.025128 0.217929 0.156114
0.028394 0.236036 0.197466
0.031659 0.234128 0.220177
0.034925 0.234239 0.242888
0.038191 0.235696 0.265598
0.041456 0.238095 0.288309
0.044722 0.241179 0.311020
0.047987 0.244777 0.333731
0.051253 0.248770 0.356442
0.054519 0.253075 0.379153
0.057784 0.257627 0.401864
0.061050 0.262382 0.424575
0.064316 0.267303 0.447286
0.067581 0.272362 0.469997
0.070847 0.277538 0.492708
0.074112 0.282813 0.515419
0.077378 0.288174 0.538130
0.080644 0.293607 0.560841
0.083909 0.299105 0.583552
0.087175 0.304658 0.606262
0.090441 0.310261 0.628973
0.093706 0.315907 0.651684
0.096972 0.321591 0.674395
0.100238 0.327311 0.697106
0.103503 0.333061 0.719817
0.106769 0.338839 0.742528
0.110309 0.344758 0.765027
0.139700 0.361852 0.767550
0.055652 0.246251 0.021941
0.028394 0.246251 0.030132
0.028394 0.246251 0.059386
0.028394 0.246251 0.088640
0.028394 0.246251 0.117894
0.028394 0.246251 0.147148
0.028394 0.246251 0.176403
0.031659 0.268994 0.220177
0.034925 0.267894 0.242888
0.038191 0.268408 0.265598
0.041456 0.270054 0.288309
0.044722 0.272521 0.311020
0.047987 0.275605 0.333731
0.051253 0.279164 0.356442
0.054519 0.283095 0.379153
0.057784 0.287325 0.401864
0.061050 0.291797 0.424575
0.064316 0.296468 0.447286
0.067581 0.301306 0.469997
0.070847 0.306284 0.492708
0.074112 0.311380 0.515419
0.077378 0.316579 0.538130
0.080644 0.321866 0.560841
0.083909 0.327229 0.583552
0.087175 0.332660 0.606262
0.090441 0.338149 0.628973
0.093706 0.343691 0.651684
0.096972 0.349279 0.674395
0.100238 0.354908 0.697106
0.103503 0.360575 0.719817
0.106769 0.366275 0.742528
0.110309 0.372104 0.765027
0.139700 0.387557 0.767550
0.062052 0.274573 0.024464
0.031659 0.274573 0.028937
0.031659 0.274573 0.056896
0.031659 0.274573 0.084855
0.031659 0.274573 0.112814
0.031659 0.274573 0.140773
0.031659 0.274573 0.168732
0.031659 0.274573 0.196691
0.034925 0.301549 0.242888
0.038191 0.301121 0.265598
0.041456 0.302013 0.288309
0.044722 0.303863 0.311020
0.047987 0.306434 0.333731
0.051253 0.309557 0.356442
0.054519 0.313116 0.379153
0.057784 0.317023 0.401864
0.061050 0.321212 0.424575
0.064316 0.325634 0.447286
0.067581 0.330250 0.469997
0.070847 0.335029 0.492708
0.074112 0.339947 0.515419
0.077378 0.344985 0.538130
0.080644 0.350125 0.560841
0.083909 0.355354 0.583552
0.087175 0.360661 0.606262
0.090441 0.366038 0.628973
0.093706 0.371475 0.651684
0.096972 0.376967 0.674395
0.100238 0.382506 0.697106
0.103503 0.388089 0.719817
0.106769 0.393711 0.742528
0.110309 0.399450 0.765027
0.139700 0.413262 0.767550
0.068453 0.302895 0.026988
0.034925 0.302895 0.028067
0.034925 0.302895 0.055054
0.034925 0.302895 0.082042
0.034925 0.302895 0.109030
0.034925 0.302895 0.136017
0.034925 0.302895 0.163004
0.034925 0.302895 0.189992
0.034925 0.302895 0.216979
0.038191 0.331217 0.263500
0.041456 0.333972 0.288309
0.044722 0.335206 0.311020
0.047987 0.337262 0.333731
0.051253 0.339951 0.356442
0.054519 0.343137 0.379153
0.057784 0.346720 0.401864
0.061050 0.350627 0.424575
0.064316 0.354799 0.447286
0.067581 0.359194 0.469997
0.070847 0.363775 0.492708
0.074112 0.368514 0.515419
0.077378 0.373390 0.538130
0.080644 0.378383 0.560841
0.083909 0.383478 0.583552
0.087175 0.388663 0.606262
0.090441 0.393926 0.628973
0.093706 0.399259 0.651684
0.096972 0.404654 0.674395
0.100238 0.410104 0.697106
0.103503 0.415604 0.719817
0.106769 0.421148 0.742528
0.110309 0.426797 0.765027
0.139700 0.438967 0.767550
0.074854 0.331217 0.029511
0.040906 0.331217 0.029511
0.038191 0.331217 0.053644
0.038191 0.331217 0.079876
0.038191 0.331217 0.106108
0.038191 0.331217 0.132340
0.038191 0.331217 0.158572
0.038191 0.331217 0.184804
0.038191 0.331217 0.211036
0.038191 0.331217 0.237268
0.041456 0.359539 0.283184
0.044722 0.366548 0.311020
0.047987 0.368090 0.333731
0.051253 0.370344 0.356442
0.054519 0.373157 0.379153
0.057784 0.376418 0.401864
0.061050 0.380042 0.424575
0.064316 0.383965 0.447286
0.067581 0.388138 0.469997
0.070847 0.392520 0.492708
0.074112 0.397081 0.515419
0.077378 0.401795 0.538130
0.080644 0.406642 0.560841
0.083909 0.411603 0.583552
0.087175 0.416665 0.606262
0.090441 0.421815 0.628973
0.093706 0.427044 0.651684
0.096972 0.432342 0.674395
0.100238 0.437702 0.697106
0.103503 0.443118 0.719817
0.106769 0.448584 0.742528
0.110309 0.454143 0.765027
0.139700 0.464672 0.767550
0.081254 0.359539 0.032034
0.048089 0.359539 0.032034
0.041456 0.359539 0.052536
0.041456 0.359539 0.078164
0.041456 0.359539 0.103791
0.041456 0.359539 0.129419
0.041456 0.359539 0.155046
0.041456 0.359539 0.180674
0.041456 0.359539 0.206301
0.041456 0.359539 0.231929
0.041456 0.359539 0.257556
0.044722 0.387861 0.302978
0.047987 0.398919 0.333731
0.051253 0.400738 0.356442
0.054519 0.403178 0.379153
0.057784 0.406116 0.401864
0.061050 0.409457 0.424575
0.064316 0.413131 0.447286
0.067581 0.417081 0.469997
0.070847 0.421266 0.492708
0.074112 0.425648 0.515419
0.077378 0.430201 0.538130
0.080644 0.434900 0.560841
0.083909 0.439728 0.583552
0.087175 0.444666 0.606262
0.090441 0.449704 0.628973
0.093706 0.454828 0.651684
0.096972 0.460029 0.674395
0.100238 0.465300 0.697106
0.103503 0.470632 0.719817
0.106769 0.476020 0.742528
0.110309 0.481489 0.765027
0.139700 0.490377 0.767550
0.087655 0.387861 0.034558
0.055130 0.387861 0.034558
0.044722 0.387861 0.051648
0.044722 0.387861 0.076781
0.044722 0.387861 0.101914
0.044722 0.387861 0.127047
0.044722 0.387861 0.152180
0.044722 0.387861 0.177313
0.044722 0.387861 0.202446
0.044722 0.387861 0.227579
0.044722 0.387861 0.252712
0.044722 0.387861 0.277845
0.047987 0.416183 0.322854
0.051253 0.431131 0.356442
0.054519 0.433199 0.379153
0.057784 0.435813 0.401864
0.061050 0.438872 0.424575
0.064316 0.442296 0.447286
0.067581 0.446025 0.469997
0.070847 0.450011 0.492708
0.074112 0.454215 0.515419
0.077378 0.458606 0.538130
0.080644 0.463159 0.560841
0.083909 0.467852 0.583552
0.087175 0.472668 0.606262
0.090441 0.477592 0.628973
0.093706 0.482612 0.651684
0.096972 0.487717 0.674395
0.100238 0.492898 0.697106
0.103503 0.498147 0.719817
0.106769 0.503457 0.742528
0.110309 0.508836 0.765027
0.139700 0.516082 0.767550
0.094056 0.416183 0.037081
0.062064 0.416183 0.037081
0.047987 0.416183 0.050925
0.047987 0.416183 0.075646
0.047987 0.416183 0.100367
0.047987 0.416183 0.125087
0.047987 0.416183 0.149808
0.047987 0.416183 0.174529
0.047987 0.416183 0.199250
0.047987 0.416183 0.223971
0.047987 0.416183 0.248692
0.047987 0.416183 0.273412
0.047987 0.416183 0.298133
0.051253 0.444504 0.342794
0.054519 0.463220 0.379153
0.057784 0.465511 0.401864
0.061050 0.468287 0.424575
0.064316 0.471462 0.447286
0.067581 0.474969 0.469997
0.070847 0.478757 0.492708
0.074112 0.482782 0.515419
0.077378 0.487012 0.538130
0.080644 0.491418 0.560841
0.083909 0.495977 0.583552
0.087175 0.500670 0.606262
0.090441 0.505481 0.628973
0.093706 0.510396 0.651684
0.096972 0.515405 0.674395
0.100238 0.520496 0.697106
0.103503 0.525661 0.719817
0.106769 0.530893 0.742528
0.110309 0.536182 0.765027
0.139700 0.541787 0.767550
0.100456 0.444504 0.039605
0.068916 0.444504 0.039605
0.051253 0.444504 0.050328
0.051253 0.444504 0.074701
0.051253 0.444504 0.099073
0.051253 0.444504 0.123445
0.051253 0.444504 0.147817
0.051253 0.444504 0.172189
0.051253 0.444504 0.196561
0.051253 0.444504 0.220933
0.051253 0.444504 0.245305
0.051253 0.444504 0.269677
0.051253 0.444504 0.294050
0.051253 0.444504 0.318422
0.054519 0.472826 0.362783
0.057784 0.495209 0.401864
0.061050 0.497702 0.424575
0.064316 0.500627 0.447286
0.067581 0.503913 0.469997
0.070847 0.507502 0.492708
0.074112 0.511349 0.515419
0.077378 0.515417 0.538130
0.080644 0.519676 0.560841
0.083909 0.524101 0.583552
0.087175 0.528671 0.606262
0.090441 0.533369 0.628973
0.093706 0.538181 0.651684
0.096972 0.543092 0.674395
0.100238 0.548093 0.697106
0.103503 0.553175 0.719817
0.106769 0.558329 0.742528
0.110309 0.563528 0.765027
0.139700 0.567492 0.767550
0.106857 0.472826 0.042128
0.075703 0.472826 0.042128
0.054519 0.472826 0.049832
0.054519 0.472826 0.073905
0.054519 0.472826 0.097978
0.054519 0.472826 0.122051
0.054519 0.472826 0.146124
0.054519 0.472826 0.170198
0.054519 0.472826 0.194271
0.054519 0.472826 0.218344
0.054519 0.472826 0.242417
0.054519 0.472826 0.266490
0.054519 0.472826 0.290564
0.054519 0.472826 0.314637
0.054519 0.472826 0.338710
0.057784 0.501148 0.382813
0.061050 0.527117 0.424575
0.064316 0.529793 0.447286
0.067581 0.532857 0.469997
0.070847 0.536248 0.492708
0.074112 0.539916 0.515419
0.077378 0.543823 0.538130
0.080644 0.547935 0.560841
0.083909 0.552226 0.583552
0.087175 0.556673 0.606262
0.090441 0.561258 0.628973
0.093706 0.565965 0.651684
0.096972 0.570780 0.674395
0.100238 0.575691 0.697106
0.103503 0.580690 0.719817
0.106769 0.585766 0.742528
0.110309 0.590874 0.765027
0.139700 0.593197 0.767550
0.113257 0.501148 0.044652
0.082439 0.501148 0.044652
0.057784 0.501148 0.049414
0.057784 0.501148 0.073229
0.057784 0.501148 0.097043
0.057784 0.501148 0.120857
0.057784 0.501148 0.144671
0.057784 0.501148 0.168485
0.057784 0.501148 0.192299
0.057784 0.501148 0.216114
0.057784 0.501148 0.239928
0.057784 0.501148 0.263742
0.057784 0.501148 0.287556
0.057784 0.501148 0.311370
0.057784 0.501148 0.335184
0.057784 0.501148 0.358999
0.061050 0.529470 0.402874
0.064316 0.557792 0.446350
0.067581 0.561801 0.469997
0.070847 0.564993 0.492708
0.074112 0.568483 0.515419
0.077378 0.572228 0.538130
0.080644 0.576194 0.560841
0.083909 0.580350 0.583552
0.087175 0.584675 0.606262
0.090441 0.589147 0.628973
0.093706 0.593749 0.651684
0.096972 0.598467 0.674395
0.100238 0.603289 0.697106
0.103503 0.608204 0.719817
0.106769 0.613202 0.742528
0.110309 0.618221 0.765027
0.139700 0.618902 0.767550
0.119658 0.529470 0.047175
0.089133 0.529470 0.047175
0.061050 0.529470 0.049062
0.061050 0.529470 0.072649
0.061050 0.529470 0.096237
0.061050 0.529470 0.119825
0.061050 0.529470 0.143412
0.061050 0.529470 0.166999
0.061050 0.529470 0.190587
0.061050 0.529470 0.214174
0.061050 0.529470 0.237762
0.061050 0.529470 0.261350
0.061050 0.529470 0.284937
0.061050 0.529470 0.308524
0.061050 0.529470 0.332112
0.061050 0.529470 0.355699
0.061050 0.529470 0.379287
0.064316 0.557792 0.422963
0.067581 0.586114 0.466283
0.070847 0.593739 0.492708
0.074112 0.597050 0.515419
0.077378 0.600634 0.538130
0.080644 0.604452 0.560841
0.083909 0.608475 0.583552
0.087175 0.612676 0.606262
0.090441 0.617035 0.628973
0.093706 0.621533 0.651684
0.096972 0.626155 0.674395
0.100238 0.630887 0.697106
0.103503 0.635718 0.719817
0.106769 0.640638 0.742528
0.110309 0.645567 0.765027
0.139700 0.644607 0.767550
0.126059 0.557792 0.049698
0.095792 0.557792 0.049698
0.065526 0.557792 0.049698
0.064316 0.557792 0.072150
0.064316 0.557792 0.095538
0.064316 0.557792 0.118925
0.064316 0.557792 0.142313
0.064316 0.557792 0.165700
0.064316 0.557792 0.189088
0.064316 0.557792 0.212475
0.064316 0.557792 0.235863
0.064316 0.557792 0.259250
0.064316 0.557792 0.282638
0.064316 0.557792 0.306025
0.064316 0.557792 0.329413
0.064316 0.557792 0.352800
0.064316 0.557792 0.376188
0.064316 0.557792 0.399575
0.067581 0.586114 0.443074
0.070847 0.614436 0.486254
0.074112 0.625617 0.515419
0.077378 0.629039 0.538130
0.080644 0.632711 0.560841
0.083909 0.636600 0.583552
0.087175 0.640678 0.606262
0.090441 0.644924 0.628973
0.093706 0.649317 0.651684
0.096972 0.653842 0.674395
0.100238 0.658485 0.697106
0.103503 0.663232 0.719817
0.106769 0.668075 0.742528
0.110309 0.672913 0.765027
0.139700 0.670312 0.767550
0.132459 0.586114 0.052222
0.102423 0.586114 0.052222
0.072387 0.586114 0.052222
0.067581 0.586114 0.071718
0.067581 0.586114 0.094928
0.067581 0.586114 0.118137
0.067581 0.586114 0.141347
0.067581 0.586114 0.164557
0.067581 0.586114 0.187767
0.067581 0.586114 0.210976
0.067581 0.586114 0.234186
0.067581 0.586114 0.257396
0.067581 0.586114 0.280606
0.067581 0.586114 0.303815
0.067581 0.586114 0.327025
0.067581 0.586114 0.350235
0.067581 0.586114 0.373444
0.067581 0.586114 0.396654
0.067581 0.586114 0.419864
0.070847 0.614436 0.463203
0.074112 0.642757 0.506256
0.077378 0.657445 0.538130
0.080644 0.660970 0.560841
0.083909 0.664724 0.583552
0.087175 0.668680 0.606262
0.090441 0.672812 0.628973
0.093706 0.677102 0.651684
0.096972 0.681530 0.674395
0.100238 0.686083 0.697106
0.103503 0.690747 0.719817
0.106769 0.695511 0.742528
0.110309 0.700260 0.765027
0.139700 0.696017 0.767550
0.138860 0.614436 0.054745
0.109030 0.614436 0.054745
0.079199 0.614436 0.054745
0.070847 0.614436 0.071342
0.070847 0.614436 0.094392
0.070847 0.614436 0.117443
0.070847 0.614436 0.140494
0.070847 0.614436 0.163544
0.070847 0.614436 0.186595
0.070847 0.614436 0.209646
0.070847 0.614436 0.232696
0.070847 0.614436 0.255747
0.070847 0.614436 0.278798
0.070847 0.614436 0.301848
0.070847 0.614436 0.324899
0.070847 0.614436 0.347950
0.070847 0.614436 0.371000
0.070847 0.614436 0.394051
0.070847 0.614436 0.417102
0.070847 0.614436 0.440152
0.074112 0.642757 0.483348
0.077378 0.671079 0.526285
0.080644 0.689228 0.560841
0.083909 0.692849 0.583552
0.087175 0.696681 0.606262
0.090441 0.700701 0.628973
0.093706 0.704886 0.651684
0.096972 0.709218 0.674395
0.100238 0.713681 0.697106
0.103503 0.718261 0.719817
0.106769 0.722947 0.742528
0.110309 0.727606 0.765027
0.139700 0.721722 0.767550
0.145261 0.642757 0.057269
0.115616 0.642757 0.057269
0.085970 0.642757 0.057269
0.074112 0.642757 0.071013
0.074112 0.642757 0.093921
0.074112 0.642757 0.116828
0.074112 0.642757 0.139736
0.074112 0.642757 0.162643
0.074112 0.642757 0.185551
0.074112 0.642757 0.208458
0.074112 0.642757 0.231366
0.074112 0.642757 0.254273
0.074112 0.642757 0.277181
0.074112 0.642757 0.300088
0.074112 0.642757 0.322996
0.074112 0.642757 0.345903
0.074112 0.642757 0.368811
0.074112 0.642757 0.391718
0.074112 0.642757 0.414626
0.074112 0.642757 0.437533
0.074112 0.642757 0.460441
0.077378 0.671079 0.503507
0.080644 0.699401 0.546338
0.083909 0.720973 0.583552
0.087175 0.724683 0.606262
0.090441 0.728590 0.628973
0.093706 0.732670 0.651684
0.096972 0.736905 0.674395
0.100238 0.741278 0.697106
0.103503 0.745775 0.719817
0.106769 0.750384 0.742528
0.110309 0.754952 0.765027
0.139700 0.747427 0.767550
0.151661 0.671079 0.059792
0.122184 0.671079 0.059792
0.092706 0.671079 0.059792
0.077378 0.671079 0.070726
0.077378 0.671079 0.093504
0.077378 0.671079 0.116282
0.077378 0.671079 0.139060
0.077378 0.671079 0.161838
0.077378 0.671079 0.184615
0.077378 0.671079 0.207393
0.077378 0.671079 0.230171
0.077378 0.671079 0.252949
0.077378 0.671079 0.275727
0.077378 0.671079 0.298505
0.077378 0.671079 0.321283
0.077378 0.671079 0.344061
0.077378 0.671079 0.366839
0.077378 0.671079 0.389617
0.077378 0.671079 0.412395
0.077378 0.671079 0.435173
0.077378 0.671079 0.457951
0.077378 0.671079 0.480729
0.080644 0.699401 0.523678
0.083909 0.727723 0.566411
0.087175 0.752685 0.606262
0.090441 0.756478 0.628973
0.093706 0.760454 0.651684
0.096972 0.764593 0.674395
0.100238 0.768876 0.697106
0.103503 0.773290 0.719817
0.106769 0.777820 0.742528
0.110309 0.782298 0.765027
0.139700 0.773132 0.767550
0.158062 0.699401 0.062316
0.128737 0.699401 0.062316
0.099412 0.699401 0.062316
0.080644 0.699401 0.070473
0.080644 0.699401 0.093134
0.080644 0.699401 0.115794
0.080644 0.699401 0.138454
0.080644 0.699401 0.161114
0.080644 0.699401 0.183774
0.080644 0.699401 0.206435
0.080644 0.699401 0.229095
0.080644 0.699401 0.251755
0.080644 0.699401 0.274415
0.080644 0.699401 0.297076
0.080644 0.699401 0.319736
0.080644 0.699401 0.342396
0.080644 0.699401 0.365056
0.080644 0.699401 0.387716
0.080644 0.699401 0.410377
0.080644 0.699401 0.433037
0.080644 0.699401 0.455697
0.080644 0.699401 0.478357
0.080644 0.699401 0.501018
0.083909 0.727723 0.543859
0.087175 0.756045 0.586503
0.090441 0.784367 0.628973
0.093706 0.788239 0.651684
0.096972 0.792280 0.674395
0.100238 0.796474 0.697106
0.103503 0.800804 0.719817
0.106769 0.805256 0.742528
0.110309 0.809645 0.765027
0.139700 0.798837 0.767550
0.164462 0.727723 0.064839
0.135277 0.727723 0.064839
0.106091 0.727723 0.064839
0.083909 0.727723 0.070252
0.083909 0.727723 0.092804
0.083909 0.727723 0.115357
0.083909 0.727723 0.137910
0.083909 0.727723 0.160463
0.083909 0.727723 0.183015
0.083909 0.727723 0.205568
0.083909 0.727723 0.228121
0.083909 0.727723 0.250673
0.083909 0.727723 0.273226
0.083909 0.727723 0.295779
0.083909 0.727723 0.318332
0.083909 0.727723 0.340884
0.083909 0.727723 0.363437
0.083909 0.727723 0.385990
0.083909 0.727723 0.408542
0.083909 0.727723 0.431095
0.083909 0.727723 0.453648
0.083909 0.727723 0.476201
0.083909 0.727723 0.498753
0.083909 0.727723 0.521306
0.087175 0.756045 0.564049
0.090441 0.784367 0.606610
0.093706 0.812689 0.649011
0.096972 0.819968 0.674395
0.100238 0.824072 0.697106
0.103503 0.828318 0.719817
0.106769 0.832693 0.742528
0.110309 0.836991 0.765027
0.139700 0.824542 0.767550
0.170863 0.756045 0.067362
0.141805 0.756045 0.067362
0.112746 0.756045 0.067362
0.087175 0.756045 0.070057
0.087175 0.756045 0.092511
0.087175 0.756045 0.114965
0.087175 0.756045 0.137419
0.087175 0.756045 0.159874
0.087175 0.756045 0.182328
0.087175 0.756045 0.204782
0.087175 0.756045 0.227236
0.087175 0.756045 0.249690
0.087175 0.756045 0.272145
0.087175 0.756045 0.294599
0.087175 0.756045 0.317053
0.087175 0.756045 0.339507
0.087175 0.756045 0.361961
0.087175 0.756045 0.384415
0.087175 0.756045 0.406869
0.087175 0.756045 0.429324
0.087175 0.756045 0.451778
0.087175 0.756045 0.474232
0.087175 0.756045 0.496686
0.087175 0.756045 0.519140
0.087175 0.756045 0.541594
0.090441 0.784367 0.584246
0.093706 0.812689 0.626731
0.096972 0.841011 0.669067
0.100238 0.851670 0.697106
0.103503 0.855833 0.719817
0.106769 0.860129 0.742528
0.110309 0.864337 0.765027
0.139700 0.850247 0.767550
0.177264 0.784367 0.069886
0.148323 0.784367 0.069886
0.119382 0.784367 0.069886
0.090441 0.784367 0.069886
0.090441 0.784367 0.092249
0.090441 0.784367 0.114613
0.090441 0.784367 0.136976
0.090441 0.784367 0.159340
0.090441 0.784367 0.181703
0.090441 0.784367 0.204067
0.090441 0.784367 0.226430
0.090441 0.784367 0.248794
0.090441 0.784367 0.271157
0.090441 0.784367 0.293521
0.090441 0.784367 0.315884
0.090441 0.784367 0.338248
0.090441 0.784367 0.360611
0.090441 0.784367 0.382975
0.090441 0.784367 0.405338
0.090441 0.784367 0.427702
0.090441 0.784367 0.450065
0.090441 0.784367 0.472429
0.090441 0.784367 0.494792
0.090441 0.784367 0.517156
0.090441 0.784367 0.539519
0.090441 0.784367 0.561883
0.093706 0.812689 0.604451
0.096972 0.841011 0.646864
0.100238 0.869332 0.689139
0.103503 0.883347 0.719817
0.106769 0.887565 0.742528
0.110309 0.891684 0.765027
0.139700 0.875952 0.767550
0.183664 0.812689 0.072409
0.154832 0.812689 0.072409
0.125999 0.812689 0.072409
0.097166 0.812689 0.072409
0.093706 0.812689 0.092016
0.093706 0.812689 0.114295
0.093706 0.812689 0.136575
0.093706 0.812689 0.158855
0.093706 0.812689 0.181135
0.093706 0.812689 0.203415
0.093706 0.812689 0.225694
0.093706 0.812689 0.247974
0.093706 0.812689 0.270254
0.093706 0.812689 0.292534
0.093706 0.812689 0.314814
0.093706 0.812689 0.337093
0.093706 0.812689 0.359373
0.093706 0.812689 0.381653
0.093706 0.812689 0.403933
0.093706 0.812689 0.426213
0.093706 0.812689 0.448493
0.093706 0.812689 0.470772
0.093706 0.812689 0.493052
0.093706 0.812689 0.515332
0.093706 0.812689 0.537612
