src/flutter_app/assets/presets/jp-fresh.cube
# PoseCraft LUT preset
# Generated automatically for Phase 1
TITLE "PoseCraft Preset"
LUT_3D_SIZE 9
DOMAIN_MIN 0.0 0.0 0.0
DOMAIN_MAX 1.0 1.0 1.0
0.046000 0.051000 0.054000
0.030912 0.034272 0.222912
0.048944 0.054264 0.352944
0.066976 0.074256 0.482976
0.085008 0.094248 0.613008
0.103040 0.114240 0.743040
0.121072 0.134232 0.873072
0.192096 0.212976 0.940896
0.302864 0.335784 0.962064
0.030912 0.210528 0.036288
0.030912 0.210528 0.222912
0.048944 0.193800 0.352944
0.066976 0.201552 0.482976
0.085008 0.215424 0.613008
0.103040 0.231744 0.743040
0.121072 0.249288 0.873072
0.192096 0.309497 0.940896
0.302864 0.407388 0.962064
0.048944 0.333336 0.057456
0.048944 0.333336 0.205200
0.048944 0.333336 0.352944
0.066976 0.328848 0.482976
0.085008 0.336600 0.613008
0.103040 0.349248 0.743040
0.121072 0.364344 0.873072
0.192096 0.406018 0.940896
0.302864 0.478992 0.962064
0.066976 0.456144 0.078624
0.066976 0.456144 0.213408
0.066976 0.456144 0.348192
0.066976 0.456144 0.482976
0.085008 0.457776 0.613008
0.103040 0.466752 0.743040
0.121072 0.479400 0.873072
0.192096 0.502539 0.940896
0.302864 0.550596 0.962064
0.085008 0.578952 0.099792
0.085008 0.578952 0.228096
0.085008 0.578952 0.356400
0.085008 0.578952 0.484704
0.085008 0.578952 0.613008
0.103040 0.584256 0.743040
0.121072 0.594456 0.873072
0.192096 0.599061 0.940896
0.302864 0.622200 0.962064
0.103040 0.701760 0.120960
0.103040 0.701760 0.245376
0.103040 0.701760 0.369792
0.103040 0.701760 0.494208
0.103040 0.701760 0.618624
0.103040 0.701760 0.743040
0.121072 0.709512 0.873072
0.192096 0.695582 0.940896
0.302864 0.693804 0.962064
0.121072 0.824568 0.142128
0.121072 0.824568 0.263952
0.121072 0.824568 0.385776
0.121072 0.824568 0.507600
0.121072 0.824568 0.629424
0.121072 0.824568 0.751248
0.121072 0.824568 0.873072
0.192096 0.792103 0.940896
0.302864 0.765408 0.962064
0.192096 0.888624 0.225504
0.192096 0.888624 0.327703
0.192096 0.888624 0.429902
0.192096 0.888624 0.532101
0.192096 0.888624 0.634299
0.192096 0.888624 0.736498
0.192096 0.888624 0.838697
0.192096 0.888624 0.940896
0.302864 0.837012 0.962064
0.302864 0.908616 0.355536
0.302864 0.908616 0.431352
0.302864 0.908616 0.507168
0.302864 0.908616 0.582984
0.302864 0.908616 0.658800
0.302864 0.908616 0.734616
0.302864 0.908616 0.810432
0.302864 0.908616 0.886248
0.302864 0.908616 0.962064
0.189888 0.034272 0.036288
0.189888 0.034272 0.222912
0.174800 0.054264 0.352944
0.181792 0.074256 0.482976
0.194304 0.094248 0.613008
0.209024 0.114240 0.743040
0.224848 0.134232 0.873072
0.279154 0.212976 0.940896
0.367448 0.335784 0.962064
0.189888 0.210528 0.036288
0.174800 0.193800 0.205200
0.181792 0.201552 0.348192
0.194304 0.215424 0.484704
0.209024 0.231744 0.618624
0.224848 0.249288 0.751248
0.279154 0.309497 0.838697
0.367448 0.407388 0.886248
0.413632 0.458592 0.983232
0.174800 0.333336 0.057456
0.181792 0.328848 0.213408
0.181792 0.328848 0.348192
0.194304 0.336600 0.484704
0.209024 0.349248 0.618624
0.224848 0.364344 0.751248
0.279154 0.406018 0.838697
0.367448 0.478992 0.886248
0.413632 0.525737 0.983232
0.181792 0.456144 0.078624
0.194304 0.457776 0.228096
0.194304 0.457776 0.356400
0.194304 0.457776 0.484704
0.209024 0.466752 0.618624
0.224848 0.479400 0.751248
0.279154 0.502539 0.838697
0.367448 0.550596 0.886248
0.413632 0.592882 0.983232
0.194304 0.578952 0.099792
0.209024 0.584256 0.245376
0.209024 0.584256 0.369792
0.209024 0.584256 0.494208
0.209024 0.584256 0.618624
0.224848 0.594456 0.751248
0.279154 0.599061 0.838697
0.367448 0.622200 0.886248
0.413632 0.660027 0.983232
0.209024 0.701760 0.120960
0.224848 0.709512 0.263952
0.224848 0.709512 0.385776
0.224848 0.709512 0.507600
0.224848 0.709512 0.629424
0.224848 0.709512 0.751248
0.279154 0.695582 0.838697
0.367448 0.693804 0.886248
0.413632 0.727173 0.983232
0.224848 0.824568 0.142128
0.279154 0.792103 0.327703
0.279154 0.792103 0.429902
0.279154 0.792103 0.532101
0.279154 0.792103 0.634299
0.279154 0.792103 0.736498
0.279154 0.792103 0.838697
0.367448 0.765408 0.886248
0.413632 0.794318 0.983232
0.279154 0.888624 0.225504
0.367448 0.837012 0.431352
0.367448 0.837012 0.507168
0.367448 0.837012 0.582984
0.367448 0.837012 0.658800
0.367448 0.837012 0.734616
0.367448 0.837012 0.810432
0.367448 0.837012 0.886248
0.413632 0.861463 0.983232
0.367448 0.908616 0.355536
0.413632 0.928608 0.485568
0.413632 0.928608 0.556663
0.413632 0.928608 0.627758
0.413632 0.928608 0.698853
0.413632 0.928608 0.769947
0.413632 0.928608 0.841042
0.413632 0.928608 0.912137
0.413632 0.928608 0.983232
0.300656 0.054264 0.057456
0.300656 0.054264 0.205200
0.300656 0.054264 0.352944
0.296608 0.074256 0.482976
0.303600 0.094248 0.613008
0.315008 0.114240 0.743040
0.328624 0.134232 0.873072
0.366213 0.212976 0.940896
0.432032 0.335784 0.962064
0.300656 0.193800 0.057456
0.296608 0.201552 0.213408
0.296608 0.201552 0.348192
0.303600 0.215424 0.484704
0.315008 0.231744 0.618624
0.328624 0.249288 0.751248
0.366213 0.309497 0.838697
0.432032 0.407388 0.886248
0.474194 0.458592 0.983232
0.300656 0.333336 0.057456
0.296608 0.328848 0.213408
0.303600 0.336600 0.356400
0.315008 0.349248 0.494208
0.328624 0.364344 0.629424
0.366213 0.406018 0.736498
0.432032 0.478992 0.810432
0.474194 0.525737 0.912137
0.524400 0.581400 1.004400
0.296608 0.456144 0.078624
0.303600 0.457776 0.228096
0.315008 0.466752 0.369792
0.315008 0.466752 0.494208
0.328624 0.479400 0.629424
0.366213 0.502539 0.736498
0.432032 0.550596 0.810432
0.474194 0.592882 0.912137
0.524400 0.642600 1.004400
0.303600 0.578952 0.099792
0.315008 0.584256 0.245376
0.328624 0.594456 0.385776
0.328624 0.594456 0.507600
0.328624 0.594456 0.629424
0.366213 0.599061 0.736498
0.432032 0.622200 0.810432
0.474194 0.660027 0.912137
0.524400 0.703800 1.004400
0.315008 0.701760 0.120960
0.328624 0.709512 0.263952
0.366213 0.695582 0.429902
0.366213 0.695582 0.532101
0.366213 0.695582 0.634299
0.366213 0.695582 0.736498
0.432032 0.693804 0.810432
0.474194 0.727173 0.912137
0.524400 0.765000 1.004400
0.328624 0.824568 0.142128
0.366213 0.792103 0.327703
0.432032 0.765408 0.507168
0.432032 0.765408 0.582984
0.432032 0.765408 0.658800
0.432032 0.765408 0.734616
0.432032 0.765408 0.810432
0.474194 0.794318 0.912137
0.524400 0.826200 1.004400
0.366213 0.888624 0.225504
0.432032 0.837012 0.431352
0.474194 0.861463 0.556663
0.474194 0.861463 0.627758
0.474194 0.861463 0.698853
0.474194 0.861463 0.769947
0.474194 0.861463 0.841042
0.474194 0.861463 0.912137
0.524400 0.887400 1.004400
0.432032 0.908616 0.355536
0.474194 0.928608 0.485568
0.524400 0.948600 0.615600
0.524400 0.948600 0.680400
0.524400 0.948600 0.745200
0.524400 0.948600 0.810000
0.524400 0.948600 0.874800
0.524400 0.948600 0.939600
0.524400 0.948600 1.004400
0.411424 0.074256 0.078624
0.411424 0.074256 0.213408
0.411424 0.074256 0.348192
0.411424 0.074256 0.482976
0.412896 0.094248 0.613008
0.420992 0.114240 0.743040
0.432400 0.134232 0.873072
0.453271 0.212976 0.940896
0.496616 0.335784 0.962064
0.411424 0.201552 0.078624
0.412896 0.215424 0.228096
0.412896 0.215424 0.356400
0.412896 0.215424 0.484704
0.420992 0.231744 0.618624
0.432400 0.249288 0.751248
0.453271 0.309497 0.838697
0.496616 0.407388 0.886248
0.534757 0.458592 0.983232
0.411424 0.328848 0.078624
0.412896 0.336600 0.228096
0.420992 0.349248 0.369792
0.420992 0.349248 0.494208
0.432400 0.364344 0.629424
0.453271 0.406018 0.736498
0.496616 0.478992 0.810432
0.534757 0.525737 0.912137
0.579600 0.581400 1.004400
0.411424 0.456144 0.078624
0.412896 0.457776 0.228096
0.420992 0.466752 0.369792
0.432400 0.479400 0.507600
0.453271 0.502539 0.634299
0.496616 0.550596 0.734616
0.534757 0.592882 0.841042
0.579600 0.642600 0.939600
0.635168 0.704208 1.025568
0.412896 0.578952 0.099792
0.420992 0.584256 0.245376
0.432400 0.594456 0.385776
0.453271 0.599061 0.532101
0.453271 0.599061 0.634299
0.496616 0.622200 0.734616
0.534757 0.660027 0.841042
0.579600 0.703800 0.939600
0.635168 0.757085 1.025568
0.420992 0.701760 0.120960
0.432400 0.709512 0.263952
0.453271 0.695582 0.429902
0.496616 0.693804 0.582984
0.496616 0.693804 0.658800
0.496616 0.693804 0.734616
0.534757 0.727173 0.841042
0.579600 0.765000 0.939600
0.635168 0.809962 1.025568
0.432400 0.824568 0.142128
0.453271 0.792103 0.327703
0.496616 0.765408 0.507168
0.534757 0.794318 0.627758
0.534757 0.794318 0.698853
0.534757 0.794318 0.769947
0.534757 0.794318 0.841042
0.579600 0.826200 0.939600
0.635168 0.862838 1.025568
0.453271 0.888624 0.225504
0.496616 0.837012 0.431352
0.534757 0.861463 0.556663
0.579600 0.887400 0.680400
0.579600 0.887400 0.745200
0.579600 0.887400 0.810000
0.579600 0.887400 0.874800
0.579600 0.887400 0.939600
0.635168 0.915715 1.025568
0.496616 0.908616 0.355536
0.534757 0.928608 0.485568
0.579600 0.948600 0.615600
0.635168 0.968592 0.745632
0.635168 0.968592 0.801619
0.635168 0.968592 0.857606
0.635168 0.968592 0.913594
0.635168 0.968592 0.969581
0.635168 0.968592 1.025568
0.522192 0.094248 0.099792
0.522192 0.094248 0.228096
0.522192 0.094248 0.356400
0.522192 0.094248 0.484704
0.522192 0.094248 0.613008
0.526976 0.114240 0.743040
0.536176 0.134232 0.873072
0.540329 0.212976 0.940896
0.561200 0.335784 0.962064
0.522192 0.215424 0.099792
0.526976 0.231744 0.245376
0.526976 0.231744 0.369792
0.526976 0.231744 0.494208
0.526976 0.231744 0.618624
0.536176 0.249288 0.751248
0.540329 0.309497 0.838697
0.561200 0.407388 0.886248
0.595319 0.458592 0.983232
0.522192 0.336600 0.099792
0.526976 0.349248 0.245376
0.536176 0.364344 0.385776
0.536176 0.364344 0.507600
0.536176 0.364344 0.629424
0.540329 0.406018 0.736498
0.561200 0.478992 0.810432
0.595319 0.525737 0.912137
0.634800 0.581400 1.004400
0.522192 0.457776 0.099792
0.526976 0.466752 0.245376
0.536176 0.479400 0.385776
0.540329 0.502539 0.532101
0.540329 0.502539 0.634299
0.561200 0.550596 0.734616
0.595319 0.592882 0.841042
0.634800 0.642600 0.939600
0.682861 0.704208 1.025568
0.522192 0.578952 0.099792
0.526976 0.584256 0.245376
0.536176 0.594456 0.385776
0.540329 0.599061 0.532101
0.561200 0.622200 0.658800
0.595319 0.660027 0.769947
0.634800 0.703800 0.874800
0.682861 0.757085 0.969581
0.745936 0.827016 1.046736
0.526976 0.701760 0.120960
0.536176 0.709512 0.263952
0.540329 0.695582 0.429902
0.561200 0.693804 0.582984
0.595319 0.727173 0.698853
0.595319 0.727173 0.769947
0.634800 0.765000 0.874800
0.682861 0.809962 0.969581
0.745936 0.867408 1.046736
0.536176 0.824568 0.142128
0.540329 0.792103 0.327703
0.561200 0.765408 0.507168
0.595319 0.794318 0.627758
0.634800 0.826200 0.745200
0.634800 0.826200 0.810000
0.634800 0.826200 0.874800
0.682861 0.862838 0.969581
0.745936 0.907800 1.046736
0.540329 0.888624 0.225504
0.561200 0.837012 0.431352
0.595319 0.861463 0.556663
0.634800 0.887400 0.680400
0.682861 0.915715 0.801619
0.682861 0.915715 0.857606
0.682861 0.915715 0.913594
0.682861 0.915715 0.969581
0.745936 0.948192 1.046736
0.561200 0.908616 0.355536
0.595319 0.928608 0.485568
0.634800 0.948600 0.615600
0.682861 0.968592 0.745632
0.745936 0.988584 0.875664
0.745936 0.988584 0.918432
0.745936 0.988584 0.961200
0.745936 0.988584 1.003968
0.745936 0.988584 1.046736
0.632960 0.114240 0.120960
0.632960 0.114240 0.245376
0.632960 0.114240 0.369792
0.632960 0.114240 0.494208
0.632960 0.114240 0.618624
0.632960 0.114240 0.743040
0.639952 0.134232 0.873072
0.627387 0.212976 0.940896
0.625784 0.335784 0.962064
0.632960 0.231744 0.120960
0.639952 0.249288 0.263952
0.639952 0.249288 0.385776
0.639952 0.249288 0.507600
0.639952 0.249288 0.629424
0.639952 0.249288 0.751248
0.627387 0.309497 0.838697
0.625784 0.407388 0.886248
0.655881 0.458592 0.983232
0.632960 0.349248 0.120960
0.639952 0.364344 0.263952
0.627387 0.406018 0.429902
0.627387 0.406018 0.532101
0.627387 0.406018 0.634299
0.627387 0.406018 0.736498
0.625784 0.478992 0.810432
0.655881 0.525737 0.912137
0.690000 0.581400 1.004400
0.632960 0.466752 0.120960
0.639952 0.479400 0.263952
0.627387 0.502539 0.429902
0.625784 0.550596 0.582984
0.625784 0.550596 0.658800
0.625784 0.550596 0.734616
0.655881 0.592882 0.841042
0.690000 0.642600 0.939600
0.730554 0.704208 1.025568
0.632960 0.584256 0.120960
0.639952 0.594456 0.263952
0.627387 0.599061 0.429902
0.625784 0.622200 0.582984
0.655881 0.660027 0.698853
0.655881 0.660027 0.769947
0.690000 0.703800 0.874800
0.730554 0.757085 0.969581
0.782368 0.827016 1.046736
0.632960 0.701760 0.120960
0.639952 0.709512 0.263952
0.627387 0.695582 0.429902
0.625784 0.693804 0.582984
0.655881 0.727173 0.698853
0.690000 0.765000 0.810000
0.730554 0.809962 0.913594
0.782368 0.867408 1.003968
0.856704 0.949824 1.067904
0.639952 0.824568 0.142128
0.627387 0.792103 0.327703
0.625784 0.765408 0.507168
0.655881 0.794318 0.627758
0.690000 0.826200 0.745200
0.730554 0.862838 0.857606
0.730554 0.862838 0.913594
0.782368 0.907800 1.003968
0.856704 0.969408 1.067904
0.627387 0.888624 0.225504
0.625784 0.837012 0.431352
0.655881 0.861463 0.556663
0.690000 0.887400 0.680400
0.730554 0.915715 0.801619
0.782368 0.948192 0.918432
0.782368 0.948192 0.961200
0.782368 0.948192 1.003968
0.856704 0.988992 1.067904
0.625784 0.908616 0.355536
0.655881 0.928608 0.485568
0.690000 0.948600 0.615600
0.730554 0.968592 0.745632
0.782368 0.988584 0.875664
0.856704 1.008576 1.005696
0.856704 1.008576 1.026432
0.856704 1.008576 1.047168
0.856704 1.008576 1.067904
0.743728 0.134232 0.142128
0.743728 0.134232 0.263952
0.743728 0.134232 0.385776
0.743728 0.134232 0.507600
0.743728 0.134232 0.629424
0.743728 0.134232 0.751248
0.743728 0.134232 0.873072
0.714446 0.212976 0.940896
0.690368 0.335784 0.962064
0.743728 0.249288 0.142128
0.714446 0.309497 0.327703
0.714446 0.309497 0.429902
0.714446 0.309497 0.532101
0.714446 0.309497 0.634299
0.714446 0.309497 0.736498
0.714446 0.309497 0.838697
0.690368 0.407388 0.886248
0.716443 0.458592 0.983232
0.743728 0.364344 0.142128
0.714446 0.406018 0.327703
0.690368 0.478992 0.507168
0.690368 0.478992 0.582984
0.690368 0.478992 0.658800
0.690368 0.478992 0.734616
0.690368 0.478992 0.810432
0.716443 0.525737 0.912137
0.745200 0.581400 1.004400
0.743728 0.479400 0.142128
0.714446 0.502539 0.327703
0.690368 0.550596 0.507168
0.716443 0.592882 0.627758
0.716443 0.592882 0.698853
0.716443 0.592882 0.769947
0.716443 0.592882 0.841042
0.745200 0.642600 0.939600
0.778246 0.704208 1.025568
0.743728 0.594456 0.142128
0.714446 0.599061 0.327703
0.690368 0.622200 0.507168
0.716443 0.660027 0.627758
0.745200 0.703800 0.745200
0.745200 0.703800 0.810000
0.745200 0.703800 0.874800
0.778246 0.757085 0.969581
0.818800 0.827016 1.046736
0.743728 0.709512 0.142128
0.714446 0.695582 0.327703
0.690368 0.693804 0.507168
0.716443 0.727173 0.627758
0.745200 0.765000 0.745200
0.778246 0.809962 0.857606
0.778246 0.809962 0.913594
0.818800 0.867408 1.003968
0.874368 0.949824 1.067904
0.743728 0.824568 0.142128
0.714446 0.792103 0.327703
0.690368 0.765408 0.507168
0.716443 0.794318 0.627758
0.745200 0.826200 0.745200
0.778246 0.862838 0.857606
0.818800 0.907800 0.961200
0.874368 0.969408 1.047168
0.920000 1.020000 1.080000
0.714446 0.888624 0.225504
0.690368 0.837012 0.431352
0.716443 0.861463 0.556663
0.745200 0.887400 0.680400
0.778246 0.915715 0.801619
0.818800 0.948192 0.918432
0.874368 0.988992 1.026432
0.874368 0.988992 1.047168
0.920000 1.020000 1.080000
0.690368 0.908616 0.355536
0.716443 0.928608 0.485568
0.745200 0.948600 0.615600
0.778246 0.968592 0.745632
0.818800 0.988584 0.875664
0.874368 1.008576 1.005696
0.920000 1.020000 1.080000
0.920000 1.020000 1.080000
0.920000 1.020000 1.080000
0.801504 0.212976 0.225504
0.801504 0.212976 0.327703
0.801504 0.212976 0.429902
0.801504 0.212976 0.532101
0.801504 0.212976 0.634299
0.801504 0.212976 0.736498
0.801504 0.212976 0.838697
0.801504 0.212976 0.940896
0.754952 0.335784 0.962064
0.801504 0.309497 0.225504
0.754952 0.407388 0.431352
0.754952 0.407388 0.507168
0.754952 0.407388 0.582984
0.754952 0.407388 0.658800
0.754952 0.407388 0.734616
0.754952 0.407388 0.810432
0.754952 0.407388 0.886248
0.777006 0.458592 0.983232
0.801504 0.406018 0.225504
0.754952 0.478992 0.431352
0.777006 0.525737 0.556663
0.777006 0.525737 0.627758
0.777006 0.525737 0.698853
0.777006 0.525737 0.769947
0.777006 0.525737 0.841042
0.777006 0.525737 0.912137
0.800400 0.581400 1.004400
0.801504 0.502539 0.225504
0.754952 0.550596 0.431352
0.777006 0.592882 0.556663
0.800400 0.642600 0.680400
0.800400 0.642600 0.745200
0.800400 0.642600 0.810000
0.800400 0.642600 0.874800
0.800400 0.642600 0.939600
0.825939 0.704208 1.025568
0.801504 0.599061 0.225504
0.754952 0.622200 0.431352
0.777006 0.660027 0.556663
0.800400 0.703800 0.680400
0.825939 0.757085 0.801619
0.825939 0.757085 0.857606
0.825939 0.757085 0.913594
0.825939 0.757085 0.969581
0.855232 0.827016 1.046736
0.801504 0.695582 0.225504
0.754952 0.693804 0.431352
0.777006 0.727173 0.556663
0.800400 0.765000 0.680400
0.825939 0.809962 0.801619
0.855232 0.867408 0.918432
0.855232 0.867408 0.961200
0.855232 0.867408 1.003968
0.892032 0.949824 1.067904
0.801504 0.792103 0.225504
0.754952 0.765408 0.431352
0.777006 0.794318 0.556663
0.800400 0.826200 0.680400
0.825939 0.862838 0.801619
0.855232 0.907800 0.918432
0.892032 0.969408 1.026432
0.892032 0.969408 1.047168
0.920000 1.020000 1.080000
0.801504 0.888624 0.225504
0.754952 0.837012 0.431352
0.777006 0.861463 0.556663
0.800400 0.887400 0.680400
0.825939 0.915715 0.801619
0.855232 0.948192 0.918432
0.892032 0.988992 1.026432
0.920000 1.020000 1.080000
0.920000 1.020000 1.080000
0.754952 0.908616 0.355536
0.777006 0.928608 0.485568
0.800400 0.948600 0.615600
0.825939 0.968592 0.745632
0.855232 0.988584 0.875664
0.892032 1.008576 1.005696
0.920000 1.020000 1.080000
0.920000 1.020000 1.080000
0.920000 1.020000 1.080000
0.819536 0.335784 0.355536
0.819536 0.335784 0.431352
0.819536 0.335784 0.507168
0.819536 0.335784 0.582984
0.819536 0.335784 0.658800
0.819536 0.335784 0.734616
0.819536 0.335784 0.810432
0.819536 0.335784 0.886248
0.819536 0.335784 0.962064
0.819536 0.407388 0.355536
0.837568 0.458592 0.485568
0.837568 0.458592 0.556663
0.837568 0.458592 0.627758
0.837568 0.458592 0.698853
0.837568 0.458592 0.769947
0.837568 0.458592 0.841042
0.837568 0.458592 0.912137
0.837568 0.458592 0.983232
0.819536 0.478992 0.355536
0.837568 0.525737 0.485568
0.855600 0.581400 0.615600
0.855600 0.581400 0.680400
0.855600 0.581400 0.745200
0.855600 0.581400 0.810000
0.855600 0.581400 0.874800
0.855600 0.581400 0.939600
0.855600 0.581400 1.004400
0.819536 0.550596 0.355536
0.837568 0.592882 0.485568
0.855600 0.642600 0.615600
0.873632 0.704208 0.745632
0.873632 0.704208 0.801619
0.873632 0.704208 0.857606
0.873632 0.704208 0.913594
0.873632 0.704208 0.969581
0.873632 0.704208 1.025568
0.819536 0.622200 0.355536
0.837568 0.660027 0.485568
0.855600 0.703800 0.615600
0.873632 0.757085 0.745632
0.891664 0.827016 0.875664
0.891664 0.827016 0.918432
0.891664 0.827016 0.961200
0.891664 0.827016 1.003968
0.891664 0.827016 1.046736
0.819536 0.693804 0.355536
0.837568 0.727173 0.485568
0.855600 0.765000 0.615600
0.873632 0.809962 0.745632
0.891664 0.867408 0.875664
0.909696 0.949824 1.005696
0.909696 0.949824 1.026432
0.909696 0.949824 1.047168
0.909696 0.949824 1.067904
0.819536 0.765408 0.355536
0.837568 0.794318 0.485568
0.855600 0.826200 0.615600
0.873632 0.862838 0.745632
0.891664 0.907800 0.875664
0.909696 0.969408 1.005696
0.920000 1.020000 1.080000
0.920000 1.020000 1.080000
0.920000 1.020000 1.080000
0.819536 0.837012 0.355536
0.837568 0.861463 0.485568
0.855600 0.887400 0.615600
0.873632 0.915715 0.745632
0.891664 0.948192 0.875664
0.909696 0.988992 1.005696
0.920000 1.020000 1.080000
0.920000 1.020000 1.080000
0.920000 1.020000 1.080000
0.819536 0.908616 0.355536
0.837568 0.928608 0.485568
0.855600 0.948600 0.615600
0.873632 0.968592 0.745632
0.891664 0.988584 0.875664
0.909696 1.008576 1.005696
0.920000 1.020000 1.080000
0.920000 1.020000 1.080000
0.920000 1.020000 1.080000
