src/flutter_app/assets/presets/jp-fresh.cube
# PoseCraft LUT preset
# Generated automatically for Phase 1
TITLE "PoseCraft Preset"
LUT_3D_SIZE 33
DOMAIN_MIN 0.0 0.0 0.0
DOMAIN_MAX 1.0 1.0 1.0
0.046000 0.051000 0.054000
0.017388 0.019278 0.125388
0.021896 0.024276 0.157896
0.026404 0.029274 0.190404
0.030912 0.034272 0.222912
0.035420 0.039270 0.255420
0.039928 0.044268 0.287928
0.044436 0.049266 0.320436
0.048944 0.054264 0.352944
0.053452 0.059262 0.385452
0.057960 0.064260 0.417960
0.062468 0.069258 0.450468
0.066976 0.074256 0.482976
0.071484 0.079254 0.515484
0.075992 0.084252 0.547992
0.080500 0.089250 0.580500
0.085008 0.094248 0.613008
0.089516 0.099246 0.645516
0.094024 0.104244 0.678024
0.098532 0.109242 0.710532
0.103040 0.114240 0.743040
0.107548 0.119238 0.775548
0.112056 0.124236 0.808056
0.116564 0.129234 0.840564
0.121072 0.134232 0.873072
0.125580 0.139230 0.905580
0.136712 0.151572 0.930312
0.164404 0.182274 0.935604
0.192096 0.212976 0.940896
0.219788 0.243678 0.946188
0.247480 0.274380 0.951480
0.275172 0.305082 0.956772
0.302864 0.335784 0.962064
0.017388 0.118422 0.020412
0.017388 0.118422 0.125388
0.021896 0.086700 0.157896
0.026404 0.079458 0.190404
0.030912 0.078336 0.222912
0.035420 0.079662 0.255420
0.039928 0.082212 0.287928
0.044436 0.085461 0.320436
0.048944 0.089148 0.352944
0.053452 0.093126 0.385452
0.057960 0.097308 0.417960
0.062468 0.101638 0.450468
0.066976 0.106080 0.482976
0.071484 0.110607 0.515484
0.075992 0.115202 0.547992
0.080500 0.119850 0.580500
0.085008 0.124542 0.613008
0.089516 0.129270 0.645516
0.094024 0.134028 0.678024
0.098532 0.138811 0.710532
0.103040 0.143616 0.743040
0.107548 0.148439 0.775548
0.112056 0.153278 0.808056
0.116564 0.158131 0.840564
0.121072 0.162996 0.873072
0.125580 0.167872 0.905580
0.136712 0.179536 0.930312
0.164404 0.208250 0.935604
0.192096 0.237106 0.940896
0.219788 0.266090 0.946188
0.247480 0.295188 0.951480
0.275172 0.324390 0.956772
0.302864 0.353685 0.962064
0.021896 0.149124 0.025704
0.021896 0.149124 0.091800
0.021896 0.149124 0.157896
0.026404 0.129642 0.190404
0.030912 0.122400 0.222912
0.035420 0.120054 0.255420
0.039928 0.120156 0.287928
0.044436 0.121657 0.320436
0.048944 0.124032 0.352944
0.053452 0.126990 0.385452
0.057960 0.130356 0.417960
0.062468 0.134019 0.450468
0.066976 0.137904 0.482976
0.071484 0.141960 0.515484
0.075992 0.146151 0.547992
0.080500 0.150450 0.580500
0.085008 0.154836 0.613008
0.089516 0.159294 0.645516
0.094024 0.163812 0.678024
0.098532 0.168381 0.710532
0.103040 0.172992 0.743040
0.107548 0.177640 0.775548
0.112056 0.182320 0.808056
0.116564 0.187028 0.840564
0.121072 0.191760 0.873072
0.125580 0.196513 0.905580
0.136712 0.207499 0.930312
0.164404 0.234226 0.935604
0.192096 0.261237 0.940896
0.219788 0.288502 0.946188
0.247480 0.315996 0.951480
0.275172 0.343697 0.956772
0.302864 0.371586 0.962064
0.026404 0.179826 0.030996
0.026404 0.179826 0.084132
0.026404 0.179826 0.137268
0.026404 0.179826 0.190404
0.030912 0.166464 0.222912
0.035420 0.160446 0.255420
0.039928 0.158100 0.287928
0.044436 0.157852 0.320436
0.048944 0.158916 0.352944
0.053452 0.160854 0.385452
0.057960 0.163404 0.417960
0.062468 0.166399 0.450468
0.066976 0.169728 0.482976
0.071484 0.173314 0.515484
0.075992 0.177101 0.547992
0.080500 0.181050 0.580500
0.085008 0.185130 0.613008
0.089516 0.189318 0.645516
0.094024 0.193596 0.678024
0.098532 0.197950 0.710532
0.103040 0.202368 0.743040
0.107548 0.206841 0.775548
0.112056 0.211363 0.808056
0.116564 0.215925 0.840564
0.121072 0.220524 0.873072
0.125580 0.225155 0.905580
0.136712 0.235463 0.930312
0.164404 0.260202 0.935604
0.192096 0.285367 0.940896
0.219788 0.310914 0.946188
0.247480 0.336804 0.951480
0.275172 0.363005 0.956772
0.302864 0.389487 0.962064
0.030912 0.210528 0.036288
0.030912 0.210528 0.082944
0.030912 0.210528 0.129600
0.030912 0.210528 0.176256
0.030912 0.210528 0.222912
0.035420 0.200838 0.255420
0.039928 0.196044 0.287928
0.044436 0.194048 0.320436
0.048944 0.193800 0.352944
0.053452 0.194718 0.385452
0.057960 0.196452 0.417960
0.062468 0.198779 0.450468
0.066976 0.201552 0.482976
0.071484 0.204667 0.515484
0.075992 0.208051 0.547992
0.080500 0.211650 0.580500
0.085008 0.215424 0.613008
0.089516 0.219342 0.645516
0.094024 0.223380 0.678024
0.098532 0.227519 0.710532
0.103040 0.231744 0.743040
0.107548 0.236043 0.775548
0.112056 0.240405 0.808056
0.116564 0.244822 0.840564
0.121072 0.249288 0.873072
0.125580 0.253796 0.905580
0.136712 0.263427 0.930312
0.164404 0.286178 0.935604
0.192096 0.309497 0.940896
0.219788 0.333325 0.946188
0.247480 0.357612 0.951480
0.275172 0.382312 0.956772
0.302864 0.407388 0.962064
0.035420 0.241230 0.041580
0.035420 0.241230 0.084348
0.035420 0.241230 0.127116
0.035420 0.241230 0.169884
0.035420 0.241230 0.212652
0.035420 0.241230 0.255420
0.039928 0.233988 0.287928
0.044436 0.230243 0.320436
0.048944 0.228684 0.352944
0.053452 0.228582 0.385452
0.057960 0.229500 0.417960
0.062468 0.231160 0.450468
0.066976 0.233376 0.482976
0.071484 0.236020 0.515484
0.075992 0.239001 0.547992
0.080500 0.242250 0.580500
0.085008 0.245718 0.613008
0.089516 0.249366 0.645516
0.094024 0.253164 0.678024
0.098532 0.257088 0.710532
0.103040 0.261120 0.743040
0.107548 0.265244 0.775548
0.112056 0.269447 0.808056
0.116564 0.273719 0.840564
0.121072 0.278052 0.873072
0.125580 0.282438 0.905580
0.136712 0.291390 0.930312
0.164404 0.312154 0.935604
0.192096 0.333627 0.940896
0.219788 0.355737 0.946188
0.247480 0.378420 0.951480
0.275172 0.401620 0.956772
0.302864 0.425289 0.962064
0.039928 0.271932 0.046872
0.039928 0.271932 0.087048
0.039928 0.271932 0.127224
0.039928 0.271932 0.167400
0.039928 0.271932 0.207576
0.039928 0.271932 0.247752
0.039928 0.271932 0.287928
0.044436 0.266439 0.320436
0.048944 0.263568 0.352944
0.053452 0.262446 0.385452
0.057960 0.262548 0.417960
0.062468 0.263540 0.450468
0.066976 0.265200 0.482976
0.071484 0.267373 0.515484
0.075992 0.269950 0.547992
0.080500 0.272850 0.580500
0.085008 0.276012 0.613008
0.089516 0.279390 0.645516
0.094024 0.282948 0.678024
0.098532 0.286658 0.710532
0.103040 0.290496 0.743040
0.107548 0.294445 0.775548
0.112056 0.298489 0.808056
0.116564 0.302616 0.840564
0.121072 0.306816 0.873072
0.125580 0.311080 0.905580
0.136712 0.319354 0.930312
0.164404 0.338130 0.935604
0.192096 0.357758 0.940896
0.219788 0.378149 0.946188
0.247480 0.399228 0.951480
0.275172 0.420928 0.956772
0.302864 0.443190 0.962064
0.044436 0.302634 0.052164
0.044436 0.302634 0.090489
0.044436 0.302634 0.128813
0.044436 0.302634 0.167138
0.044436 0.302634 0.205462
0.044436 0.302634 0.243787
0.044436 0.302634 0.282111
0.044436 0.302634 0.320436
0.048944 0.298452 0.352944
0.053452 0.296310 0.385452
0.057960 0.295596 0.417960
0.062468 0.295921 0.450468
0.066976 0.297024 0.482976
0.071484 0.298727 0.515484
0.075992 0.300900 0.547992
0.080500 0.303450 0.580500
0.085008 0.306306 0.613008
0.089516 0.309414 0.645516
0.094024 0.312732 0.678024
0.098532 0.316227 0.710532
0.103040 0.319872 0.743040
0.107548 0.323646 0.775548
0.112056 0.327531 0.808056
0.116564 0.331513 0.840564
0.121072 0.335580 0.873072
0.125580 0.339721 0.905580
0.136712 0.347318 0.930312
0.164404 0.364106 0.935604
0.192096 0.381888 0.940896
0.219788 0.400561 0.946188
0.247480 0.420036 0.951480
0.275172 0.440235 0.956772
0.302864 0.461091 0.962064
0.048944 0.333336 0.057456
0.048944 0.333336 0.094392
0.048944 0.333336 0.131328
0.048944 0.333336 0.168264
0.048944 0.333336 0.205200
0.048944 0.333336 0.242136
0.048944 0.333336 0.279072
0.048944 0.333336 0.316008
0.048944 0.333336 0.352944
0.053452 0.330174 0.385452
0.057960 0.328644 0.417960
0.062468 0.328301 0.450468
0.066976 0.328848 0.482976
0.071484 0.330080 0.515484
0.075992 0.331850 0.547992
0.080500 0.334050 0.580500
0.085008 0.336600 0.613008
0.089516 0.339438 0.645516
0.094024 0.342516 0.678024
0.098532 0.345796 0.710532
0.103040 0.349248 0.743040
0.107548 0.352847 0.775548
0.112056 0.356573 0.808056
0.116564 0.360410 0.840564
0.121072 0.364344 0.873072
0.125580 0.368363 0.905580
0.136712 0.375282 0.930312
0.164404 0.390082 0.935604
0.192096 0.406018 0.940896
0.219788 0.422973 0.946188
0.247480 0.440844 0.951480
0.275172 0.459543 0.956772
0.302864 0.478992 0.962064
0.053452 0.364038 0.062748
0.053452 0.364038 0.098604
0.053452 0.364038 0.134460
0.053452 0.364038 0.170316
0.053452 0.364038 0.206172
0.053452 0.364038 0.242028
0.053452 0.364038 0.277884
0.053452 0.364038 0.313740
0.053452 0.364038 0.349596
0.053452 0.364038 0.385452
0.057960 0.361692 0.417960
0.062468 0.360681 0.450468
0.066976 0.360672 0.482976
0.071484 0.361433 0.515484
0.075992 0.362799 0.547992
0.080500 0.364650 0.580500
0.085008 0.366894 0.613008
0.089516 0.369462 0.645516
0.094024 0.372300 0.678024
0.098532 0.375365 0.710532
0.103040 0.378624 0.743040
0.107548 0.382048 0.775548
0.112056 0.385616 0.808056
0.116564 0.389307 0.840564
0.121072 0.393108 0.873072
0.125580 0.397004 0.905580
0.136712 0.403245 0.930312
0.164404 0.416058 0.935604
0.192096 0.430149 0.940896
0.219788 0.445385 0.946188
0.247480 0.461652 0.951480
0.275172 0.478851 0.956772
0.302864 0.496893 0.962064
0.057960 0.394740 0.068040
0.057960 0.394740 0.103032
0.057960 0.394740 0.138024
0.057960 0.394740 0.173016
0.057960 0.394740 0.208008
0.057960 0.394740 0.243000
0.057960 0.394740 0.277992
0.057960 0.394740 0.312984
0.057960 0.394740 0.347976
0.057960 0.394740 0.382968
0.057960 0.394740 0.417960
0.062468 0.393062 0.450468
0.066976 0.392496 0.482976
0.071484 0.392786 0.515484
0.075992 0.393749 0.547992
0.080500 0.395250 0.580500
0.085008 0.397188 0.613008
0.089516 0.399486 0.645516
0.094024 0.402084 0.678024
0.098532 0.404935 0.710532
0.103040 0.408000 0.743040
0.107548 0.411249 0.775548
0.112056 0.414658 0.808056
0.116564 0.418204 0.840564
0.121072 0.421872 0.873072
0.125580 0.425646 0.905580
0.136712 0.431209 0.930312
0.164404 0.442034 0.935604
0.192096 0.454279 0.940896
0.219788 0.467797 0.946188
0.247480 0.482460 0.951480
0.275172 0.498158 0.956772
0.302864 0.514794 0.962064
0.062468 0.425442 0.073332
0.062468 0.425442 0.107617
0.062468 0.425442 0.141902
0.062468 0.425442 0.176187
0.062468 0.425442 0.210472
0.062468 0.425442 0.244757
0.062468 0.425442 0.279043
0.062468 0.425442 0.313328
0.062468 0.425442 0.347613
0.062468 0.425442 0.381898
0.062468 0.425442 0.416183
0.062468 0.425442 0.450468
0.066976 0.424320 0.482976
0.071484 0.424140 0.515484
0.075992 0.424699 0.547992
0.080500 0.425850 0.580500
0.085008 0.427482 0.613008
0.089516 0.429510 0.645516
0.094024 0.431868 0.678024
0.098532 0.434504 0.710532
0.103040 0.437376 0.743040
0.107548 0.440451 0.775548
0.112056 0.443700 0.808056
0.116564 0.447101 0.840564
0.121072 0.450636 0.873072
0.125580 0.454288 0.905580
0.136712 0.459173 0.930312
0.164404 0.468010 0.935604
0.192096 0.478409 0.940896
0.219788 0.490208 0.946188
0.247480 0.503268 0.951480
0.275172 0.517466 0.956772
0.302864 0.532695 0.962064
0.066976 0.456144 0.078624
0.066976 0.456144 0.112320
0.066976 0.456144 0.146016
0.066976 0.456144 0.179712
0.066976 0.456144 0.213408
0.066976 0.456144 0.247104
0.066976 0.456144 0.280800
0.066976 0.456144 0.314496
0.066976 0.456144 0.348192
0.066976 0.456144 0.381888
0.066976 0.456144 0.415584
0.066976 0.456144 0.449280
0.066976 0.456144 0.482976
0.071484 0.455493 0.515484
0.075992 0.455649 0.547992
0.080500 0.456450 0.580500
0.085008 0.457776 0.613008
0.089516 0.459534 0.645516
0.094024 0.461652 0.678024
0.098532 0.464073 0.710532
0.103040 0.466752 0.743040
0.107548 0.469652 0.775548
0.112056 0.472742 0.808056
0.116564 0.475999 0.840564
0.121072 0.479400 0.873072
0.125580 0.482929 0.905580
0.136712 0.487136 0.930312
0.164404 0.493986 0.935604
0.192096 0.502539 0.940896
0.219788 0.512620 0.946188
0.247480 0.524076 0.951480
0.275172 0.536773 0.956772
0.302864 0.550596 0.962064
0.071484 0.486846 0.083916
0.071484 0.486846 0.117114
0.071484 0.486846 0.150311
0.071484 0.486846 0.183509
0.071484 0.486846 0.216706
0.071484 0.486846 0.249904
0.071484 0.486846 0.283101
0.071484 0.486846 0.316299
0.071484 0.486846 0.349496
0.071484 0.486846 0.382694
0.071484 0.486846 0.415891
0.071484 0.486846 0.449089
0.071484 0.486846 0.482286
0.071484 0.486846 0.515484
0.075992 0.486598 0.547992
0.080500 0.487050 0.580500
0.085008 0.488070 0.613008
0.089516 0.489558 0.645516
0.094024 0.491436 0.678024
0.098532 0.493642 0.710532
0.103040 0.496128 0.743040
0.107548 0.498853 0.775548
0.112056 0.501784 0.808056
0.116564 0.504896 0.840564
0.121072 0.508164 0.873072
0.125580 0.511571 0.905580
0.136712 0.515100 0.930312
0.164404 0.519962 0.935604
0.192096 0.526670 0.940896
0.219788 0.535032 0.946188
0.247480 0.544884 0.951480
0.275172 0.556081 0.956772
0.302864 0.568497 0.962064
0.075992 0.517548 0.089208
0.075992 0.517548 0.121978
0.075992 0.517548 0.154749
0.075992 0.517548 0.187519
0.075992 0.517548 0.220289
0.075992 0.517548 0.253059
0.075992 0.517548 0.285830
0.075992 0.517548 0.318600
0.075992 0.517548 0.351370
0.075992 0.517548 0.384141
0.075992 0.517548 0.416911
0.075992 0.517548 0.449681
0.075992 0.517548 0.482451
0.075992 0.517548 0.515222
0.075992 0.517548 0.547992
0.080500 0.517650 0.580500
0.085008 0.518364 0.613008
0.089516 0.519582 0.645516
0.094024 0.521220 0.678024
0.098532 0.523212 0.710532
0.103040 0.525504 0.743040
0.107548 0.528054 0.775548
0.112056 0.530827 0.808056
0.116564 0.533793 0.840564
0.121072 0.536928 0.873072
0.125580 0.540212 0.905580
0.136712 0.543064 0.930312
0.164404 0.545938 0.935604
0.192096 0.550800 0.940896
0.219788 0.557444 0.946188
0.247480 0.565692 0.951480
0.275172 0.575389 0.956772
0.302864 0.586398 0.962064
0.080500 0.548250 0.094500
0.080500 0.548250 0.126900
0.080500 0.548250 0.159300
0.080500 0.548250 0.191700
0.080500 0.548250 0.224100
0.080500 0.548250 0.256500
0.080500 0.548250 0.288900
0.080500 0.548250 0.321300
0.080500 0.548250 0.353700
0.080500 0.548250 0.386100
0.080500 0.548250 0.418500
0.080500 0.548250 0.450900
0.080500 0.548250 0.483300
0.080500 0.548250 0.515700
0.080500 0.548250 0.548100
0.080500 0.548250 0.580500
0.085008 0.548658 0.613008
0.089516 0.549606 0.645516
0.094024 0.551004 0.678024
0.098532 0.552781 0.710532
0.103040 0.554880 0.743040
0.107548 0.557255 0.775548
0.112056 0.559869 0.808056
0.116564 0.562690 0.840564
0.121072 0.565692 0.873072
0.125580 0.568854 0.905580
0.136712 0.571027 0.930312
0.164404 0.571914 0.935604
0.192096 0.574930 0.940896
0.219788 0.579856 0.946188
0.247480 0.586500 0.951480
0.275172 0.594696 0.956772
0.302864 0.604299 0.962064
0.085008 0.578952 0.099792
0.085008 0.578952 0.131868
0.085008 0.578952 0.163944
0.085008 0.578952 0.196020
0.085008 0.578952 0.228096
0.085008 0.578952 0.260172
0.085008 0.578952 0.292248
0.085008 0.578952 0.324324
0.085008 0.578952 0.356400
0.085008 0.578952 0.388476
0.085008 0.578952 0.420552
0.085008 0.578952 0.452628
0.085008 0.578952 0.484704
0.085008 0.578952 0.516780
0.085008 0.578952 0.548856
0.085008 0.578952 0.580932
0.085008 0.578952 0.613008
0.089516 0.579630 0.645516
0.094024 0.580788 0.678024
0.098532 0.582350 0.710532
0.103040 0.584256 0.743040
0.107548 0.586456 0.775548
0.112056 0.588911 0.808056
0.116564 0.591587 0.840564
0.121072 0.594456 0.873072
0.125580 0.597496 0.905580
0.136712 0.598991 0.930312
0.164404 0.597890 0.935604
0.192096 0.599061 0.940896
0.219788 0.602268 0.946188
0.247480 0.607308 0.951480
0.275172 0.614004 0.956772
0.302864 0.622200 0.962064
0.089516 0.609654 0.105084
0.089516 0.609654 0.136874
0.089516 0.609654 0.168664
0.089516 0.609654 0.200454
0.089516 0.609654 0.232244
0.089516 0.609654 0.264035
0.089516 0.609654 0.295825
0.089516 0.609654 0.327615
0.089516 0.609654 0.359405
0.089516 0.609654 0.391195
0.089516 0.609654 0.422985
0.089516 0.609654 0.454775
0.089516 0.609654 0.486565
0.089516 0.609654 0.518356
0.089516 0.609654 0.550146
0.089516 0.609654 0.581936
0.089516 0.609654 0.613726
0.089516 0.609654 0.645516
0.094024 0.610572 0.678024
0.098532 0.611919 0.710532
0.103040 0.613632 0.743040
0.107548 0.615657 0.775548
0.112056 0.617953 0.808056
0.116564 0.620484 0.840564
0.121072 0.623220 0.873072
0.125580 0.626137 0.905580
0.136712 0.626955 0.930312
0.164404 0.623866 0.935604
0.192096 0.623191 0.940896
0.219788 0.624680 0.946188
0.247480 0.628116 0.951480
0.275172 0.633311 0.956772
0.302864 0.640101 0.962064
0.094024 0.640356 0.110376
0.094024 0.640356 0.141912
0.094024 0.640356 0.173448
0.094024 0.640356 0.204984
0.094024 0.640356 0.236520
0.094024 0.640356 0.268056
0.094024 0.640356 0.299592
0.094024 0.640356 0.331128
0.094024 0.640356 0.362664
0.094024 0.640356 0.394200
0.094024 0.640356 0.425736
0.094024 0.640356 0.457272
0.094024 0.640356 0.488808
0.094024 0.640356 0.520344
0.094024 0.640356 0.551880
0.094024 0.640356 0.583416
0.094024 0.640356 0.614952
0.094024 0.640356 0.646488
0.094024 0.640356 0.678024
0.098532 0.641489 0.710532
0.103040 0.643008 0.743040
0.107548 0.644859 0.775548
0.112056 0.646995 0.808056
0.116564 0.649381 0.840564
0.121072 0.651984 0.873072
0.125580 0.654779 0.905580
0.136712 0.654918 0.930312
0.164404 0.649842 0.935604
0.192096 0.647321 0.940896
0.219788 0.647092 0.946188
0.247480 0.648924 0.951480
0.275172 0.652619 0.956772
0.302864 0.658002 0.962064
0.098532 0.671058 0.115668
0.098532 0.671058 0.146977
0.098532 0.671058 0.178285
0.098532 0.671058 0.209594
0.098532 0.671058 0.240903
0.098532 0.671058 0.272211
0.098532 0.671058 0.303520
0.098532 0.671058 0.334828
0.098532 0.671058 0.366137
0.098532 0.671058 0.397446
0.098532 0.671058 0.428754
0.098532 0.671058 0.460063
0.098532 0.671058 0.491372
0.098532 0.671058 0.522680
0.098532 0.671058 0.553989
0.098532 0.671058 0.585297
0.098532 0.671058 0.616606
0.098532 0.671058 0.647915
0.098532 0.671058 0.679223
0.098532 0.671058 0.710532
0.103040 0.672384 0.743040
0.107548 0.674060 0.775548
0.112056 0.676037 0.808056
0.116564 0.678278 0.840564
0.121072 0.680748 0.873072
0.125580 0.683420 0.905580
0.136712 0.682882 0.930312
0.164404 0.675818 0.935604
0.192096 0.671451 0.940896
0.219788 0.669503 0.946188
0.247480 0.669732 0.951480
0.275172 0.671927 0.956772
0.302864 0.675903 0.962064
0.103040 0.701760 0.120960
0.103040 0.701760 0.152064
0.103040 0.701760 0.183168
0.103040 0.701760 0.214272
0.103040 0.701760 0.245376
0.103040 0.701760 0.276480
0.103040 0.701760 0.307584
0.103040 0.701760 0.338688
0.103040 0.701760 0.369792
0.103040 0.701760 0.400896
0.103040 0.701760 0.432000
0.103040 0.701760 0.463104
0.103040 0.701760 0.494208
0.103040 0.701760 0.525312
0.103040 0.701760 0.556416
0.103040 0.701760 0.587520
0.103040 0.701760 0.618624
0.103040 0.701760 0.649728
0.103040 0.701760 0.680832
0.103040 0.701760 0.711936
0.103040 0.701760 0.743040
0.107548 0.703261 0.775548
0.112056 0.705080 0.808056
0.116564 0.707175 0.840564
0.121072 0.709512 0.873072
0.125580 0.712062 0.905580
0.136712 0.710846 0.930312
0.164404 0.701794 0.935604
0.192096 0.695582 0.940896
0.219788 0.691915 0.946188
0.247480 0.690540 0.951480
0.275172 0.691234 0.956772
0.302864 0.693804 0.962064
0.107548 0.732462 0.126252
0.107548 0.732462 0.157171
0.107548 0.732462 0.188090
0.107548 0.732462 0.219009
0.107548 0.732462 0.249927
0.107548 0.732462 0.280846
0.107548 0.732462 0.311765
0.107548 0.732462 0.342684
0.107548 0.732462 0.373603
0.107548 0.732462 0.404522
0.107548 0.732462 0.435441
0.107548 0.732462 0.466359
0.107548 0.732462 0.497278
0.107548 0.732462 0.528197
0.107548 0.732462 0.559116
0.107548 0.732462 0.590035
0.107548 0.732462 0.620954
0.107548 0.732462 0.651873
0.107548 0.732462 0.682791
0.107548 0.732462 0.713710
0.107548 0.732462 0.744629
0.107548 0.732462 0.775548
0.112056 0.734122 0.808056
0.116564 0.736072 0.840564
0.121072 0.738276 0.873072
0.125580 0.740704 0.905580
0.136712 0.738810 0.930312
0.164404 0.727770 0.935604
0.192096 0.719712 0.940896
0.219788 0.714327 0.946188
0.247480 0.711348 0.951480
0.275172 0.710542 0.956772
0.302864 0.711705 0.962064
0.112056 0.763164 0.131544
0.112056 0.763164 0.162295
0.112056 0.763164 0.193045
0.112056 0.763164 0.223796
0.112056 0.763164 0.254546
0.112056 0.763164 0.285297
0.112056 0.763164 0.316047
0.112056 0.763164 0.346798
0.112056 0.763164 0.377548
0.112056 0.763164 0.408299
0.112056 0.763164 0.439049
0.112056 0.763164 0.469800
0.112056 0.763164 0.500551
0.112056 0.763164 0.531301
0.112056 0.763164 0.562052
0.112056 0.763164 0.592802
0.112056 0.763164 0.623553
0.112056 0.763164 0.654303
0.112056 0.763164 0.685054
0.112056 0.763164 0.715804
0.112056 0.763164 0.746555
0.112056 0.763164 0.777305
0.112056 0.763164 0.808056
0.116564 0.764969 0.840564
0.121072 0.767040 0.873072
0.125580 0.769345 0.905580
0.136712 0.766773 0.930312
0.164404 0.753746 0.935604
0.192096 0.743842 0.940896
0.219788 0.736739 0.946188
0.247480 0.732156 0.951480
0.275172 0.729849 0.956772
0.302864 0.729606 0.962064
0.116564 0.793866 0.136836
0.116564 0.793866 0.167433
0.116564 0.793866 0.198030
0.116564 0.793866 0.228627
0.116564 0.793866 0.259223
0.116564 0.793866 0.289820
0.116564 0.793866 0.320417
0.116564 0.793866 0.351014
0.116564 0.793866 0.381611
0.116564 0.793866 0.412208
0.116564 0.793866 0.442805
0.116564 0.793866 0.473402
0.116564 0.793866 0.503998
0.116564 0.793866 0.534595
0.116564 0.793866 0.565192
0.116564 0.793866 0.595789
0.116564 0.793866 0.626386
0.116564 0.793866 0.656983
0.116564 0.793866 0.687580
0.116564 0.793866 0.718177
0.116564 0.793866 0.748773
0.116564 0.793866 0.779370
0.116564 0.793866 0.809967
0.116564 0.793866 0.840564
0.121072 0.795804 0.873072
0.125580 0.797987 0.905580
0.136712 0.794737 0.930312
0.164404 0.779722 0.935604
0.192096 0.767973 0.940896
0.219788 0.759151 0.946188
0.247480 0.752964 0.951480
0.275172 0.749157 0.956772
0.302864 0.747507 0.962064
0.121072 0.824568 0.142128
0.121072 0.824568 0.172584
0.121072 0.824568 0.203040
0.121072 0.824568 0.233496
0.121072 0.824568 0.263952
0.121072 0.824568 0.294408
0.121072 0.824568 0.324864
0.121072 0.824568 0.355320
0.121072 0.824568 0.385776
0.121072 0.824568 0.416232
0.121072 0.824568 0.446688
0.121072 0.824568 0.477144
0.121072 0.824568 0.507600
0.121072 0.824568 0.538056
0.121072 0.824568 0.568512
0.121072 0.824568 0.598968
0.121072 0.824568 0.629424
0.121072 0.824568 0.659880
0.121072 0.824568 0.690336
0.121072 0.824568 0.720792
0.121072 0.824568 0.751248
0.121072 0.824568 0.781704
0.121072 0.824568 0.812160
0.121072 0.824568 0.842616
0.121072 0.824568 0.873072
0.125580 0.826628 0.905580
0.136712 0.822701 0.930312
0.164404 0.805698 0.935604
0.192096 0.792103 0.940896
0.219788 0.781563 0.946188
0.247480 0.773772 0.951480
0.275172 0.768465 0.956772
0.302864 0.765408 0.962064
0.125580 0.855270 0.147420
0.125580 0.855270 0.177746
0.125580 0.855270 0.208073
0.125580 0.855270 0.238399
0.125580 0.855270 0.268726
0.125580 0.855270 0.299052
0.125580 0.855270 0.329378
0.125580 0.855270 0.359705
0.125580 0.855270 0.390031
0.125580 0.855270 0.420358
0.125580 0.855270 0.450684
0.125580 0.855270 0.481010
0.125580 0.855270 0.511337
0.125580 0.855270 0.541663
0.125580 0.855270 0.571990
0.125580 0.855270 0.602316
0.125580 0.855270 0.632642
0.125580 0.855270 0.662969
0.125580 0.855270 0.693295
0.125580 0.855270 0.723622
0.125580 0.855270 0.753948
0.125580 0.855270 0.784274
0.125580 0.855270 0.814601
0.125580 0.855270 0.844927
0.125580 0.855270 0.875254
0.125580 0.855270 0.905580
0.136712 0.850664 0.930312
0.164404 0.831674 0.935604
0.192096 0.816233 0.940896
0.219788 0.803975 0.946188
0.247480 0.794580 0.951480
0.275172 0.787772 0.956772
0.302864 0.783309 0.962064
0.136712 0.878628 0.160488
0.136712 0.878628 0.190097
0.136712 0.878628 0.219705
0.136712 0.878628 0.249314
0.136712 0.878628 0.278922
0.136712 0.878628 0.308531
0.136712 0.878628 0.338140
0.136712 0.878628 0.367748
0.136712 0.878628 0.397357
0.136712 0.878628 0.426966
0.136712 0.878628 0.456574
0.136712 0.878628 0.486183
0.136712 0.878628 0.515791
0.136712 0.878628 0.545400
0.136712 0.878628 0.575009
0.136712 0.878628 0.604617
0.136712 0.878628 0.634226
0.136712 0.878628 0.663834
0.136712 0.878628 0.693443
0.136712 0.878628 0.723052
0.136712 0.878628 0.752660
0.136712 0.878628 0.782269
0.136712 0.878628 0.811878
0.136712 0.878628 0.841486
0.136712 0.878628 0.871095
