src/flutter_app/assets/presets/jp-fresh.cube
# PoseCraft LUT preset
# Generated automatically for Phase 1
TITLE "PoseCraft Preset"
LUT_3D_SIZE 5
DOMAIN_MIN 0.0 0.0 0.0
DOMAIN_MAX 1.0 1.0 1.0
0.046000 0.051000 0.054000
0.048944 0.054264 0.352944
0.085008 0.094248 0.613008
0.121072 0.134232 0.873072
0.302864 0.335784 0.962064
0.048944 0.333336 0.057456
0.048944 0.333336 0.352944
0.085008 0.336600 0.613008
0.121072 0.364344 0.873072
0.302864 0.478992 0.962064
0.085008 0.578952 0.099792
0.085008 0.578952 0.356400
0.085008 0.578952 0.613008
0.121072 0.594456 0.873072
0.302864 0.622200 0.962064
0.121072 0.824568 0.142128
0.121072 0.824568 0.385776
0.121072 0.824568 0.629424
0.121072 0.824568 0.873072
0.302864 0.765408 0.962064
0.302864 0.908616 0.355536
0.302864 0.908616 0.507168
0.302864 0.908616 0.658800
0.302864 0.908616 0.810432
0.302864 0.908616 0.962064
0.300656 0.054264 0.057456
0.300656 0.054264 0.352944
0.303600 0.094248 0.613008
0.328624 0.134232 0.873072
0.432032 0.335784 0.962064
0.300656 0.333336 0.057456
0.303600 0.336600 0.356400
0.328624 0.364344 0.629424
0.432032 0.478992 0.810432
0.524400 0.581400 1.004400
0.303600 0.578952 0.099792
0.328624 0.594456 0.385776
0.328624 0.594456 0.629424
0.432032 0.622200 0.810432
0.524400 0.703800 1.004400
0.328624 0.824568 0.142128
0.432032 0.765408 0.507168
0.432032 0.765408 0.658800
0.432032 0.765408 0.810432
0.524400 0.826200 1.004400
0.432032 0.908616 0.355536
0.524400 0.948600 0.615600
0.524400 0.948600 0.745200
0.524400 0.948600 0.874800
0.524400 0.948600 1.004400
0.522192 0.094248 0.099792
0.522192 0.094248 0.356400
0.522192 0.094248 0.613008
0.536176 0.134232 0.873072
0.561200 0.335784 0.962064
0.522192 0.336600 0.099792
0.536176 0.364344 0.385776
0.536176 0.364344 0.629424
0.561200 0.478992 0.810432
0.634800 0.581400 1.004400
0.522192 0.578952 0.099792
0.536176 0.594456 0.385776
0.561200 0.622200 0.658800
0.634800 0.703800 0.874800
0.745936 0.827016 1.046736
0.536176 0.824568 0.142128
0.561200 0.765408 0.507168
0.634800 0.826200 0.745200
0.634800 0.826200 0.874800
0.745936 0.907800 1.046736
0.561200 0.908616 0.355536
0.634800 0.948600 0.615600
0.745936 0.988584 0.875664
0.745936 0.988584 0.961200
0.745936 0.988584 1.046736
0.743728 0.134232 0.142128
0.743728 0.134232 0.385776
0.743728 0.134232 0.629424
0.743728 0.134232 0.873072
0.690368 0.335784 0.962064
0.743728 0.364344 0.142128
0.690368 0.478992 0.507168
0.690368 0.478992 0.658800
0.690368 0.478992 0.810432
0.745200 0.581400 1.004400
0.743728 0.594456 0.142128
0.690368 0.622200 0.507168
0.745200 0.703800 0.745200
0.745200 0.703800 0.874800
0.818800 0.827016 1.046736
0.743728 0.824568 0.142128
0.690368 0.765408 0.507168
0.745200 0.826200 0.745200
0.818800 0.907800 0.961200
0.920000 1.020000 1.080000
0.690368 0.908616 0.355536
0.745200 0.948600 0.615600
0.818800 0.988584 0.875664
0.920000 1.020000 1.080000
0.920000 1.020000 1.080000
0.819536 0.335784 0.355536
0.819536 0.335784 0.507168
0.819536 0.335784 0.658800
0.819536 0.335784 0.810432
0.819536 0.335784 0.962064
0.819536 0.478992 0.355536
0.855600 0.581400 0.615600
0.855600 0.581400 0.745200
0.855600 0.581400 0.874800
0.855600 0.581400 1.004400
0.819536 0.622200 0.355536
0.855600 0.703800 0.615600
0.891664 0.827016 0.875664
0.891664 0.827016 0.961200
0.891664 0.827016 1.046736
0.819536 0.765408 0.355536
0.855600 0.826200 0.615600
0.891664 0.907800 0.875664
0.920000 1.020000 1.080000
0.920000 1.020000 1.080000
0.819536 0.908616 0.355536
0.855600 0.948600 0.615600
0.891664 0.988584 0.875664
0.920000 1.020000 1.080000
0.920000 1.020000 1.080000
