src/flutter_app/assets/presets/moody-gray.cube
# PoseCraft LUT preset
# Generated automatically for Phase 1
TITLE "PoseCraft Preset"
LUT_3D_SIZE 33
DOMAIN_MIN 0.0 0.0 0.0
DOMAIN_MAX 1.0 1.0 1.0
0.030600 0.030000 0.029400
0.032704 0.032063 0.055860
0.043376 0.042525 0.074088
0.054047 0.052987 0.092316
0.064719 0.063450 0.110544
0.075391 0.073912 0.128772
0.086063 0.084375 0.147000
0.096734 0.094837 0.165228
0.107406 0.105300 0.183456
0.118078 0.115763 0.201684
0.128750 0.126225 0.219912
0.139421 0.136687 0.238140
0.150093 0.147150 0.256368
0.160765 0.157612 0.274596
0.171437 0.168075 0.292824
0.182108 0.178538 0.311052
0.192780 0.189000 0.329280
0.203452 0.199462 0.347508
0.214124 0.209925 0.365736
0.224795 0.220388 0.383964
0.235467 0.230850 0.402192
0.246139 0.241313 0.420420
0.256811 0.251775 0.438648
0.267482 0.262238 0.456876
0.278154 0.272700 0.475104
0.288826 0.283162 0.493332
0.299498 0.293625 0.511560
0.310169 0.304087 0.529788
0.320841 0.314550 0.548016
0.331513 0.325013 0.566244
0.342184 0.335475 0.584472
0.352856 0.345938 0.602700
0.363528 0.356400 0.620928
0.032704 0.057000 0.031421
0.032704 0.057000 0.055860
0.043376 0.059062 0.074088
0.054047 0.066725 0.092316
0.064719 0.075787 0.110544
0.075391 0.085410 0.128772
0.086063 0.095312 0.147000
0.096734 0.105375 0.165228
0.107406 0.115537 0.183456
0.118078 0.125767 0.201684
0.128750 0.136042 0.219912
0.139421 0.146352 0.238140
0.150093 0.156687 0.256368
0.160765 0.167042 0.274596
0.171437 0.177413 0.292824
0.182108 0.187795 0.311052
0.192780 0.198187 0.329280
0.203452 0.208588 0.347508
0.214124 0.218996 0.365736
0.224795 0.229409 0.383964
0.235467 0.239827 0.402192
0.246139 0.250250 0.420420
0.256811 0.260676 0.438648
0.267482 0.271105 0.456876
0.278154 0.281537 0.475104
0.288826 0.291972 0.493332
0.299498 0.302409 0.511560
0.310169 0.312847 0.529788
0.320841 0.323287 0.548016
0.331513 0.333729 0.566244
0.342184 0.344172 0.584472
0.352856 0.354617 0.602700
0.363528 0.365062 0.620928
0.043376 0.075600 0.041675
0.043376 0.075600 0.057881
0.043376 0.075600 0.074088
0.054047 0.080462 0.092316
0.064719 0.088125 0.110544
0.075391 0.096907 0.128772
0.086063 0.106250 0.147000
0.096734 0.115912 0.165228
0.107406 0.125775 0.183456
0.118078 0.135771 0.201684
0.128750 0.145860 0.219912
0.139421 0.156017 0.238140
0.150093 0.166225 0.256368
0.160765 0.176472 0.274596
0.171437 0.186750 0.292824
0.182108 0.197052 0.311052
0.192780 0.207375 0.329280
0.203452 0.217714 0.347508
0.214124 0.228067 0.365736
0.224795 0.238431 0.383964
0.235467 0.248805 0.402192
0.246139 0.259187 0.420420
0.256811 0.269577 0.438648
0.267482 0.279973 0.456876
0.278154 0.290375 0.475104
0.288826 0.300781 0.493332
0.299498 0.311192 0.511560
0.310169 0.321607 0.529788
0.320841 0.332025 0.548016
0.331513 0.342446 0.566244
0.342184 0.352870 0.584472
0.352856 0.363296 0.602700
0.363528 0.373725 0.620928
0.054047 0.094200 0.051928
0.054047 0.094200 0.065391
0.054047 0.094200 0.078853
0.054047 0.094200 0.092316
0.064719 0.100463 0.110544
0.075391 0.108405 0.128772
0.086063 0.117187 0.147000
0.096734 0.126450 0.165228
0.107406 0.136012 0.183456
0.118078 0.145775 0.201684
0.128750 0.155677 0.219912
0.139421 0.165682 0.238140
0.150093 0.175762 0.256368
0.160765 0.185902 0.274596
0.171437 0.196088 0.292824
0.182108 0.206310 0.311052
0.192780 0.216562 0.329280
0.203452 0.226840 0.347508
0.214124 0.237137 0.365736
0.224795 0.247453 0.383964
0.235467 0.257782 0.402192
0.246139 0.268125 0.420420
0.256811 0.278478 0.438648
0.267482 0.288841 0.456876
0.278154 0.299212 0.475104
0.288826 0.309591 0.493332
0.299498 0.319976 0.511560
0.310169 0.330367 0.529788
0.320841 0.340762 0.548016
0.331513 0.351163 0.566244
0.342184 0.361567 0.584472
0.352856 0.371976 0.602700
0.363528 0.382387 0.620928
0.064719 0.112800 0.062181
0.064719 0.112800 0.074272
0.064719 0.112800 0.086363
0.064719 0.112800 0.098453
0.064719 0.112800 0.110544
0.075391 0.119902 0.128772
0.086063 0.128125 0.147000
0.096734 0.136987 0.165228
0.107406 0.146250 0.183456
0.118078 0.155779 0.201684
0.128750 0.165495 0.219912
0.139421 0.175347 0.238140
0.150093 0.185300 0.256368
0.160765 0.195332 0.274596
0.171437 0.205425 0.292824
0.182108 0.215567 0.311052
0.192780 0.225750 0.329280
0.203452 0.235965 0.347508
0.214124 0.246208 0.365736
0.224795 0.256474 0.383964
0.235467 0.266760 0.402192
0.246139 0.277063 0.420420
0.256811 0.287380 0.438648
0.267482 0.297709 0.456876
0.278154 0.308050 0.475104
0.288826 0.318400 0.493332
0.299498 0.328760 0.511560
0.310169 0.339126 0.529788
0.320841 0.349500 0.548016
0.331513 0.359880 0.566244
0.342184 0.370265 0.584472
0.352856 0.380655 0.602700
0.363528 0.391050 0.620928
0.075391 0.131400 0.072434
0.075391 0.131400 0.083702
0.075391 0.131400 0.094969
0.075391 0.131400 0.106237
0.075391 0.131400 0.117504
0.075391 0.131400 0.128772
0.086063 0.139062 0.147000
0.096734 0.147525 0.165228
0.107406 0.156487 0.183456
0.118078 0.165783 0.201684
0.128750 0.175312 0.219912
0.139421 0.185011 0.238140
0.150093 0.194837 0.256368
0.160765 0.204762 0.274596
0.171437 0.214763 0.292824
0.182108 0.224825 0.311052
0.192780 0.234937 0.329280
0.203452 0.245091 0.347508
0.214124 0.255279 0.365736
0.224795 0.265496 0.383964
0.235467 0.275737 0.402192
0.246139 0.286000 0.420420
0.256811 0.296281 0.438648
0.267482 0.306577 0.456876
0.278154 0.316887 0.475104
0.288826 0.327210 0.493332
0.299498 0.337543 0.511560
0.310169 0.347886 0.529788
0.320841 0.358237 0.548016
0.331513 0.368597 0.566244
0.342184 0.378962 0.584472
0.352856 0.389335 0.602700
0.363528 0.399712 0.620928
0.086063 0.150000 0.082687
0.086063 0.150000 0.093406
0.086063 0.150000 0.104125
0.086063 0.150000 0.114844
0.086063 0.150000 0.125562
0.086063 0.150000 0.136281
0.086063 0.150000 0.147000
0.096734 0.158062 0.165228
0.107406 0.166725 0.183456
0.118078 0.175787 0.201684
0.128750 0.185130 0.219912
0.139421 0.194676 0.238140
0.150093 0.204375 0.256368
0.160765 0.214191 0.274596
0.171437 0.224100 0.292824
0.182108 0.234082 0.311052
0.192780 0.244125 0.329280
0.203452 0.254217 0.347508
0.214124 0.264350 0.365736
0.224795 0.274518 0.383964
0.235467 0.284715 0.402192
0.246139 0.294937 0.420420
0.256811 0.305182 0.438648
0.267482 0.315445 0.456876
0.278154 0.325725 0.475104
0.288826 0.336020 0.493332
0.299498 0.346327 0.511560
0.310169 0.356646 0.529788
0.320841 0.366975 0.548016
0.331513 0.377313 0.566244
0.342184 0.387660 0.584472
0.352856 0.398014 0.602700
0.363528 0.408375 0.620928
0.096734 0.168600 0.092941
0.096734 0.168600 0.103267
0.096734 0.168600 0.113594
0.096734 0.168600 0.123921
0.096734 0.168600 0.134248
0.096734 0.168600 0.144575
0.096734 0.168600 0.154901
0.096734 0.168600 0.165228
0.107406 0.176962 0.183456
0.118078 0.185792 0.201684
0.128750 0.194948 0.219912
0.139421 0.204341 0.238140
0.150093 0.213913 0.256368
0.160765 0.223621 0.274596
0.171437 0.233437 0.292824
0.182108 0.243340 0.311052
0.192780 0.253312 0.329280
0.203452 0.263343 0.347508
0.214124 0.273421 0.365736
0.224795 0.283539 0.383964
0.235467 0.293693 0.402192
0.246139 0.303875 0.420420
0.256811 0.314083 0.438648
0.267482 0.324313 0.456876
0.278154 0.334562 0.475104
0.288826 0.344829 0.493332
0.299498 0.355111 0.511560
0.310169 0.365406 0.529788
0.320841 0.375712 0.548016
0.331513 0.386030 0.566244
0.342184 0.396357 0.584472
0.352856 0.406694 0.602700
0.363528 0.417037 0.620928
0.107406 0.187200 0.103194
0.107406 0.187200 0.113227
0.107406 0.187200 0.123259
0.107406 0.187200 0.133292
0.107406 0.187200 0.143325
0.107406 0.187200 0.153358
0.107406 0.187200 0.163391
0.107406 0.187200 0.173423
0.107406 0.187200 0.183456
0.118078 0.195796 0.201684
0.128750 0.204765 0.219912
0.139421 0.214006 0.238140
0.150093 0.223450 0.256368
0.160765 0.233051 0.274596
0.171437 0.242775 0.292824
0.182108 0.252597 0.311052
0.192780 0.262500 0.329280
0.203452 0.272468 0.347508
0.214124 0.282492 0.365736
0.224795 0.292561 0.383964
0.235467 0.302670 0.402192
0.246139 0.312813 0.420420
0.256811 0.322984 0.438648
0.267482 0.333181 0.456876
0.278154 0.343400 0.475104
0.288826 0.353638 0.493332
0.299498 0.363894 0.511560
0.310169 0.374165 0.529788
0.320841 0.384450 0.548016
0.331513 0.394747 0.566244
0.342184 0.405055 0.584472
0.352856 0.415373 0.602700
0.363528 0.425700 0.620928
0.118078 0.205800 0.113447
0.118078 0.205800 0.123251
0.118078 0.205800 0.133055
0.118078 0.205800 0.142860
0.118078 0.205800 0.152664
0.118078 0.205800 0.162468
0.118078 0.205800 0.172272
0.118078 0.205800 0.182076
0.118078 0.205800 0.191880
0.118078 0.205800 0.201684
0.128750 0.214582 0.219912
0.139421 0.223670 0.238140
0.150093 0.232988 0.256368
0.160765 0.242481 0.274596
0.171437 0.252112 0.292824
0.182108 0.261855 0.311052
0.192780 0.271688 0.329280
0.203452 0.281594 0.347508
0.214124 0.291563 0.365736
0.224795 0.301583 0.383964
0.235467 0.311647 0.402192
0.246139 0.321750 0.420420
0.256811 0.331885 0.438648
0.267482 0.342049 0.456876
0.278154 0.352238 0.475104
0.288826 0.362448 0.493332
0.299498 0.372678 0.511560
0.310169 0.382925 0.529788
0.320841 0.393188 0.548016
0.331513 0.403464 0.566244
0.342184 0.413752 0.584472
0.352856 0.424052 0.602700
0.363528 0.434362 0.620928
0.128750 0.224400 0.123701
0.128750 0.224400 0.133322
0.128750 0.224400 0.142943
0.128750 0.224400 0.152564
0.128750 0.224400 0.162185
0.128750 0.224400 0.171806
0.128750 0.224400 0.181427
0.128750 0.224400 0.191049
0.128750 0.224400 0.200670
0.128750 0.224400 0.210291
0.128750 0.224400 0.219912
0.139421 0.233335 0.238140
0.150093 0.242525 0.256368
0.160765 0.251911 0.274596
0.171437 0.261450 0.292824
0.182108 0.271112 0.311052
0.192780 0.280875 0.329280
0.203452 0.290720 0.347508
0.214124 0.300633 0.365736
0.224795 0.310605 0.383964
0.235467 0.320625 0.402192
0.246139 0.330687 0.420420
0.256811 0.340786 0.438648
0.267482 0.350917 0.456876
0.278154 0.361075 0.475104
0.288826 0.371258 0.493332
0.299498 0.381462 0.511560
0.310169 0.391685 0.529788
0.320841 0.401925 0.548016
0.331513 0.412181 0.566244
0.342184 0.422450 0.584472
0.352856 0.432732 0.602700
0.363528 0.443025 0.620928
0.139421 0.243000 0.133954
0.139421 0.243000 0.143425
0.139421 0.243000 0.152897
0.139421 0.243000 0.162368
0.139421 0.243000 0.171840
0.139421 0.243000 0.181311
0.139421 0.243000 0.190783
0.139421 0.243000 0.200254
0.139421 0.243000 0.209726
0.139421 0.243000 0.219197
0.139421 0.243000 0.228669
0.139421 0.243000 0.238140
0.150093 0.252062 0.256368
0.160765 0.261340 0.274596
0.171437 0.270788 0.292824
0.182108 0.280370 0.311052
0.192780 0.290062 0.329280
0.203452 0.299846 0.347508
0.214124 0.309704 0.365736
0.224795 0.319626 0.383964
0.235467 0.329602 0.402192
0.246139 0.339625 0.420420
0.256811 0.349687 0.438648
0.267482 0.359785 0.456876
0.278154 0.369912 0.475104
0.288826 0.380067 0.493332
0.299498 0.390245 0.511560
0.310169 0.400444 0.529788
0.320841 0.410662 0.548016
0.331513 0.420897 0.566244
0.342184 0.431148 0.584472
0.352856 0.441411 0.602700
0.363528 0.451687 0.620928
0.150093 0.261600 0.144207
0.150093 0.261600 0.153554
0.150093 0.261600 0.162901
0.150093 0.261600 0.172247
0.150093 0.261600 0.181594
0.150093 0.261600 0.190941
0.150093 0.261600 0.200288
0.150093 0.261600 0.209634
0.150093 0.261600 0.218981
0.150093 0.261600 0.228328
0.150093 0.261600 0.237675
0.150093 0.261600 0.247021
0.150093 0.261600 0.256368
0.160765 0.270770 0.274596
0.171437 0.280125 0.292824
0.182108 0.289627 0.311052
0.192780 0.299250 0.329280
0.203452 0.308971 0.347508
0.214124 0.318775 0.365736
0.224795 0.328648 0.383964
0.235467 0.338580 0.402192
0.246139 0.348562 0.420420
0.256811 0.358589 0.438648
0.267482 0.368653 0.456876
0.278154 0.378750 0.475104
0.288826 0.388876 0.493332
0.299498 0.399029 0.511560
0.310169 0.409204 0.529788
0.320841 0.419400 0.548016
0.331513 0.429614 0.566244
0.342184 0.439845 0.584472
0.352856 0.450091 0.602700
0.363528 0.460350 0.620928
0.160765 0.280200 0.154460
0.160765 0.280200 0.163701
0.160765 0.280200 0.172943
0.160765 0.280200 0.182184
0.160765 0.280200 0.191425
0.160765 0.280200 0.200666
0.160765 0.280200 0.209908
0.160765 0.280200 0.219149
0.160765 0.280200 0.228390
0.160765 0.280200 0.237631
0.160765 0.280200 0.246872
0.160765 0.280200 0.256114
0.160765 0.280200 0.265355
0.160765 0.280200 0.274596
0.171437 0.289463 0.292824
0.182108 0.298885 0.311052
0.192780 0.308437 0.329280
0.203452 0.318097 0.347508
0.214124 0.327846 0.365736
0.224795 0.337670 0.383964
0.235467 0.347557 0.402192
0.246139 0.357500 0.420420
0.256811 0.367490 0.438648
0.267482 0.377521 0.456876
0.278154 0.387587 0.475104
0.288826 0.397686 0.493332
0.299498 0.407812 0.511560
0.310169 0.417964 0.529788
0.320841 0.428137 0.548016
0.331513 0.438331 0.566244
0.342184 0.448542 0.584472
0.352856 0.458770 0.602700
0.363528 0.469012 0.620928
0.171437 0.298800 0.164714
0.171437 0.298800 0.173864
0.171437 0.298800 0.183015
0.171437 0.298800 0.192166
0.171437 0.298800 0.201317
0.171437 0.298800 0.210467
0.171437 0.298800 0.219618
0.171437 0.298800 0.228769
0.171437 0.298800 0.237920
0.171437 0.298800 0.247070
0.171437 0.298800 0.256221
0.171437 0.298800 0.265372
0.171437 0.298800 0.274523
0.171437 0.298800 0.283673
0.171437 0.298800 0.292824
0.182108 0.308142 0.311052
0.192780 0.317625 0.329280
0.203452 0.327223 0.347508
0.214124 0.336917 0.365736
0.224795 0.346691 0.383964
0.235467 0.356535 0.402192
0.246139 0.366437 0.420420
0.256811 0.376391 0.438648
0.267482 0.386389 0.456876
0.278154 0.396425 0.475104
0.288826 0.406495 0.493332
0.299498 0.416596 0.511560
0.310169 0.426724 0.529788
0.320841 0.436875 0.548016
0.331513 0.447048 0.566244
0.342184 0.457240 0.584472
0.352856 0.467450 0.602700
0.363528 0.477675 0.620928
0.182108 0.317400 0.174967
0.182108 0.317400 0.184039
0.182108 0.317400 0.193111
0.182108 0.317400 0.202184
0.182108 0.317400 0.211256
0.182108 0.317400 0.220329
0.182108 0.317400 0.229401
0.182108 0.317400 0.238473
0.182108 0.317400 0.247546
0.182108 0.317400 0.256618
0.182108 0.317400 0.265690
0.182108 0.317400 0.274763
0.182108 0.317400 0.283835
0.182108 0.317400 0.292907
0.182108 0.317400 0.301980
0.182108 0.317400 0.311052
0.192780 0.326813 0.329280
0.203452 0.336349 0.347508
0.214124 0.345988 0.365736
0.224795 0.355713 0.383964
0.235467 0.365513 0.402192
0.246139 0.375375 0.420420
0.256811 0.385292 0.438648
0.267482 0.395257 0.456876
0.278154 0.405262 0.475104
0.288826 0.415305 0.493332
0.299498 0.425380 0.511560
0.310169 0.435483 0.529788
0.320841 0.445612 0.548016
0.331513 0.455765 0.566244
0.342184 0.465937 0.584472
0.352856 0.476129 0.602700
0.363528 0.486337 0.620928
0.192780 0.336000 0.185220
0.192780 0.336000 0.194224
0.192780 0.336000 0.203228
0.192780 0.336000 0.212231
0.192780 0.336000 0.221235
0.192780 0.336000 0.230239
0.192780 0.336000 0.239242
0.192780 0.336000 0.248246
0.192780 0.336000 0.257250
0.192780 0.336000 0.266254
0.192780 0.336000 0.275258
0.192780 0.336000 0.284261
0.192780 0.336000 0.293265
0.192780 0.336000 0.302269
0.192780 0.336000 0.311273
0.192780 0.336000 0.320276
0.192780 0.336000 0.329280
0.203452 0.345474 0.347508
0.214124 0.355058 0.365736
0.224795 0.364735 0.383964
0.235467 0.374490 0.402192
0.246139 0.384313 0.420420
0.256811 0.394193 0.438648
0.267482 0.404124 0.456876
0.278154 0.414100 0.475104
0.288826 0.424115 0.493332
0.299498 0.434163 0.511560
0.310169 0.444243 0.529788
0.320841 0.454350 0.548016
0.331513 0.464481 0.566244
0.342184 0.474635 0.584472
0.352856 0.484808 0.602700
0.363528 0.495000 0.620928
0.203452 0.354600 0.195473
0.203452 0.354600 0.204416
0.203452 0.354600 0.213360
0.203452 0.354600 0.222303
0.203452 0.354600 0.231246
0.203452 0.354600 0.240189
0.203452 0.354600 0.249133
0.203452 0.354600 0.258076
0.203452 0.354600 0.267019
0.203452 0.354600 0.275962
0.203452 0.354600 0.284905
0.203452 0.354600 0.293849
0.203452 0.354600 0.302792
0.203452 0.354600 0.311735
0.203452 0.354600 0.320678
0.203452 0.354600 0.329622
0.203452 0.354600 0.338565
0.203452 0.354600 0.347508
0.214124 0.364129 0.365736
0.224795 0.373757 0.383964
0.235467 0.383468 0.402192
0.246139 0.393250 0.420420
0.256811 0.403094 0.438648
0.267482 0.412992 0.456876
0.278154 0.422938 0.475104
0.288826 0.432924 0.493332
0.299498 0.442947 0.511560
0.310169 0.453003 0.529788
0.320841 0.463087 0.548016
0.331513 0.473198 0.566244
0.342184 0.483332 0.584472
0.352856 0.493488 0.602700
0.363528 0.503662 0.620928
0.214124 0.373200 0.205727
0.214124 0.373200 0.214616
0.214124 0.373200 0.223505
0.214124 0.373200 0.232395
0.214124 0.373200 0.241284
0.214124 0.373200 0.250174
0.214124 0.373200 0.259063
0.214124 0.373200 0.267952
0.214124 0.373200 0.276842
0.214124 0.373200 0.285731
0.214124 0.373200 0.294621
0.214124 0.373200 0.303510
0.214124 0.373200 0.312399
0.214124 0.373200 0.321289
0.214124 0.373200 0.330178
0.214124 0.373200 0.339068
0.214124 0.373200 0.347957
0.214124 0.373200 0.356847
0.214124 0.373200 0.365736
0.224795 0.382778 0.383964
0.235467 0.392445 0.402192
0.246139 0.402187 0.420420
0.256811 0.411995 0.438648
0.267482 0.421860 0.456876
0.278154 0.431775 0.475104
0.288826 0.441733 0.493332
0.299498 0.451731 0.511560
0.310169 0.461762 0.529788
0.320841 0.471825 0.548016
0.331513 0.481915 0.566244
0.342184 0.492030 0.584472
0.352856 0.502167 0.602700
0.363528 0.512325 0.620928
0.224795 0.391800 0.215980
0.224795 0.391800 0.224821
0.224795 0.391800 0.233662
0.224795 0.391800 0.242504
0.224795 0.391800 0.251345
0.224795 0.391800 0.260186
0.224795 0.391800 0.269027
0.224795 0.391800 0.277869
0.224795 0.391800 0.286710
0.224795 0.391800 0.295551
0.224795 0.391800 0.304393
0.224795 0.391800 0.313234
0.224795 0.391800 0.322075
0.224795 0.391800 0.330916
0.224795 0.391800 0.339758
0.224795 0.391800 0.348599
0.224795 0.391800 0.357440
0.224795 0.391800 0.366281
0.224795 0.391800 0.375123
0.224795 0.391800 0.383964
0.235467 0.401423 0.402192
0.246139 0.411125 0.420420
0.256811 0.420897 0.438648
0.267482 0.430728 0.456876
0.278154 0.440613 0.475104
0.288826 0.450543 0.493332
0.299498 0.460514 0.511560
0.310169 0.470522 0.529788
0.320841 0.480563 0.548016
0.331513 0.490632 0.566244
0.342184 0.500727 0.584472
0.352856 0.510847 0.602700
0.363528 0.520987 0.620928
0.235467 0.410400 0.226233
0.235467 0.410400 0.235031
0.235467 0.410400 0.243829
0.235467 0.410400 0.252627
0.235467 0.410400 0.261425
0.235467 0.410400 0.270223
0.235467 0.410400 0.279021
0.235467 0.410400 0.287819
0.235467 0.410400 0.296617
0.235467 0.410400 0.305415
0.235467 0.410400 0.314213
0.235467 0.410400 0.323010
0.235467 0.410400 0.331808
0.235467 0.410400 0.340606
0.235467 0.410400 0.349404
0.235467 0.410400 0.358202
0.235467 0.410400 0.367000
0.235467 0.410400 0.375798
0.235467 0.410400 0.384596
0.235467 0.410400 0.393394
0.235467 0.410400 0.402192
0.246139 0.420063 0.420420
0.256811 0.429798 0.438648
0.267482 0.439596 0.456876
0.278154 0.449450 0.475104
0.288826 0.459353 0.493332
0.299498 0.469298 0.511560
0.310169 0.479282 0.529788
0.320841 0.489300 0.548016
0.331513 0.499349 0.566244
0.342184 0.509425 0.584472
0.352856 0.519526 0.602700
0.363528 0.529650 0.620928
0.246139 0.429000 0.236486
0.246139 0.429000 0.245245
0.246139 0.429000 0.254004
0.246139 0.429000 0.262763
0.246139 0.429000 0.271521
0.246139 0.429000 0.280280
0.246139 0.429000 0.289039
0.246139 0.429000 0.297798
0.246139 0.429000 0.306556
0.246139 0.429000 0.315315
0.246139 0.429000 0.324074
0.246139 0.429000 0.332833
0.246139 0.429000 0.341591
0.246139 0.429000 0.350350
0.246139 0.429000 0.359109
0.246139 0.429000 0.367868
0.246139 0.429000 0.376626
0.246139 0.429000 0.385385
0.246139 0.429000 0.394144
0.246139 0.429000 0.402903
0.246139 0.429000 0.411661
0.246139 0.429000 0.420420
0.256811 0.438699 0.438648
0.267482 0.448464 0.456876
0.278154 0.458287 0.475104
0.288826 0.468162 0.493332
0.299498 0.478082 0.511560
0.310169 0.488042 0.529788
0.320841 0.498038 0.548016
0.331513 0.508066 0.566244
0.342184 0.518123 0.584472
0.352856 0.528206 0.602700
0.363528 0.538312 0.620928
0.256811 0.447600 0.246740
0.256811 0.447600 0.255463
0.256811 0.447600 0.264186
0.256811 0.447600 0.272909
0.256811 0.447600 0.281632
0.256811 0.447600 0.290355
0.256811 0.447600 0.299078
0.256811 0.447600 0.307801
0.256811 0.447600 0.316524
0.256811 0.447600 0.325248
0.256811 0.447600 0.333971
0.256811 0.447600 0.342694
0.256811 0.447600 0.351417
0.256811 0.447600 0.360140
0.256811 0.447600 0.368863
0.256811 0.447600 0.377586
0.256811 0.447600 0.386309
0.256811 0.447600 0.395032
0.256811 0.447600 0.403756
0.256811 0.447600 0.412479
0.256811 0.447600 0.421202
0.256811 0.447600 0.429925
0.256811 0.447600 0.438648
0.267482 0.457332 0.456876
0.278154 0.467125 0.475104
0.288826 0.476971 0.493332
0.299498 0.486865 0.511560
0.310169 0.496801 0.529788
0.320841 0.506775 0.548016
0.331513 0.516782 0.566244
0.342184 0.526820 0.584472
0.352856 0.536885 0.602700
0.363528 0.546975 0.620928
0.267482 0.466200 0.256993
0.267482 0.466200 0.265683
0.267482 0.466200 0.274374
0.267482 0.466200 0.283064
0.267482 0.466200 0.291755
0.267482 0.466200 0.300446
0.267482 0.466200 0.309136
0.267482 0.466200 0.317827
0.267482 0.466200 0.326517
0.267482 0.466200 0.335208
0.267482 0.466200 0.343899
0.267482 0.466200 0.352589
0.267482 0.466200 0.361280
0.267482 0.466200 0.369970
0.267482 0.466200 0.378661
0.267482 0.466200 0.387351
0.267482 0.466200 0.396042
0.267482 0.466200 0.404733
0.267482 0.466200 0.413423
0.267482 0.466200 0.422114
0.267482 0.466200 0.430804
0.267482 0.466200 0.439495
0.267482 0.466200 0.448185
0.267482 0.466200 0.456876
0.278154 0.475963 0.475104
0.288826 0.485781 0.493332
0.299498 0.495649 0.511560
0.310169 0.505561 0.529788
0.320841 0.515513 0.548016
0.331513 0.525499 0.566244
0.342184 0.535517 0.584472
0.352856 0.545565 0.602700
0.363528 0.555638 0.620928
0.278154 0.484800 0.267246
0.278154 0.484800 0.275907
0.278154 0.484800 0.284568
0.278154 0.484800 0.293228
0.278154 0.484800 0.301889
0.278154 0.484800 0.310550
0.278154 0.484800 0.319211
0.278154 0.484800 0.327871
0.278154 0.484800 0.336532
0.278154 0.484800 0.345193
0.278154 0.484800 0.353853
0.278154 0.484800 0.362514
0.278154 0.484800 0.371175
0.278154 0.484800 0.379836
0.278154 0.484800 0.388497
0.278154 0.484800 0.397157
0.278154 0.484800 0.405818
0.278154 0.484800 0.414479
0.278154 0.484800 0.423140
0.278154 0.484800 0.431800
0.278154 0.484800 0.440461
0.278154 0.484800 0.449122
0.278154 0.484800 0.457783
0.278154 0.484800 0.466443
0.278154 0.484800 0.475104
0.288826 0.494590 0.493332
0.299498 0.504433 0.511560
0.310169 0.514321 0.529788
0.320841 0.524250 0.548016
0.331513 0.534216 0.566244
0.342184 0.544215 0.584472
0.352856 0.554244 0.602700
0.363528 0.564300 0.620928
0.288826 0.503400 0.277499
0.288826 0.503400 0.286133
0.288826 0.503400 0.294766
0.288826 0.503400 0.303399
0.288826 0.503400 0.312032
0.288826 0.503400 0.320666
0.288826 0.503400 0.329299
0.288826 0.503400 0.337932
0.288826 0.503400 0.346566
0.288826 0.503400 0.355199
0.288826 0.503400 0.363832
0.288826 0.503400 0.372466
0.288826 0.503400 0.381099
0.288826 0.503400 0.389732
0.288826 0.503400 0.398366
0.288826 0.503400 0.406999
0.288826 0.503400 0.415632
0.288826 0.503400 0.424266
0.288826 0.503400 0.432899
0.288826 0.503400 0.441532
0.288826 0.503400 0.450165
0.288826 0.503400 0.458799
0.288826 0.503400 0.467432
0.288826 0.503400 0.476065
0.288826 0.503400 0.484699
0.288826 0.503400 0.493332
0.299498 0.513216 0.511560
0.310169 0.523081 0.529788
0.320841 0.532987 0.548016
0.331513 0.542933 0.566244
0.342184 0.552912 0.584472
0.352856 0.562923 0.602700
0.363528 0.572962 0.620928
0.299498 0.522000 0.287753
0.299498 0.522000 0.296360
0.299498 0.522000 0.304968
0.299498 0.522000 0.313576
0.299498 0.522000 0.322184
0.299498 0.522000 0.330792
0.299498 0.522000 0.339400
0.299498 0.522000 0.348008
0.299498 0.522000 0.356616
0.299498 0.522000 0.365224
0.299498 0.522000 0.373832
0.299498 0.522000 0.382440
0.299498 0.522000 0.391048
0.299498 0.522000 0.399656
0.299498 0.522000 0.408264
0.299498 0.522000 0.416872
0.299498 0.522000 0.425480
0.299498 0.522000 0.434088
0.299498 0.522000 0.442696
0.299498 0.522000 0.451304
0.299498 0.522000 0.459912
0.299498 0.522000 0.468520
0.299498 0.522000 0.477128
0.299498 0.522000 0.485736
0.299498 0.522000 0.494344
