src/flutter_app/assets/presets/moody-gray.cube
# PoseCraft LUT preset
# Generated automatically for Phase 1
TITLE "PoseCraft Preset"
LUT_3D_SIZE 5
DOMAIN_MIN 0.0 0.0 0.0
DOMAIN_MAX 1.0 1.0 1.0
0.030600 0.030000 0.029400
0.107406 0.105300 0.183456
0.192780 0.189000 0.329280
0.278154 0.272700 0.475104
0.363528 0.356400 0.620928
0.107406 0.187200 0.103194
0.107406 0.187200 0.183456
0.192780 0.262500 0.329280
0.278154 0.343400 0.475104
0.363528 0.425700 0.620928
0.192780 0.336000 0.185220
0.192780 0.336000 0.257250
0.192780 0.336000 0.329280
0.278154 0.414100 0.475104
0.363528 0.495000 0.620928
0.278154 0.484800 0.267246
0.278154 0.484800 0.336532
0.278154 0.484800 0.405818
0.278154 0.484800 0.475104
0.363528 0.564300 0.620928
0.363528 0.633600 0.349272
0.363528 0.633600 0.417186
0.363528 0.633600 0.485100
0.363528 0.633600 0.553014
0.363528 0.633600 0.620928
0.190944 0.105300 0.103194
0.190944 0.105300 0.183456
0.267750 0.189000 0.329280
0.350268 0.272700 0.475104
0.434214 0.356400 0.620928
0.190944 0.187200 0.103194
0.267750 0.262500 0.257250
0.350268 0.343400 0.405818
0.434214 0.425700 0.553014
0.512448 0.502400 0.705698
0.267750 0.336000 0.185220
0.350268 0.414100 0.336532
0.350268 0.414100 0.405818
0.434214 0.495000 0.553014
0.512448 0.574967 0.705698
0.350268 0.484800 0.267246
0.434214 0.564300 0.417186
0.434214 0.564300 0.485100
0.434214 0.564300 0.553014
0.512448 0.647533 0.705698
0.434214 0.633600 0.349272
0.512448 0.720100 0.492352
0.512448 0.720100 0.563467
0.512448 0.720100 0.634583
0.512448 0.720100 0.705698
0.342720 0.189000 0.185220
0.342720 0.189000 0.257250
0.342720 0.189000 0.329280
0.422382 0.272700 0.475104
0.504900 0.356400 0.620928
0.342720 0.262500 0.185220
0.422382 0.343400 0.336532
0.422382 0.343400 0.405818
0.504900 0.425700 0.553014
0.586466 0.502400 0.705698
0.342720 0.336000 0.185220
0.422382 0.414100 0.336532
0.504900 0.495000 0.485100
0.586466 0.574967 0.634583
0.664224 0.651200 0.787724
0.422382 0.484800 0.267246
0.504900 0.564300 0.417186
0.586466 0.647533 0.563467
0.586466 0.647533 0.634583
0.664224 0.727500 0.787724
0.504900 0.633600 0.349272
0.586466 0.720100 0.492352
0.664224 0.803800 0.638176
0.664224 0.803800 0.712950
0.664224 0.803800 0.787724
0.494496 0.272700 0.267246
0.494496 0.272700 0.336532
0.494496 0.272700 0.405818
0.494496 0.272700 0.475104
0.575586 0.356400 0.620928
0.494496 0.343400 0.267246
0.575586 0.425700 0.417186
0.575586 0.425700 0.485100
0.575586 0.425700 0.553014
0.660484 0.502400 0.705698
0.494496 0.414100 0.267246
0.575586 0.495000 0.417186
0.660484 0.574967 0.563467
0.660484 0.574967 0.634583
0.742050 0.651200 0.787724
0.494496 0.484800 0.267246
0.575586 0.564300 0.417186
0.660484 0.647533 0.563467
0.742050 0.727500 0.712950
0.816000 0.800000 0.869750
0.575586 0.633600 0.349272
0.660484 0.720100 0.492352
0.742050 0.803800 0.638176
0.816000 0.887500 0.784000
0.816000 0.887500 0.869750
0.646272 0.356400 0.349272
0.646272 0.356400 0.417186
0.646272 0.356400 0.485100
0.646272 0.356400 0.553014
0.646272 0.356400 0.620928
0.646272 0.425700 0.349272
0.734502 0.502400 0.492352
0.734502 0.502400 0.563467
0.734502 0.502400 0.634583
0.734502 0.502400 0.705698
0.646272 0.495000 0.349272
0.734502 0.574967 0.492352
0.819876 0.651200 0.638176
0.819876 0.651200 0.712950
0.819876 0.651200 0.787724
0.646272 0.564300 0.349272
0.734502 0.647533 0.492352
0.819876 0.727500 0.638176
0.905250 0.800000 0.784000
0.905250 0.800000 0.869750
0.646272 0.633600 0.349272
0.734502 0.720100 0.492352
0.819876 0.803800 0.638176
0.905250 0.887500 0.784000
0.979200 0.960000 0.940800
