src/flutter_app/assets/presets/moody-gray.cube
# PoseCraft LUT preset
# Generated automatically for Phase 1
TITLE "PoseCraft Preset"
LUT_3D_SIZE 9
DOMAIN_MIN 0.0 0.0 0.0
DOMAIN_MAX 1.0 1.0 1.0
0.030600 0.030000 0.029400
0.064719 0.063450 0.110544
0.107406 0.105300 0.183456
0.150093 0.147150 0.256368
0.192780 0.189000 0.329280
0.235467 0.230850 0.402192
0.278154 0.272700 0.475104
0.320841 0.314550 0.548016
0.363528 0.356400 0.620928
0.064719 0.112800 0.062181
0.064719 0.112800 0.110544
0.107406 0.146250 0.183456
0.150093 0.185300 0.256368
0.192780 0.225750 0.329280
0.235467 0.266760 0.402192
0.278154 0.308050 0.475104
0.320841 0.349500 0.548016
0.363528 0.391050 0.620928
0.107406 0.187200 0.103194
0.107406 0.187200 0.143325
0.107406 0.187200 0.183456
0.150093 0.223450 0.256368
0.192780 0.262500 0.329280
0.235467 0.302670 0.402192
0.278154 0.343400 0.475104
0.320841 0.384450 0.548016
0.363528 0.425700 0.620928
0.150093 0.261600 0.144207
0.150093 0.261600 0.181594
0.150093 0.261600 0.218981
0.150093 0.261600 0.256368
0.192780 0.299250 0.329280
0.235467 0.338580 0.402192
0.278154 0.378750 0.475104
0.320841 0.419400 0.548016
0.363528 0.460350 0.620928
0.192780 0.336000 0.185220
0.192780 0.336000 0.221235
0.192780 0.336000 0.257250
0.192780 0.336000 0.293265
0.192780 0.336000 0.329280
0.235467 0.374490 0.402192
0.278154 0.414100 0.475104
0.320841 0.454350 0.548016
0.363528 0.495000 0.620928
0.235467 0.410400 0.226233
0.235467 0.410400 0.261425
0.235467 0.410400 0.296617
0.235467 0.410400 0.331808
0.235467 0.410400 0.367000
0.235467 0.410400 0.402192
0.278154 0.449450 0.475104
0.320841 0.489300 0.548016
0.363528 0.529650 0.620928
0.278154 0.484800 0.267246
0.278154 0.484800 0.301889
0.278154 0.484800 0.336532
0.278154 0.484800 0.371175
0.278154 0.484800 0.405818
0.278154 0.484800 0.440461
0.278154 0.484800 0.475104
0.320841 0.524250 0.548016
0.363528 0.564300 0.620928
0.320841 0.559200 0.308259
0.320841 0.559200 0.342510
0.320841 0.559200 0.376761
0.320841 0.559200 0.411012
0.320841 0.559200 0.445263
0.320841 0.559200 0.479514
0.320841 0.559200 0.513765
0.320841 0.559200 0.548016
0.363528 0.598950 0.620928
0.363528 0.633600 0.349272
0.363528 0.633600 0.383229
0.363528 0.633600 0.417186
0.363528 0.633600 0.451143
0.363528 0.633600 0.485100
0.363528 0.633600 0.519057
0.363528 0.633600 0.553014
0.363528 0.633600 0.586971
0.363528 0.633600 0.620928
0.115056 0.063450 0.062181
0.115056 0.063450 0.110544
0.149175 0.105300 0.183456
0.189006 0.147150 0.256368
0.230265 0.189000 0.329280
0.272095 0.230850 0.402192
0.314211 0.272700 0.475104
0.356490 0.314550 0.548016
0.398871 0.356400 0.620928
0.115056 0.112800 0.062181
0.149175 0.146250 0.143325
0.189006 0.185300 0.218981
0.230265 0.225750 0.293265
0.272095 0.266760 0.367000
0.314211 0.308050 0.440461
0.356490 0.349500 0.513765
0.398871 0.391050 0.586971
0.436560 0.428000 0.664685
0.149175 0.187200 0.103194
0.189006 0.223450 0.181594
0.189006 0.223450 0.218981
0.230265 0.262500 0.293265
0.272095 0.302670 0.367000
0.314211 0.343400 0.440461
0.356490 0.384450 0.513765
0.398871 0.425700 0.586971
0.436560 0.463750 0.664685
0.189006 0.261600 0.144207
0.230265 0.299250 0.221235
0.230265 0.299250 0.257250
0.230265 0.299250 0.293265
0.272095 0.338580 0.367000
0.314211 0.378750 0.440461
0.356490 0.419400 0.513765
0.398871 0.460350 0.586971
0.436560 0.499500 0.664685
0.230265 0.336000 0.185220
0.272095 0.374490 0.261425
0.272095 0.374490 0.296617
0.272095 0.374490 0.331808
0.272095 0.374490 0.367000
0.314211 0.414100 0.440461
0.356490 0.454350 0.513765
0.398871 0.495000 0.586971
0.436560 0.535250 0.664685
0.272095 0.410400 0.226233
0.314211 0.449450 0.301889
0.314211 0.449450 0.336532
0.314211 0.449450 0.371175
0.314211 0.449450 0.405818
0.314211 0.449450 0.440461
0.356490 0.489300 0.513765
0.398871 0.529650 0.586971
0.436560 0.571000 0.664685
0.314211 0.484800 0.267246
0.356490 0.524250 0.342510
0.356490 0.524250 0.376761
0.356490 0.524250 0.411012
0.356490 0.524250 0.445263
0.356490 0.524250 0.479514
0.356490 0.524250 0.513765
0.398871 0.564300 0.586971
0.436560 0.606750 0.664685
0.356490 0.559200 0.308259
0.398871 0.598950 0.383229
0.398871 0.598950 0.417186
0.398871 0.598950 0.451143
0.398871 0.598950 0.485100
0.398871 0.598950 0.519057
0.398871 0.598950 0.553014
0.398871 0.598950 0.586971
0.436560 0.642500 0.664685
0.398871 0.633600 0.349272
0.436560 0.678250 0.419440
0.436560 0.678250 0.454475
0.436560 0.678250 0.489510
0.436560 0.678250 0.524545
0.436560 0.678250 0.559580
0.436560 0.678250 0.594615
0.436560 0.678250 0.629650
0.436560 0.678250 0.664685
0.190944 0.105300 0.103194
0.190944 0.105300 0.143325
0.190944 0.105300 0.183456
0.227919 0.147150 0.256368
0.267750 0.189000 0.329280
0.308723 0.230850 0.402192
0.350268 0.272700 0.475104
0.392139 0.314550 0.548016
0.434214 0.356400 0.620928
0.190944 0.146250 0.103194
0.227919 0.185300 0.181594
0.227919 0.185300 0.218981
0.267750 0.225750 0.293265
0.308723 0.266760 0.367000
0.350268 0.308050 0.440461
0.392139 0.349500 0.513765
0.434214 0.391050 0.586971
0.473025 0.428000 0.664685
0.190944 0.187200 0.103194
0.227919 0.223450 0.181594
0.267750 0.262500 0.257250
0.308723 0.302670 0.331808
0.350268 0.343400 0.405818
0.392139 0.384450 0.479514
0.434214 0.425700 0.553014
0.473025 0.463750 0.629650
0.512448 0.502400 0.705698
0.227919 0.261600 0.144207
0.267750 0.299250 0.221235
0.308723 0.338580 0.296617
0.308723 0.338580 0.331808
0.350268 0.378750 0.405818
0.392139 0.419400 0.479514
0.434214 0.460350 0.553014
0.473025 0.499500 0.629650
0.512448 0.538683 0.705698
0.267750 0.336000 0.185220
0.308723 0.374490 0.261425
0.350268 0.414100 0.336532
0.350268 0.414100 0.371175
0.350268 0.414100 0.405818
0.392139 0.454350 0.479514
0.434214 0.495000 0.553014
0.473025 0.535250 0.629650
0.512448 0.574967 0.705698
0.308723 0.410400 0.226233
0.350268 0.449450 0.301889
0.392139 0.489300 0.376761
0.392139 0.489300 0.411012
0.392139 0.489300 0.445263
0.392139 0.489300 0.479514
0.434214 0.529650 0.553014
0.473025 0.571000 0.629650
0.512448 0.611250 0.705698
0.350268 0.484800 0.267246
0.392139 0.524250 0.342510
0.434214 0.564300 0.417186
0.434214 0.564300 0.451143
0.434214 0.564300 0.485100
0.434214 0.564300 0.519057
0.434214 0.564300 0.553014
0.473025 0.606750 0.629650
0.512448 0.647533 0.705698
0.392139 0.559200 0.308259
0.434214 0.598950 0.383229
0.473025 0.642500 0.454475
0.473025 0.642500 0.489510
0.473025 0.642500 0.524545
0.473025 0.642500 0.559580
0.473025 0.642500 0.594615
0.473025 0.642500 0.629650
0.512448 0.683817 0.705698
0.434214 0.633600 0.349272
0.473025 0.678250 0.419440
0.512448 0.720100 0.492352
0.512448 0.720100 0.527910
0.512448 0.720100 0.563467
0.512448 0.720100 0.599025
0.512448 0.720100 0.634583
0.512448 0.720100 0.670140
0.512448 0.720100 0.705698
0.266832 0.147150 0.144207
0.266832 0.147150 0.181594
0.266832 0.147150 0.218981
0.266832 0.147150 0.256368
0.305235 0.189000 0.329280
0.345352 0.230850 0.402192
0.386325 0.272700 0.475104
0.427788 0.314550 0.548016
0.469557 0.356400 0.620928
0.266832 0.185300 0.144207
0.305235 0.225750 0.221235
0.305235 0.225750 0.257250
0.305235 0.225750 0.293265
0.345352 0.266760 0.367000
0.386325 0.308050 0.440461
0.427788 0.349500 0.513765
0.469557 0.391050 0.586971
0.509490 0.428000 0.664685
0.266832 0.223450 0.144207
0.305235 0.262500 0.221235
0.345352 0.302670 0.296617
0.345352 0.302670 0.331808
0.386325 0.343400 0.405818
0.427788 0.384450 0.479514
0.469557 0.425700 0.553014
0.509490 0.463750 0.629650
0.549457 0.502400 0.705698
0.266832 0.261600 0.144207
0.305235 0.299250 0.221235
0.345352 0.338580 0.296617
0.386325 0.378750 0.371175
0.427788 0.419400 0.445263
0.469557 0.460350 0.519057
0.509490 0.499500 0.594615
0.549457 0.538683 0.670140
0.588336 0.576800 0.746711
0.305235 0.336000 0.185220
0.345352 0.374490 0.261425
0.386325 0.414100 0.336532
0.427788 0.454350 0.411012
0.427788 0.454350 0.445263
0.469557 0.495000 0.519057
0.509490 0.535250 0.594615
0.549457 0.574967 0.670140
0.588336 0.613830 0.746711
0.345352 0.410400 0.226233
0.386325 0.449450 0.301889
0.427788 0.489300 0.376761
0.469557 0.529650 0.451143
0.469557 0.529650 0.485100
0.469557 0.529650 0.519057
0.509490 0.571000 0.594615
0.549457 0.611250 0.670140
0.588336 0.650860 0.746711
0.386325 0.484800 0.267246
0.427788 0.524250 0.342510
0.469557 0.564300 0.417186
0.509490 0.606750 0.489510
0.509490 0.606750 0.524545
0.509490 0.606750 0.559580
0.509490 0.606750 0.594615
0.549457 0.647533 0.670140
0.588336 0.687890 0.746711
0.427788 0.559200 0.308259
0.469557 0.598950 0.383229
0.509490 0.642500 0.454475
0.549457 0.683817 0.527910
0.549457 0.683817 0.563467
0.549457 0.683817 0.599025
0.549457 0.683817 0.634583
0.549457 0.683817 0.670140
0.588336 0.724920 0.746711
0.469557 0.633600 0.349272
0.509490 0.678250 0.419440
0.549457 0.720100 0.492352
0.588336 0.761950 0.565264
0.588336 0.761950 0.601553
0.588336 0.761950 0.637843
0.588336 0.761950 0.674132
0.588336 0.761950 0.710422
0.588336 0.761950 0.746711
0.342720 0.189000 0.185220
0.342720 0.189000 0.221235
0.342720 0.189000 0.257250
0.342720 0.189000 0.293265
0.342720 0.189000 0.329280
0.381980 0.230850 0.402192
0.422382 0.272700 0.475104
0.463437 0.314550 0.548016
0.504900 0.356400 0.620928
0.342720 0.225750 0.185220
0.381980 0.266760 0.261425
0.381980 0.266760 0.296617
0.381980 0.266760 0.331808
0.381980 0.266760 0.367000
0.422382 0.308050 0.440461
0.463437 0.349500 0.513765
0.504900 0.391050 0.586971
0.545955 0.428000 0.664685
0.342720 0.262500 0.185220
0.381980 0.302670 0.261425
0.422382 0.343400 0.336532
0.422382 0.343400 0.371175
0.422382 0.343400 0.405818
0.463437 0.384450 0.479514
0.504900 0.425700 0.553014
0.545955 0.463750 0.629650
0.586466 0.502400 0.705698
0.342720 0.299250 0.185220
0.381980 0.338580 0.261425
0.422382 0.378750 0.336532
0.463437 0.419400 0.411012
0.463437 0.419400 0.445263
0.504900 0.460350 0.519057
0.545955 0.499500 0.594615
0.586466 0.538683 0.670140
0.626107 0.576800 0.746711
0.342720 0.336000 0.185220
0.381980 0.374490 0.261425
0.422382 0.414100 0.336532
0.463437 0.454350 0.411012
0.504900 0.495000 0.485100
0.545955 0.535250 0.559580
0.586466 0.574967 0.634583
0.626107 0.613830 0.710422
0.664224 0.651200 0.787724
0.381980 0.410400 0.226233
0.422382 0.449450 0.301889
0.463437 0.489300 0.376761
0.504900 0.529650 0.451143
0.545955 0.571000 0.524545
0.545955 0.571000 0.559580
0.586466 0.611250 0.634583
0.626107 0.650860 0.710422
0.664224 0.689350 0.787724
0.422382 0.484800 0.267246
0.463437 0.524250 0.342510
0.504900 0.564300 0.417186
0.545955 0.606750 0.489510
0.586466 0.647533 0.563467
0.586466 0.647533 0.599025
0.586466 0.647533 0.634583
0.626107 0.687890 0.710422
0.664224 0.727500 0.787724
0.463437 0.559200 0.308259
0.504900 0.598950 0.383229
0.545955 0.642500 0.454475
0.586466 0.683817 0.527910
0.626107 0.724920 0.601553
0.626107 0.724920 0.637843
0.626107 0.724920 0.674132
0.626107 0.724920 0.710422
0.664224 0.765650 0.787724
0.504900 0.633600 0.349272
0.545955 0.678250 0.419440
0.586466 0.720100 0.492352
0.626107 0.761950 0.565264
0.664224 0.803800 0.638176
0.664224 0.803800 0.675563
0.664224 0.803800 0.712950
0.664224 0.803800 0.750337
0.664224 0.803800 0.787724
0.418608 0.230850 0.226233
0.418608 0.230850 0.261425
0.418608 0.230850 0.296617
0.418608 0.230850 0.331808
0.418608 0.230850 0.367000
0.418608 0.230850 0.402192
0.458439 0.272700 0.475104
0.499086 0.314550 0.548016
0.540243 0.356400 0.620928
0.418608 0.266760 0.226233
0.458439 0.308050 0.301889
0.458439 0.308050 0.336532
0.458439 0.308050 0.371175
0.458439 0.308050 0.405818
0.458439 0.308050 0.440461
0.499086 0.349500 0.513765
0.540243 0.391050 0.586971
0.582420 0.428000 0.664685
0.418608 0.302670 0.226233
0.458439 0.343400 0.301889
0.499086 0.384450 0.376761
0.499086 0.384450 0.411012
0.499086 0.384450 0.445263
0.499086 0.384450 0.479514
0.540243 0.425700 0.553014
0.582420 0.463750 0.629650
0.623475 0.502400 0.705698
0.418608 0.338580 0.226233
0.458439 0.378750 0.301889
0.499086 0.419400 0.376761
0.540243 0.460350 0.451143
0.540243 0.460350 0.485100
0.540243 0.460350 0.519057
0.582420 0.499500 0.594615
0.623475 0.538683 0.670140
0.663877 0.576800 0.746711
0.418608 0.374490 0.226233
0.458439 0.414100 0.301889
0.499086 0.454350 0.376761
0.540243 0.495000 0.451143
0.582420 0.535250 0.524545
0.582420 0.535250 0.559580
0.623475 0.574967 0.634583
0.663877 0.613830 0.710422
0.703137 0.651200 0.787724
0.418608 0.410400 0.226233
0.458439 0.449450 0.301889
0.499086 0.489300 0.376761
0.540243 0.529650 0.451143
0.582420 0.571000 0.524545
0.623475 0.611250 0.599025
0.663877 0.650860 0.674132
0.703137 0.689350 0.750337
0.740112 0.725600 0.828737
0.458439 0.484800 0.267246
0.499086 0.524250 0.342510
0.540243 0.564300 0.417186
0.582420 0.606750 0.489510
0.623475 0.647533 0.563467
0.663877 0.687890 0.637843
0.663877 0.687890 0.674132
0.703137 0.727500 0.750337
0.740112 0.765617 0.828737
0.499086 0.559200 0.308259
0.540243 0.598950 0.383229
0.582420 0.642500 0.454475
0.623475 0.683817 0.527910
0.663877 0.724920 0.601553
0.703137 0.765650 0.675563
0.703137 0.765650 0.712950
0.703137 0.765650 0.750337
0.740112 0.805633 0.828737
0.540243 0.633600 0.349272
0.582420 0.678250 0.419440
0.623475 0.720100 0.492352
0.663877 0.761950 0.565264
0.703137 0.803800 0.638176
0.740112 0.845650 0.711088
0.740112 0.845650 0.750304
0.740112 0.845650 0.789521
0.740112 0.845650 0.828737
0.494496 0.272700 0.267246
0.494496 0.272700 0.301889
0.494496 0.272700 0.336532
0.494496 0.272700 0.371175
0.494496 0.272700 0.405818
0.494496 0.272700 0.440461
0.494496 0.272700 0.475104
0.534735 0.314550 0.548016
0.575586 0.356400 0.620928
0.494496 0.308050 0.267246
0.534735 0.349500 0.342510
0.534735 0.349500 0.376761
0.534735 0.349500 0.411012
0.534735 0.349500 0.445263
0.534735 0.349500 0.479514
0.534735 0.349500 0.513765
0.575586 0.391050 0.586971
0.618885 0.428000 0.664685
0.494496 0.343400 0.267246
0.534735 0.384450 0.342510
0.575586 0.425700 0.417186
0.575586 0.425700 0.451143
0.575586 0.425700 0.485100
0.575586 0.425700 0.519057
0.575586 0.425700 0.553014
0.618885 0.463750 0.629650
0.660484 0.502400 0.705698
0.494496 0.378750 0.267246
0.534735 0.419400 0.342510
0.575586 0.460350 0.417186
0.618885 0.499500 0.489510
0.618885 0.499500 0.524545
0.618885 0.499500 0.559580
0.618885 0.499500 0.594615
0.660484 0.538683 0.670140
0.701648 0.576800 0.746711
0.494496 0.414100 0.267246
0.534735 0.454350 0.342510
0.575586 0.495000 0.417186
0.618885 0.535250 0.489510
0.660484 0.574967 0.563467
0.660484 0.574967 0.599025
0.660484 0.574967 0.634583
0.701648 0.613830 0.710422
0.742050 0.651200 0.787724
0.494496 0.449450 0.267246
0.534735 0.489300 0.342510
0.575586 0.529650 0.417186
0.618885 0.571000 0.489510
0.660484 0.611250 0.563467
0.701648 0.650860 0.637843
0.701648 0.650860 0.674132
0.742050 0.689350 0.750337
0.780929 0.725600 0.828737
0.494496 0.484800 0.267246
0.534735 0.524250 0.342510
0.575586 0.564300 0.417186
0.618885 0.606750 0.489510
0.660484 0.647533 0.563467
0.701648 0.687890 0.637843
0.742050 0.727500 0.712950
0.780929 0.765617 0.789521
0.816000 0.800000 0.869750
0.534735 0.559200 0.308259
0.575586 0.598950 0.383229
0.618885 0.642500 0.454475
0.660484 0.683817 0.527910
0.701648 0.724920 0.601553
0.742050 0.765650 0.675563
0.780929 0.805633 0.750304
0.780929 0.805633 0.789521
0.816000 0.843750 0.869750
0.575586 0.633600 0.349272
0.618885 0.678250 0.419440
0.660484 0.720100 0.492352
0.701648 0.761950 0.565264
0.742050 0.803800 0.638176
0.780929 0.845650 0.711088
0.816000 0.887500 0.784000
0.816000 0.887500 0.826875
0.816000 0.887500 0.869750
0.570384 0.314550 0.308259
0.570384 0.314550 0.342510
0.570384 0.314550 0.376761
0.570384 0.314550 0.411012
0.570384 0.314550 0.445263
0.570384 0.314550 0.479514
0.570384 0.314550 0.513765
0.570384 0.314550 0.548016
0.610929 0.356400 0.620928
0.570384 0.349500 0.308259
0.610929 0.391050 0.383229
0.610929 0.391050 0.417186
0.610929 0.391050 0.451143
0.610929 0.391050 0.485100
0.610929 0.391050 0.519057
0.610929 0.391050 0.553014
0.610929 0.391050 0.586971
0.655350 0.428000 0.664685
0.570384 0.384450 0.308259
0.610929 0.425700 0.383229
0.655350 0.463750 0.454475
0.655350 0.463750 0.489510
0.655350 0.463750 0.524545
0.655350 0.463750 0.559580
0.655350 0.463750 0.594615
0.655350 0.463750 0.629650
0.697493 0.502400 0.705698
0.570384 0.419400 0.308259
0.610929 0.460350 0.383229
0.655350 0.499500 0.454475
0.697493 0.538683 0.527910
0.697493 0.538683 0.563467
0.697493 0.538683 0.599025
0.697493 0.538683 0.634583
0.697493 0.538683 0.670140
0.739418 0.576800 0.746711
0.570384 0.454350 0.308259
0.610929 0.495000 0.383229
0.655350 0.535250 0.454475
0.697493 0.574967 0.527910
0.739418 0.613830 0.601553
0.739418 0.613830 0.637843
0.739418 0.613830 0.674132
0.739418 0.613830 0.710422
0.780963 0.651200 0.787724
0.570384 0.489300 0.308259
0.610929 0.529650 0.383229
0.655350 0.571000 0.454475
0.697493 0.611250 0.527910
0.739418 0.650860 0.601553
0.780963 0.689350 0.675563
0.780963 0.689350 0.712950
0.780963 0.689350 0.750337
0.821746 0.725600 0.828737
0.570384 0.524250 0.308259
0.610929 0.564300 0.383229
0.655350 0.606750 0.454475
0.697493 0.647533 0.527910
0.739418 0.687890 0.601553
0.780963 0.727500 0.675563
0.821746 0.765617 0.750304
0.821746 0.765617 0.789521
0.860625 0.800000 0.869750
0.570384 0.559200 0.308259
0.610929 0.598950 0.383229
0.655350 0.642500 0.454475
0.697493 0.683817 0.527910
0.739418 0.724920 0.601553
0.780963 0.765650 0.675563
0.821746 0.805633 0.750304
0.860625 0.843750 0.826875
0.891888 0.874400 0.910763
0.610929 0.633600 0.349272
0.655350 0.678250 0.419440
0.697493 0.720100 0.492352
0.739418 0.761950 0.565264
0.780963 0.803800 0.638176
0.821746 0.845650 0.711088
0.860625 0.887500 0.784000
0.891888 0.929350 0.856912
0.891888 0.929350 0.910763
0.646272 0.356400 0.349272
0.646272 0.356400 0.383229
0.646272 0.356400 0.417186
0.646272 0.356400 0.451143
0.646272 0.356400 0.485100
0.646272 0.356400 0.519057
0.646272 0.356400 0.553014
0.646272 0.356400 0.586971
0.646272 0.356400 0.620928
0.646272 0.391050 0.349272
0.691815 0.428000 0.419440
0.691815 0.428000 0.454475
0.691815 0.428000 0.489510
0.691815 0.428000 0.524545
0.691815 0.428000 0.559580
0.691815 0.428000 0.594615
0.691815 0.428000 0.629650
0.691815 0.428000 0.664685
0.646272 0.425700 0.349272
0.691815 0.463750 0.419440
0.734502 0.502400 0.492352
0.734502 0.502400 0.527910
0.734502 0.502400 0.563467
0.734502 0.502400 0.599025
0.734502 0.502400 0.634583
0.734502 0.502400 0.670140
0.734502 0.502400 0.705698
0.646272 0.460350 0.349272
0.691815 0.499500 0.419440
0.734502 0.538683 0.492352
0.777189 0.576800 0.565264
0.777189 0.576800 0.601553
0.777189 0.576800 0.637843
0.777189 0.576800 0.674132
0.777189 0.576800 0.710422
0.777189 0.576800 0.746711
0.646272 0.495000 0.349272
0.691815 0.535250 0.419440
0.734502 0.574967 0.492352
0.777189 0.613830 0.565264
0.819876 0.651200 0.638176
0.819876 0.651200 0.675563
0.819876 0.651200 0.712950
0.819876 0.651200 0.750337
0.819876 0.651200 0.787724
0.646272 0.529650 0.349272
0.691815 0.571000 0.419440
0.734502 0.611250 0.492352
0.777189 0.650860 0.565264
0.819876 0.689350 0.638176
0.862563 0.725600 0.711088
0.862563 0.725600 0.750304
0.862563 0.725600 0.789521
0.862563 0.725600 0.828737
0.646272 0.564300 0.349272
0.691815 0.606750 0.419440
0.734502 0.647533 0.492352
0.777189 0.687890 0.565264
0.819876 0.727500 0.638176
0.862563 0.765617 0.711088
0.905250 0.800000 0.784000
0.905250 0.800000 0.826875
0.905250 0.800000 0.869750
0.646272 0.598950 0.349272
0.691815 0.642500 0.419440
0.734502 0.683817 0.492352
0.777189 0.724920 0.565264
0.819876 0.765650 0.638176
0.862563 0.805633 0.711088
0.905250 0.843750 0.784000
0.947937 0.874400 0.856912
0.947937 0.874400 0.910763
0.646272 0.633600 0.349272
0.691815 0.678250 0.419440
0.734502 0.720100 0.492352
0.777189 0.761950 0.565264
0.819876 0.803800 0.638176
0.862563 0.845650 0.711088
0.905250 0.887500 0.784000
0.947937 0.929350 0.856912
0.979200 0.960000 0.940800
