src/flutter_app/assets/presets/natural.cube
# PoseCraft LUT preset
# Generated automatically for Phase 1
TITLE "PoseCraft Preset"
LUT_3D_SIZE 33
DOMAIN_MIN 0.0 0.0 0.0
DOMAIN_MAX 1.0 1.0 1.0
0.000000 0.000000 0.000000
0.000000 0.000000 0.032813
0.000000 0.000000 0.065625
0.000000 0.000000 0.098438
0.000000 0.000000 0.131250
0.000000 0.000000 0.164062
0.000000 0.000000 0.196875
0.000000 0.000000 0.229688
0.000000 0.000000 0.262500
0.000000 0.000000 0.295313
0.000000 0.000000 0.328125
0.000000 0.000000 0.360938
0.000000 0.000000 0.393750
0.000000 0.000000 0.426563
0.000000 0.000000 0.459375
0.000000 0.000000 0.492188
0.000000 0.000000 0.525000
0.000000 0.000000 0.557813
0.000000 0.000000 0.590625
0.000000 0.000000 0.623437
0.000000 0.000000 0.656250
0.000000 0.000000 0.689063
0.000000 0.000000 0.721875
0.000000 0.000000 0.754688
0.000000 0.000000 0.787500
0.000000 0.000000 0.820312
0.000000 0.000000 0.853125
0.000000 0.000000 0.885938
0.000000 0.000000 0.918750
0.000000 0.000000 0.951563
0.000000 0.000000 0.984375
0.000000 0.000000 1.017188
0.000000 0.000000 1.050000
0.000000 0.032813 0.000000
0.000000 0.032813 0.032813
0.000000 0.032813 0.065625
0.000000 0.032813 0.098438
0.000000 0.032813 0.131250
0.000000 0.032813 0.164062
0.000000 0.032813 0.196875
0.000000 0.032813 0.229688
0.000000 0.032813 0.262500
0.000000 0.032813 0.295313
0.000000 0.032813 0.328125
0.000000 0.032813 0.360938
0.000000 0.032813 0.393750
0.000000 0.032813 0.426563
0.000000 0.032813 0.459375
0.000000 0.032813 0.492188
0.000000 0.032813 0.525000
0.000000 0.032813 0.557813
0.000000 0.032813 0.590625
0.000000 0.032813 0.623437
0.000000 0.032813 0.656250
0.000000 0.032813 0.689063
0.000000 0.032813 0.721875
0.000000 0.032813 0.754688
0.000000 0.032813 0.787500
0.000000 0.032813 0.820312
0.000000 0.032813 0.853125
0.000000 0.032813 0.885938
0.000000 0.032813 0.918750
0.000000 0.032813 0.951563
0.000000 0.032813 0.984375
0.000000 0.032813 1.017188
0.000000 0.032813 1.050000
0.000000 0.065625 0.000000
0.000000 0.065625 0.032813
0.000000 0.065625 0.065625
0.000000 0.065625 0.098438
0.000000 0.065625 0.131250
0.000000 0.065625 0.164062
0.000000 0.065625 0.196875
0.000000 0.065625 0.229688
0.000000 0.065625 0.262500
0.000000 0.065625 0.295313
0.000000 0.065625 0.328125
0.000000 0.065625 0.360938
0.000000 0.065625 0.393750
0.000000 0.065625 0.426563
0.000000 0.065625 0.459375
0.000000 0.065625 0.492188
0.000000 0.065625 0.525000
0.000000 0.065625 0.557813
0.000000 0.065625 0.590625
0.000000 0.065625 0.623437
0.000000 0.065625 0.656250
0.000000 0.065625 0.689063
0.000000 0.065625 0.721875
0.000000 0.065625 0.754688
0.000000 0.065625 0.787500
0.000000 0.065625 0.820312
0.000000 0.065625 0.853125
0.000000 0.065625 0.885938
0.000000 0.065625 0.918750
0.000000 0.065625 0.951563
0.000000 0.065625 0.984375
0.000000 0.065625 1.017188
0.000000 0.065625 1.050000
0.000000 0.098438 0.000000
0.000000 0.098438 0.032813
0.000000 0.098438 0.065625
0.000000 0.098438 0.098438
0.000000 0.098438 0.131250
0.000000 0.098438 0.164062
0.000000 0.098438 0.196875
0.000000 0.098438 0.229688
0.000000 0.098438 0.262500
0.000000 0.098438 0.295313
0.000000 0.098438 0.328125
0.000000 0.098438 0.360938
0.000000 0.098438 0.393750
0.000000 0.098438 0.426563
0.000000 0.098438 0.459375
0.000000 0.098438 0.492188
0.000000 0.098438 0.525000
0.000000 0.098438 0.557813
0.000000 0.098438 0.590625
0.000000 0.098438 0.623437
0.000000 0.098438 0.656250
0.000000 0.098438 0.689063
0.000000 0.098438 0.721875
0.000000 0.098438 0.754688
0.000000 0.098438 0.787500
0.000000 0.098438 0.820312
0.000000 0.098438 0.853125
0.000000 0.098438 0.885938
0.000000 0.098438 0.918750
0.000000 0.098438 0.951563
0.000000 0.098438 0.984375
0.000000 0.098438 1.017188
0.000000 0.098438 1.050000
0.000000 0.131250 0.000000
0.000000 0.131250 0.032813
0.000000 0.131250 0.065625
0.000000 0.131250 0.098438
0.000000 0.131250 0.131250
0.000000 0.131250 0.164062
0.000000 0.131250 0.196875
0.000000 0.131250 0.229688
0.000000 0.131250 0.262500
0.000000 0.131250 0.295313
0.000000 0.131250 0.328125
0.000000 0.131250 0.360938
0.000000 0.131250 0.393750
0.000000 0.131250 0.426563
0.000000 0.131250 0.459375
0.000000 0.131250 0.492188
0.000000 0.131250 0.525000
0.000000 0.131250 0.557813
0.000000 0.131250 0.590625
0.000000 0.131250 0.623437
0.000000 0.131250 0.656250
0.000000 0.131250 0.689063
0.000000 0.131250 0.721875
0.000000 0.131250 0.754688
0.000000 0.131250 0.787500
0.000000 0.131250 0.820312
0.000000 0.131250 0.853125
0.000000 0.131250 0.885938
0.000000 0.131250 0.918750
0.000000 0.131250 0.951563
0.000000 0.131250 0.984375
0.000000 0.131250 1.017188
0.000000 0.131250 1.050000
0.000000 0.164062 0.000000
0.000000 0.164062 0.032813
0.000000 0.164062 0.065625
0.000000 0.164062 0.098438
0.000000 0.164062 0.131250
0.000000 0.164062 0.164062
0.000000 0.164062 0.196875
0.000000 0.164062 0.229688
0.000000 0.164062 0.262500
0.000000 0.164062 0.295313
0.000000 0.164062 0.328125
0.000000 0.164062 0.360938
0.000000 0.164062 0.393750
0.000000 0.164062 0.426563
0.000000 0.164062 0.459375
0.000000 0.164062 0.492188
0.000000 0.164062 0.525000
0.000000 0.164062 0.557813
0.000000 0.164062 0.590625
0.000000 0.164062 0.623437
0.000000 0.164062 0.656250
0.000000 0.164062 0.689063
0.000000 0.164062 0.721875
0.000000 0.164062 0.754688
0.000000 0.164062 0.787500
0.000000 0.164062 0.820312
0.000000 0.164062 0.853125
0.000000 0.164062 0.885938
0.000000 0.164062 0.918750
0.000000 0.164062 0.951563
0.000000 0.164062 0.984375
0.000000 0.164062 1.017188
0.000000 0.164062 1.050000
0.000000 0.196875 0.000000
0.000000 0.196875 0.032813
0.000000 0.196875 0.065625
0.000000 0.196875 0.098438
0.000000 0.196875 0.131250
0.000000 0.196875 0.164062
0.000000 0.196875 0.196875
0.000000 0.196875 0.229688
0.000000 0.196875 0.262500
0.000000 0.196875 0.295313
0.000000 0.196875 0.328125
0.000000 0.196875 0.360938
0.000000 0.196875 0.393750
0.000000 0.196875 0.426563
0.000000 0.196875 0.459375
0.000000 0.196875 0.492188
0.000000 0.196875 0.525000
0.000000 0.196875 0.557813
0.000000 0.196875 0.590625
0.000000 0.196875 0.623437
0.000000 0.196875 0.656250
0.000000 0.196875 0.689063
0.000000 0.196875 0.721875
0.000000 0.196875 0.754688
0.000000 0.196875 0.787500
0.000000 0.196875 0.820312
0.000000 0.196875 0.853125
0.000000 0.196875 0.885938
0.000000 0.196875 0.918750
0.000000 0.196875 0.951563
0.000000 0.196875 0.984375
0.000000 0.196875 1.017188
0.000000 0.196875 1.050000
0.000000 0.229688 0.000000
0.000000 0.229688 0.032813
0.000000 0.229688 0.065625
0.000000 0.229688 0.098438
0.000000 0.229688 0.131250
0.000000 0.229688 0.164062
0.000000 0.229688 0.196875
0.000000 0.229688 0.229688
0.000000 0.229688 0.262500
0.000000 0.229688 0.295313
0.000000 0.229688 0.328125
0.000000 0.229688 0.360938
0.000000 0.229688 0.393750
0.000000 0.229688 0.426563
0.000000 0.229688 0.459375
0.000000 0.229688 0.492188
0.000000 0.229688 0.525000
0.000000 0.229688 0.557813
0.000000 0.229688 0.590625
0.000000 0.229688 0.623437
0.000000 0.229688 0.656250
0.000000 0.229688 0.689063
0.000000 0.229688 0.721875
0.000000 0.229688 0.754688
0.000000 0.229688 0.787500
0.000000 0.229688 0.820312
0.000000 0.229688 0.853125
0.000000 0.229688 0.885938
0.000000 0.229688 0.918750
0.000000 0.229688 0.951563
0.000000 0.229688 0.984375
0.000000 0.229688 1.017188
0.000000 0.229688 1.050000
0.000000 0.262500 0.000000
0.000000 0.262500 0.032813
0.000000 0.262500 0.065625
0.000000 0.262500 0.098438
0.000000 0.262500 0.131250
0.000000 0.262500 0.164062
0.000000 0.262500 0.196875
0.000000 0.262500 0.229688
0.000000 0.262500 0.262500
0.000000 0.262500 0.295313
0.000000 0.262500 0.328125
0.000000 0.262500 0.360938
0.000000 0.262500 0.393750
0.000000 0.262500 0.426563
0.000000 0.262500 0.459375
0.000000 0.262500 0.492188
0.000000 0.262500 0.525000
0.000000 0.262500 0.557813
0.000000 0.262500 0.590625
0.000000 0.262500 0.623437
0.000000 0.262500 0.656250
0.000000 0.262500 0.689063
0.000000 0.262500 0.721875
0.000000 0.262500 0.754688
0.000000 0.262500 0.787500
0.000000 0.262500 0.820312
0.000000 0.262500 0.853125
0.000000 0.262500 0.885938
0.000000 0.262500 0.918750
0.000000 0.262500 0.951563
0.000000 0.262500 0.984375
0.000000 0.262500 1.017188
0.000000 0.262500 1.050000
0.000000 0.295313 0.000000
0.000000 0.295313 0.032813
0.000000 0.295313 0.065625
0.000000 0.295313 0.098438
0.000000 0.295313 0.131250
0.000000 0.295313 0.164062
0.000000 0.295313 0.196875
0.000000 0.295313 0.229688
0.000000 0.295313 0.262500
0.000000 0.295313 0.295313
0.000000 0.295313 0.328125
0.000000 0.295313 0.360938
0.000000 0.295313 0.393750
0.000000 0.295313 0.426563
0.000000 0.295313 0.459375
0.000000 0.295313 0.492188
0.000000 0.295313 0.525000
0.000000 0.295313 0.557813
0.000000 0.295313 0.590625
0.000000 0.295313 0.623437
0.000000 0.295313 0.656250
0.000000 0.295313 0.689063
0.000000 0.295313 0.721875
0.000000 0.295313 0.754688
0.000000 0.295313 0.787500
0.000000 0.295313 0.820312
0.000000 0.295313 0.853125
0.000000 0.295313 0.885938
0.000000 0.295313 0.918750
0.000000 0.295313 0.951563
0.000000 0.295313 0.984375
0.000000 0.295313 1.017188
0.000000 0.295313 1.050000
0.000000 0.328125 0.000000
0.000000 0.328125 0.032813
0.000000 0.328125 0.065625
0.000000 0.328125 0.098438
0.000000 0.328125 0.131250
0.000000 0.328125 0.164062
0.000000 0.328125 0.196875
0.000000 0.328125 0.229688
0.000000 0.328125 0.262500
0.000000 0.328125 0.295313
0.000000 0.328125 0.328125
0.000000 0.328125 0.360938
0.000000 0.328125 0.393750
0.000000 0.328125 0.426563
0.000000 0.328125 0.459375
0.000000 0.328125 0.492188
0.000000 0.328125 0.525000
0.000000 0.328125 0.557813
0.000000 0.328125 0.590625
0.000000 0.328125 0.623437
0.000000 0.328125 0.656250
0.000000 0.328125 0.689063
0.000000 0.328125 0.721875
0.000000 0.328125 0.754688
0.000000 0.328125 0.787500
0.000000 0.328125 0.820312
0.000000 0.328125 0.853125
0.000000 0.328125 0.885938
0.000000 0.328125 0.918750
0.000000 0.328125 0.951563
0.000000 0.328125 0.984375
0.000000 0.328125 1.017188
0.000000 0.328125 1.050000
0.000000 0.360938 0.000000
0.000000 0.360938 0.032813
0.000000 0.360938 0.065625
0.000000 0.360938 0.098438
0.000000 0.360938 0.131250
0.000000 0.360938 0.164062
0.000000 0.360938 0.196875
0.000000 0.360938 0.229688
0.000000 0.360938 0.262500
0.000000 0.360938 0.295313
0.000000 0.360938 0.328125
0.000000 0.360938 0.360938
0.000000 0.360938 0.393750
0.000000 0.360938 0.426563
0.000000 0.360938 0.459375
0.000000 0.360938 0.492188
0.000000 0.360938 0.525000
0.000000 0.360938 0.557813
0.000000 0.360938 0.590625
0.000000 0.360938 0.623437
0.000000 0.360938 0.656250
0.000000 0.360938 0.689063
0.000000 0.360938 0.721875
0.000000 0.360938 0.754688
0.000000 0.360938 0.787500
0.000000 0.360938 0.820312
0.000000 0.360938 0.853125
0.000000 0.360938 0.885938
0.000000 0.360938 0.918750
0.000000 0.360938 0.951563
0.000000 0.360938 0.984375
0.000000 0.360938 1.017188
0.000000 0.360938 1.050000
0.000000 0.393750 0.000000
0.000000 0.393750 0.032813
0.000000 0.393750 0.065625
0.000000 0.393750 0.098438
0.000000 0.393750 0.131250
0.000000 0.393750 0.164062
0.000000 0.393750 0.196875
0.000000 0.393750 0.229688
0.000000 0.393750 0.262500
0.000000 0.393750 0.295313
0.000000 0.393750 0.328125
0.000000 0.393750 0.360938
0.000000 0.393750 0.393750
0.000000 0.393750 0.426563
0.000000 0.393750 0.459375
0.000000 0.393750 0.492188
0.000000 0.393750 0.525000
0.000000 0.393750 0.557813
0.000000 0.393750 0.590625
0.000000 0.393750 0.623437
0.000000 0.393750 0.656250
0.000000 0.393750 0.689063
0.000000 0.393750 0.721875
0.000000 0.393750 0.754688
0.000000 0.393750 0.787500
0.000000 0.393750 0.820312
0.000000 0.393750 0.853125
0.000000 0.393750 0.885938
0.000000 0.393750 0.918750
0.000000 0.393750 0.951563
0.000000 0.393750 0.984375
0.000000 0.393750 1.017188
0.000000 0.393750 1.050000
0.000000 0.426563 0.000000
0.000000 0.426563 0.032813
0.000000 0.426563 0.065625
0.000000 0.426563 0.098438
0.000000 0.426563 0.131250
0.000000 0.426563 0.164062
0.000000 0.426563 0.196875
0.000000 0.426563 0.229688
0.000000 0.426563 0.262500
0.000000 0.426563 0.295313
0.000000 0.426563 0.328125
0.000000 0.426563 0.360938
0.000000 0.426563 0.393750
0.000000 0.426563 0.426563
0.000000 0.426563 0.459375
0.000000 0.426563 0.492188
0.000000 0.426563 0.525000
0.000000 0.426563 0.557813
0.000000 0.426563 0.590625
0.000000 0.426563 0.623437
0.000000 0.426563 0.656250
0.000000 0.426563 0.689063
0.000000 0.426563 0.721875
0.000000 0.426563 0.754688
0.000000 0.426563 0.787500
0.000000 0.426563 0.820312
0.000000 0.426563 0.853125
0.000000 0.426563 0.885938
0.000000 0.426563 0.918750
0.000000 0.426563 0.951563
0.000000 0.426563 0.984375
0.000000 0.426563 1.017188
0.000000 0.426563 1.050000
0.000000 0.459375 0.000000
0.000000 0.459375 0.032813
0.000000 0.459375 0.065625
0.000000 0.459375 0.098438
0.000000 0.459375 0.131250
0.000000 0.459375 0.164062
0.000000 0.459375 0.196875
0.000000 0.459375 0.229688
0.000000 0.459375 0.262500
0.000000 0.459375 0.295313
0.000000 0.459375 0.328125
0.000000 0.459375 0.360938
0.000000 0.459375 0.393750
0.000000 0.459375 0.426563
0.000000 0.459375 0.459375
0.000000 0.459375 0.492188
0.000000 0.459375 0.525000
0.000000 0.459375 0.557813
0.000000 0.459375 0.590625
0.000000 0.459375 0.623437
0.000000 0.459375 0.656250
0.000000 0.459375 0.689063
0.000000 0.459375 0.721875
0.000000 0.459375 0.754688
0.000000 0.459375 0.787500
0.000000 0.459375 0.820312
0.000000 0.459375 0.853125
0.000000 0.459375 0.885938
0.000000 0.459375 0.918750
0.000000 0.459375 0.951563
0.000000 0.459375 0.984375
0.000000 0.459375 1.017188
0.000000 0.459375 1.050000
0.000000 0.492188 0.000000
0.000000 0.492188 0.032813
0.000000 0.492188 0.065625
0.000000 0.492188 0.098438
0.000000 0.492188 0.131250
0.000000 0.492188 0.164062
0.000000 0.492188 0.196875
0.000000 0.492188 0.229688
0.000000 0.492188 0.262500
0.000000 0.492188 0.295313
0.000000 0.492188 0.328125
0.000000 0.492188 0.360938
0.000000 0.492188 0.393750
0.000000 0.492188 0.426563
0.000000 0.492188 0.459375
0.000000 0.492188 0.492188
0.000000 0.492188 0.525000
0.000000 0.492188 0.557813
0.000000 0.492188 0.590625
0.000000 0.492188 0.623437
0.000000 0.492188 0.656250
0.000000 0.492188 0.689063
0.000000 0.492188 0.721875
0.000000 0.492188 0.754688
0.000000 0.492188 0.787500
0.000000 0.492188 0.820312
0.000000 0.492188 0.853125
0.000000 0.492188 0.885938
0.000000 0.492188 0.918750
0.000000 0.492188 0.951563
0.000000 0.492188 0.984375
0.000000 0.492188 1.017188
0.000000 0.492188 1.050000
0.000000 0.525000 0.000000
0.000000 0.525000 0.032813
0.000000 0.525000 0.065625
0.000000 0.525000 0.098438
0.000000 0.525000 0.131250
0.000000 0.525000 0.164062
0.000000 0.525000 0.196875
0.000000 0.525000 0.229688
0.000000 0.525000 0.262500
0.000000 0.525000 0.295313
0.000000 0.525000 0.328125
0.000000 0.525000 0.360938
0.000000 0.525000 0.393750
0.000000 0.525000 0.426563
0.000000 0.525000 0.459375
0.000000 0.525000 0.492188
0.000000 0.525000 0.525000
0.000000 0.525000 0.557813
0.000000 0.525000 0.590625
0.000000 0.525000 0.623437
0.000000 0.525000 0.656250
0.000000 0.525000 0.689063
0.000000 0.525000 0.721875
0.000000 0.525000 0.754688
0.000000 0.525000 0.787500
0.000000 0.525000 0.820312
0.000000 0.525000 0.853125
0.000000 0.525000 0.885938
0.000000 0.525000 0.918750
0.000000 0.525000 0.951563
0.000000 0.525000 0.984375
0.000000 0.525000 1.017188
0.000000 0.525000 1.050000
0.000000 0.557813 0.000000
0.000000 0.557813 0.032813
0.000000 0.557813 0.065625
0.000000 0.557813 0.098438
0.000000 0.557813 0.131250
0.000000 0.557813 0.164062
0.000000 0.557813 0.196875
0.000000 0.557813 0.229688
0.000000 0.557813 0.262500
0.000000 0.557813 0.295313
0.000000 0.557813 0.328125
0.000000 0.557813 0.360938
0.000000 0.557813 0.393750
0.000000 0.557813 0.426563
0.000000 0.557813 0.459375
0.000000 0.557813 0.492188
0.000000 0.557813 0.525000
0.000000 0.557813 0.557813
0.000000 0.557813 0.590625
0.000000 0.557813 0.623437
0.000000 0.557813 0.656250
0.000000 0.557813 0.689063
0.000000 0.557813 0.721875
0.000000 0.557813 0.754688
0.000000 0.557813 0.787500
0.000000 0.557813 0.820312
0.000000 0.557813 0.853125
0.000000 0.557813 0.885938
0.000000 0.557813 0.918750
0.000000 0.557813 0.951563
0.000000 0.557813 0.984375
0.000000 0.557813 1.017188
0.000000 0.557813 1.050000
0.000000 0.590625 0.000000
0.000000 0.590625 0.032813
0.000000 0.590625 0.065625
0.000000 0.590625 0.098438
0.000000 0.590625 0.131250
0.000000 0.590625 0.164062
0.000000 0.590625 0.196875
0.000000 0.590625 0.229688
0.000000 0.590625 0.262500
0.000000 0.590625 0.295313
0.000000 0.590625 0.328125
0.000000 0.590625 0.360938
0.000000 0.590625 0.393750
0.000000 0.590625 0.426563
0.000000 0.590625 0.459375
0.000000 0.590625 0.492188
0.000000 0.590625 0.525000
0.000000 0.590625 0.557813
0.000000 0.590625 0.590625
0.000000 0.590625 0.623437
0.000000 0.590625 0.656250
0.000000 0.590625 0.689063
0.000000 0.590625 0.721875
0.000000 0.590625 0.754688
0.000000 0.590625 0.787500
0.000000 0.590625 0.820312
0.000000 0.590625 0.853125
0.000000 0.590625 0.885938
0.000000 0.590625 0.918750
0.000000 0.590625 0.951563
0.000000 0.590625 0.984375
0.000000 0.590625 1.017188
0.000000 0.590625 1.050000
0.000000 0.623437 0.000000
0.000000 0.623437 0.032813
0.000000 0.623437 0.065625
0.000000 0.623437 0.098438
0.000000 0.623437 0.131250
0.000000 0.623437 0.164062
0.000000 0.623437 0.196875
0.000000 0.623437 0.229688
0.000000 0.623437 0.262500
0.000000 0.623437 0.295313
0.000000 0.623437 0.328125
0.000000 0.623437 0.360938
0.000000 0.623437 0.393750
0.000000 0.623437 0.426563
0.000000 0.623437 0.459375
0.000000 0.623437 0.492188
0.000000 0.623437 0.525000
0.000000 0.623437 0.557813
0.000000 0.623437 0.590625
0.000000 0.623437 0.623437
0.000000 0.623437 0.656250
0.000000 0.623437 0.689063
0.000000 0.623437 0.721875
0.000000 0.623437 0.754688
0.000000 0.623437 0.787500
0.000000 0.623437 0.820312
0.000000 0.623437 0.853125
0.000000 0.623437 0.885938
0.000000 0.623437 0.918750
0.000000 0.623437 0.951563
0.000000 0.623437 0.984375
0.000000 0.623437 1.017188
0.000000 0.623437 1.050000
0.000000 0.656250 0.000000
0.000000 0.656250 0.032813
0.000000 0.656250 0.065625
0.000000 0.656250 0.098438
0.000000 0.656250 0.131250
0.000000 0.656250 0.164062
0.000000 0.656250 0.196875
0.000000 0.656250 0.229688
0.000000 0.656250 0.262500
0.000000 0.656250 0.295313
0.000000 0.656250 0.328125
0.000000 0.656250 0.360938
0.000000 0.656250 0.393750
0.000000 0.656250 0.426563
0.000000 0.656250 0.459375
0.000000 0.656250 0.492188
0.000000 0.656250 0.525000
0.000000 0.656250 0.557813
0.000000 0.656250 0.590625
0.000000 0.656250 0.623437
0.000000 0.656250 0.656250
0.000000 0.656250 0.689063
0.000000 0.656250 0.721875
0.000000 0.656250 0.754688
0.000000 0.656250 0.787500
0.000000 0.656250 0.820312
0.000000 0.656250 0.853125
0.000000 0.656250 0.885938
0.000000 0.656250 0.918750
0.000000 0.656250 0.951563
0.000000 0.656250 0.984375
0.000000 0.656250 1.017188
0.000000 0.656250 1.050000
0.000000 0.689063 0.000000
0.000000 0.689063 0.032813
0.000000 0.689063 0.065625
0.000000 0.689063 0.098438
0.000000 0.689063 0.131250
0.000000 0.689063 0.164062
0.000000 0.689063 0.196875
0.000000 0.689063 0.229688
0.000000 0.689063 0.262500
0.000000 0.689063 0.295313
0.000000 0.689063 0.328125
0.000000 0.689063 0.360938
0.000000 0.689063 0.393750
0.000000 0.689063 0.426563
0.000000 0.689063 0.459375
0.000000 0.689063 0.492188
0.000000 0.689063 0.525000
0.000000 0.689063 0.557813
0.000000 0.689063 0.590625
0.000000 0.689063 0.623437
0.000000 0.689063 0.656250
0.000000 0.689063 0.689063
0.000000 0.689063 0.721875
0.000000 0.689063 0.754688
0.000000 0.689063 0.787500
0.000000 0.689063 0.820312
0.000000 0.689063 0.853125
0.000000 0.689063 0.885938
0.000000 0.689063 0.918750
0.000000 0.689063 0.951563
0.000000 0.689063 0.984375
0.000000 0.689063 1.017188
0.000000 0.689063 1.050000
0.000000 0.721875 0.000000
0.000000 0.721875 0.032813
0.000000 0.721875 0.065625
0.000000 0.721875 0.098438
0.000000 0.721875 0.131250
0.000000 0.721875 0.164062
0.000000 0.721875 0.196875
0.000000 0.721875 0.229688
0.000000 0.721875 0.262500
0.000000 0.721875 0.295313
0.000000 0.721875 0.328125
0.000000 0.721875 0.360938
0.000000 0.721875 0.393750
0.000000 0.721875 0.426563
0.000000 0.721875 0.459375
0.000000 0.721875 0.492188
0.000000 0.721875 0.525000
0.000000 0.721875 0.557813
0.000000 0.721875 0.590625
0.000000 0.721875 0.623437
0.000000 0.721875 0.656250
0.000000 0.721875 0.689063
0.000000 0.721875 0.721875
0.000000 0.721875 0.754688
0.000000 0.721875 0.787500
0.000000 0.721875 0.820312
0.000000 0.721875 0.853125
0.000000 0.721875 0.885938
0.000000 0.721875 0.918750
0.000000 0.721875 0.951563
0.000000 0.721875 0.984375
0.000000 0.721875 1.017188
0.000000 0.721875 1.050000
0.000000 0.754688 0.000000
0.000000 0.754688 0.032813
0.000000 0.754688 0.065625
0.000000 0.754688 0.098438
0.000000 0.754688 0.131250
0.000000 0.754688 0.164062
0.000000 0.754688 0.196875
0.000000 0.754688 0.229688
0.000000 0.754688 0.262500
0.000000 0.754688 0.295313
0.000000 0.754688 0.328125
0.000000 0.754688 0.360938
0.000000 0.754688 0.393750
0.000000 0.754688 0.426563
0.000000 0.754688 0.459375
0.000000 0.754688 0.492188
0.000000 0.754688 0.525000
0.000000 0.754688 0.557813
0.000000 0.754688 0.590625
0.000000 0.754688 0.623437
0.000000 0.754688 0.656250
0.000000 0.754688 0.689063
0.000000 0.754688 0.721875
0.000000 0.754688 0.754688
0.000000 0.754688 0.787500
0.000000 0.754688 0.820312
0.000000 0.754688 0.853125
0.000000 0.754688 0.885938
0.000000 0.754688 0.918750
0.000000 0.754688 0.951563
0.000000 0.754688 0.984375
0.000000 0.754688 1.017188
0.000000 0.754688 1.050000
0.000000 0.787500 0.000000
0.000000 0.787500 0.032813
0.000000 0.787500 0.065625
0.000000 0.787500 0.098438
0.000000 0.787500 0.131250
0.000000 0.787500 0.164062
0.000000 0.787500 0.196875
0.000000 0.787500 0.229688
0.000000 0.787500 0.262500
0.000000 0.787500 0.295313
0.000000 0.787500 0.328125
0.000000 0.787500 0.360938
0.000000 0.787500 0.393750
0.000000 0.787500 0.426563
0.000000 0.787500 0.459375
0.000000 0.787500 0.492188
0.000000 0.787500 0.525000
0.000000 0.787500 0.557813
0.000000 0.787500 0.590625
0.000000 0.787500 0.623437
0.000000 0.787500 0.656250
0.000000 0.787500 0.689063
0.000000 0.787500 0.721875
0.000000 0.787500 0.754688
0.000000 0.787500 0.787500
0.000000 0.787500 0.820312
0.000000 0.787500 0.853125
0.000000 0.787500 0.885938
0.000000 0.787500 0.918750
0.000000 0.787500 0.951563
0.000000 0.787500 0.984375
0.000000 0.787500 1.017188
0.000000 0.787500 1.050000
0.000000 0.820312 0.000000
0.000000 0.820312 0.032813
0.000000 0.820312 0.065625
0.000000 0.820312 0.098438
0.000000 0.820312 0.131250
0.000000 0.820312 0.164062
0.000000 0.820312 0.196875
0.000000 0.820312 0.229688
0.000000 0.820312 0.262500
0.000000 0.820312 0.295313
0.000000 0.820312 0.328125
0.000000 0.820312 0.360938
0.000000 0.820312 0.393750
0.000000 0.820312 0.426563
0.000000 0.820312 0.459375
0.000000 0.820312 0.492188
0.000000 0.820312 0.525000
0.000000 0.820312 0.557813
0.000000 0.820312 0.590625
0.000000 0.820312 0.623437
0.000000 0.820312 0.656250
0.000000 0.820312 0.689063
0.000000 0.820312 0.721875
0.000000 0.820312 0.754688
0.000000 0.820312 0.787500
0.000000 0.820312 0.820312
0.000000 0.820312 0.853125
0.000000 0.820312 0.885938
0.000000 0.820312 0.918750
0.000000 0.820312 0.951563
0.000000 0.820312 0.984375
0.000000 0.820312 1.017188
0.000000 0.820312 1.050000
0.000000 0.853125 0.000000
0.000000 0.853125 0.032813
0.000000 0.853125 0.065625
0.000000 0.853125 0.098438
0.000000 0.853125 0.131250
0.000000 0.853125 0.164062
0.000000 0.853125 0.196875
0.000000 0.853125 0.229688
0.000000 0.853125 0.262500
0.000000 0.853125 0.295313
0.000000 0.853125 0.328125
0.000000 0.853125 0.360938
0.000000 0.853125 0.393750
0.000000 0.853125 0.426563
0.000000 0.853125 0.459375
0.000000 0.853125 0.492188
0.000000 0.853125 0.525000
0.000000 0.853125 0.557813
0.000000 0.853125 0.590625
0.000000 0.853125 0.623437
0.000000 0.853125 0.656250
0.000000 0.853125 0.689063
0.000000 0.853125 0.721875
0.000000 0.853125 0.754688
0.000000 0.853125 0.787500
