src/flutter_app/assets/presets/natural.cube
# PoseCraft LUT preset
# Generated automatically for Phase 1
TITLE "PoseCraft Preset"
LUT_3D_SIZE 9
DOMAIN_MIN 0.0 0.0 0.0
DOMAIN_MAX 1.0 1.0 1.0
0.000000 0.000000 0.000000
0.000000 0.000000 0.131250
0.000000 0.000000 0.262500
0.000000 0.000000 0.393750
0.000000 0.000000 0.525000
0.000000 0.000000 0.656250
0.000000 0.000000 0.787500
0.000000 0.000000 0.918750
0.000000 0.000000 1.050000
0.000000 0.131250 0.000000
0.000000 0.131250 0.131250
0.000000 0.131250 0.262500
0.000000 0.131250 0.393750
0.000000 0.131250 0.525000
0.000000 0.131250 0.656250
0.000000 0.131250 0.787500
0.000000 0.131250 0.918750
0.000000 0.131250 1.050000
0.000000 0.262500 0.000000
0.000000 0.262500 0.131250
0.000000 0.262500 0.262500
0.000000 0.262500 0.393750
0.000000 0.262500 0.525000
0.000000 0.262500 0.656250
0.000000 0.262500 0.787500
0.000000 0.262500 0.918750
0.000000 0.262500 1.050000
0.000000 0.393750 0.000000
0.000000 0.393750 0.131250
0.000000 0.393750 0.262500
0.000000 0.393750 0.393750
0.000000 0.393750 0.525000
0.000000 0.393750 0.656250
0.000000 0.393750 0.787500
0.000000 0.393750 0.918750
0.000000 0.393750 1.050000
0.000000 0.525000 0.000000
0.000000 0.525000 0.131250
0.000000 0.525000 0.262500
0.000000 0.525000 0.393750
0.000000 0.525000 0.525000
0.000000 0.525000 0.656250
0.000000 0.525000 0.787500
0.000000 0.525000 0.918750
0.000000 0.525000 1.050000
0.000000 0.656250 0.000000
0.000000 0.656250 0.131250
0.000000 0.656250 0.262500
0.000000 0.656250 0.393750
0.000000 0.656250 0.525000
0.000000 0.656250 0.656250
0.000000 0.656250 0.787500
0.000000 0.656250 0.918750
0.000000 0.656250 1.050000
0.000000 0.787500 0.000000
0.000000 0.787500 0.131250
0.000000 0.787500 0.262500
0.000000 0.787500 0.393750
0.000000 0.787500 0.525000
0.000000 0.787500 0.656250
0.000000 0.787500 0.787500
0.000000 0.787500 0.918750
0.000000 0.787500 1.050000
0.000000 0.918750 0.000000
0.000000 0.918750 0.131250
0.000000 0.918750 0.262500
0.000000 0.918750 0.393750
0.000000 0.918750 0.525000
0.000000 0.918750 0.656250
0.000000 0.918750 0.787500
0.000000 0.918750 0.918750
0.000000 0.918750 1.050000
0.000000 1.050000 0.000000
0.000000 1.050000 0.131250
0.000000 1.050000 0.262500
0.000000 1.050000 0.393750
0.000000 1.050000 0.525000
0.000000 1.050000 0.656250
0.000000 1.050000 0.787500
0.000000 1.050000 0.918750
0.000000 1.050000 1.050000
0.131250 0.000000 0.000000
0.131250 0.000000 0.131250
0.131250 0.000000 0.262500
0.131250 0.000000 0.393750
0.131250 0.000000 0.525000
0.131250 0.000000 0.656250
0.131250 0.000000 0.787500
0.131250 0.000000 0.918750
0.131250 0.000000 1.050000
0.131250 0.131250 0.000000
0.131250 0.131250 0.131250
0.131250 0.131250 0.262500
0.131250 0.131250 0.393750
0.131250 0.131250 0.525000
0.131250 0.131250 0.656250
0.131250 0.131250 0.787500
0.131250 0.131250 0.918750
0.131250 0.131250 1.050000
0.131250 0.262500 0.000000
0.131250 0.262500 0.131250
0.131250 0.262500 0.262500
0.131250 0.262500 0.393750
0.131250 0.262500 0.525000
0.131250 0.262500 0.656250
0.131250 0.262500 0.787500
0.131250 0.262500 0.918750
0.131250 0.262500 1.050000
0.131250 0.393750 0.000000
0.131250 0.393750 0.131250
0.131250 0.393750 0.262500
0.131250 0.393750 0.393750
0.131250 0.393750 0.525000
0.131250 0.393750 0.656250
0.131250 0.393750 0.787500
0.131250 0.393750 0.918750
0.131250 0.393750 1.050000
0.131250 0.525000 0.000000
0.131250 0.525000 0.131250
0.131250 0.525000 0.262500
0.131250 0.525000 0.393750
0.131250 0.525000 0.525000
0.131250 0.525000 0.656250
0.131250 0.525000 0.787500
0.131250 0.525000 0.918750
0.131250 0.525000 1.050000
0.131250 0.656250 0.000000
0.131250 0.656250 0.131250
0.131250 0.656250 0.262500
0.131250 0.656250 0.393750
0.131250 0.656250 0.525000
0.131250 0.656250 0.656250
0.131250 0.656250 0.787500
0.131250 0.656250 0.918750
0.131250 0.656250 1.050000
0.131250 0.787500 0.000000
0.131250 0.787500 0.131250
0.131250 0.787500 0.262500
0.131250 0.787500 0.393750
0.131250 0.787500 0.525000
0.131250 0.787500 0.656250
0.131250 0.787500 0.787500
0.131250 0.787500 0.918750
0.131250 0.787500 1.050000
0.131250 0.918750 0.000000
0.131250 0.918750 0.131250
0.131250 0.918750 0.262500
0.131250 0.918750 0.393750
0.131250 0.918750 0.525000
0.131250 0.918750 0.656250
0.131250 0.918750 0.787500
0.131250 0.918750 0.918750
0.131250 0.918750 1.050000
0.131250 1.050000 0.000000
0.131250 1.050000 0.131250
0.131250 1.050000 0.262500
0.131250 1.050000 0.393750
0.131250 1.050000 0.525000
0.131250 1.050000 0.656250
0.131250 1.050000 0.787500
0.131250 1.050000 0.918750
0.131250 1.050000 1.050000
0.262500 0.000000 0.000000
0.262500 0.000000 0.131250
0.262500 0.000000 0.262500
0.262500 0.000000 0.393750
0.262500 0.000000 0.525000
0.262500 0.000000 0.656250
0.262500 0.000000 0.787500
0.262500 0.000000 0.918750
0.262500 0.000000 1.050000
0.262500 0.131250 0.000000
0.262500 0.131250 0.131250
0.262500 0.131250 0.262500
0.262500 0.131250 0.393750
0.262500 0.131250 0.525000
0.262500 0.131250 0.656250
0.262500 0.131250 0.787500
0.262500 0.131250 0.918750
0.262500 0.131250 1.050000
0.262500 0.262500 0.000000
0.262500 0.262500 0.131250
0.262500 0.262500 0.262500
0.262500 0.262500 0.393750
0.262500 0.262500 0.525000
0.262500 0.262500 0.656250
0.262500 0.262500 0.787500
0.262500 0.262500 0.918750
0.262500 0.262500 1.050000
0.262500 0.393750 0.000000
0.262500 0.393750 0.131250
0.262500 0.393750 0.262500
0.262500 0.393750 0.393750
0.262500 0.393750 0.525000
0.262500 0.393750 0.656250
0.262500 0.393750 0.787500
0.262500 0.393750 0.918750
0.262500 0.393750 1.050000
0.262500 0.525000 0.000000
0.262500 0.525000 0.131250
0.262500 0.525000 0.262500
0.262500 0.525000 0.393750
0.262500 0.525000 0.525000
0.262500 0.525000 0.656250
0.262500 0.525000 0.787500
0.262500 0.525000 0.918750
0.262500 0.525000 1.050000
0.262500 0.656250 0.000000
0.262500 0.656250 0.131250
0.262500 0.656250 0.262500
0.262500 0.656250 0.393750
0.262500 0.656250 0.525000
0.262500 0.656250 0.656250
0.262500 0.656250 0.787500
0.262500 0.656250 0.918750
0.262500 0.656250 1.050000
0.262500 0.787500 0.000000
0.262500 0.787500 0.131250
0.262500 0.787500 0.262500
0.262500 0.787500 0.393750
0.262500 0.787500 0.525000
0.262500 0.787500 0.656250
0.262500 0.787500 0.787500
0.262500 0.787500 0.918750
0.262500 0.787500 1.050000
0.262500 0.918750 0.000000
0.262500 0.918750 0.131250
0.262500 0.918750 0.262500
0.262500 0.918750 0.393750
0.262500 0.918750 0.525000
0.262500 0.918750 0.656250
0.262500 0.918750 0.787500
0.262500 0.918750 0.918750
0.262500 0.918750 1.050000
0.262500 1.050000 0.000000
0.262500 1.050000 0.131250
0.262500 1.050000 0.262500
0.262500 1.050000 0.393750
0.262500 1.050000 0.525000
0.262500 1.050000 0.656250
0.262500 1.050000 0.787500
0.262500 1.050000 0.918750
0.262500 1.050000 1.050000
0.393750 0.000000 0.000000
0.393750 0.000000 0.131250
0.393750 0.000000 0.262500
0.393750 0.000000 0.393750
0.393750 0.000000 0.525000
0.393750 0.000000 0.656250
0.393750 0.000000 0.787500
0.393750 0.000000 0.918750
0.393750 0.000000 1.050000
0.393750 0.131250 0.000000
0.393750 0.131250 0.131250
0.393750 0.131250 0.262500
0.393750 0.131250 0.393750
0.393750 0.131250 0.525000
0.393750 0.131250 0.656250
0.393750 0.131250 0.787500
0.393750 0.131250 0.918750
0.393750 0.131250 1.050000
0.393750 0.262500 0.000000
0.393750 0.262500 0.131250
0.393750 0.262500 0.262500
0.393750 0.262500 0.393750
0.393750 0.262500 0.525000
0.393750 0.262500 0.656250
0.393750 0.262500 0.787500
0.393750 0.262500 0.918750
0.393750 0.262500 1.050000
0.393750 0.393750 0.000000
0.393750 0.393750 0.131250
0.393750 0.393750 0.262500
0.393750 0.393750 0.393750
0.393750 0.393750 0.525000
0.393750 0.393750 0.656250
0.393750 0.393750 0.787500
0.393750 0.393750 0.918750
0.393750 0.393750 1.050000
0.393750 0.525000 0.000000
0.393750 0.525000 0.131250
0.393750 0.525000 0.262500
0.393750 0.525000 0.393750
0.393750 0.525000 0.525000
0.393750 0.525000 0.656250
0.393750 0.525000 0.787500
0.393750 0.525000 0.918750
0.393750 0.525000 1.050000
0.393750 0.656250 0.000000
0.393750 0.656250 0.131250
0.393750 0.656250 0.262500
0.393750 0.656250 0.393750
0.393750 0.656250 0.525000
0.393750 0.656250 0.656250
0.393750 0.656250 0.787500
0.393750 0.656250 0.918750
0.393750 0.656250 1.050000
0.393750 0.787500 0.000000
0.393750 0.787500 0.131250
0.393750 0.787500 0.262500
0.393750 0.787500 0.393750
0.393750 0.787500 0.525000
0.393750 0.787500 0.656250
0.393750 0.787500 0.787500
0.393750 0.787500 0.918750
0.393750 0.787500 1.050000
0.393750 0.918750 0.000000
0.393750 0.918750 0.131250
0.393750 0.918750 0.262500
0.393750 0.918750 0.393750
0.393750 0.918750 0.525000
0.393750 0.918750 0.656250
0.393750 0.918750 0.787500
0.393750 0.918750 0.918750
0.393750 0.918750 1.050000
0.393750 1.050000 0.000000
0.393750 1.050000 0.131250
0.393750 1.050000 0.262500
0.393750 1.050000 0.393750
0.393750 1.050000 0.525000
0.393750 1.050000 0.656250
0.393750 1.050000 0.787500
0.393750 1.050000 0.918750
0.393750 1.050000 1.050000
0.525000 0.000000 0.000000
0.525000 0.000000 0.131250
0.525000 0.000000 0.262500
0.525000 0.000000 0.393750
0.525000 0.000000 0.525000
0.525000 0.000000 0.656250
0.525000 0.000000 0.787500
0.525000 0.000000 0.918750
0.525000 0.000000 1.050000
0.525000 0.131250 0.000000
0.525000 0.131250 0.131250
0.525000 0.131250 0.262500
0.525000 0.131250 0.393750
0.525000 0.131250 0.525000
0.525000 0.131250 0.656250
0.525000 0.131250 0.787500
0.525000 0.131250 0.918750
0.525000 0.131250 1.050000
0.525000 0.262500 0.000000
0.525000 0.262500 0.131250
0.525000 0.262500 0.262500
0.525000 0.262500 0.393750
0.525000 0.262500 0.525000
0.525000 0.262500 0.656250
0.525000 0.262500 0.787500
0.525000 0.262500 0.918750
0.525000 0.262500 1.050000
0.525000 0.393750 0.000000
0.525000 0.393750 0.131250
0.525000 0.393750 0.262500
0.525000 0.393750 0.393750
0.525000 0.393750 0.525000
0.525000 0.393750 0.656250
0.525000 0.393750 0.787500
0.525000 0.393750 0.918750
0.525000 0.393750 1.050000
0.525000 0.525000 0.000000
0.525000 0.525000 0.131250
0.525000 0.525000 0.262500
0.525000 0.525000 0.393750
0.525000 0.525000 0.525000
0.525000 0.525000 0.656250
0.525000 0.525000 0.787500
0.525000 0.525000 0.918750
0.525000 0.525000 1.050000
0.525000 0.656250 0.000000
0.525000 0.656250 0.131250
0.525000 0.656250 0.262500
0.525000 0.656250 0.393750
0.525000 0.656250 0.525000
0.525000 0.656250 0.656250
0.525000 0.656250 0.787500
0.525000 0.656250 0.918750
0.525000 0.656250 1.050000
0.525000 0.787500 0.000000
0.525000 0.787500 0.131250
0.525000 0.787500 0.262500
0.525000 0.787500 0.393750
0.525000 0.787500 0.525000
0.525000 0.787500 0.656250
0.525000 0.787500 0.787500
0.525000 0.787500 0.918750
0.525000 0.787500 1.050000
0.525000 0.918750 0.000000
0.525000 0.918750 0.131250
0.525000 0.918750 0.262500
0.525000 0.918750 0.393750
0.525000 0.918750 0.525000
0.525000 0.918750 0.656250
0.525000 0.918750 0.787500
0.525000 0.918750 0.918750
0.525000 0.918750 1.050000
0.525000 1.050000 0.000000
0.525000 1.050000 0.131250
0.525000 1.050000 0.262500
0.525000 1.050000 0.393750
0.525000 1.050000 0.525000
0.525000 1.050000 0.656250
0.525000 1.050000 0.787500
0.525000 1.050000 0.918750
0.525000 1.050000 1.050000
0.656250 0.000000 0.000000
0.656250 0.000000 0.131250
0.656250 0.000000 0.262500
0.656250 0.000000 0.393750
0.656250 0.000000 0.525000
0.656250 0.000000 0.656250
0.656250 0.000000 0.787500
0.656250 0.000000 0.918750
0.656250 0.000000 1.050000
0.656250 0.131250 0.000000
0.656250 0.131250 0.131250
0.656250 0.131250 0.262500
0.656250 0.131250 0.393750
0.656250 0.131250 0.525000
0.656250 0.131250 0.656250
0.656250 0.131250 0.787500
0.656250 0.131250 0.918750
0.656250 0.131250 1.050000
0.656250 0.262500 0.000000
0.656250 0.262500 0.131250
0.656250 0.262500 0.262500
0.656250 0.262500 0.393750
0.656250 0.262500 0.525000
0.656250 0.262500 0.656250
0.656250 0.262500 0.787500
0.656250 0.262500 0.918750
0.656250 0.262500 1.050000
0.656250 0.393750 0.000000
0.656250 0.393750 0.131250
0.656250 0.393750 0.262500
0.656250 0.393750 0.393750
0.656250 0.393750 0.525000
0.656250 0.393750 0.656250
0.656250 0.393750 0.787500
0.656250 0.393750 0.918750
0.656250 0.393750 1.050000
0.656250 0.525000 0.000000
0.656250 0.525000 0.131250
0.656250 0.525000 0.262500
0.656250 0.525000 0.393750
0.656250 0.525000 0.525000
0.656250 0.525000 0.656250
0.656250 0.525000 0.787500
0.656250 0.525000 0.918750
0.656250 0.525000 1.050000
0.656250 0.656250 0.000000
0.656250 0.656250 0.131250
0.656250 0.656250 0.262500
0.656250 0.656250 0.393750
0.656250 0.656250 0.525000
0.656250 0.656250 0.656250
0.656250 0.656250 0.787500
0.656250 0.656250 0.918750
0.656250 0.656250 1.050000
0.656250 0.787500 0.000000
0.656250 0.787500 0.131250
0.656250 0.787500 0.262500
0.656250 0.787500 0.393750
0.656250 0.787500 0.525000
0.656250 0.787500 0.656250
0.656250 0.787500 0.787500
0.656250 0.787500 0.918750
0.656250 0.787500 1.050000
0.656250 0.918750 0.000000
0.656250 0.918750 0.131250
0.656250 0.918750 0.262500
0.656250 0.918750 0.393750
0.656250 0.918750 0.525000
0.656250 0.918750 0.656250
0.656250 0.918750 0.787500
0.656250 0.918750 0.918750
0.656250 0.918750 1.050000
0.656250 1.050000 0.000000
0.656250 1.050000 0.131250
0.656250 1.050000 0.262500
0.656250 1.050000 0.393750
0.656250 1.050000 0.525000
0.656250 1.050000 0.656250
0.656250 1.050000 0.787500
0.656250 1.050000 0.918750
0.656250 1.050000 1.050000
0.787500 0.000000 0.000000
0.787500 0.000000 0.131250
0.787500 0.000000 0.262500
0.787500 0.000000 0.393750
0.787500 0.000000 0.525000
0.787500 0.000000 0.656250
0.787500 0.000000 0.787500
0.787500 0.000000 0.918750
0.787500 0.000000 1.050000
0.787500 0.131250 0.000000
0.787500 0.131250 0.131250
0.787500 0.131250 0.262500
0.787500 0.131250 0.393750
0.787500 0.131250 0.525000
0.787500 0.131250 0.656250
0.787500 0.131250 0.787500
0.787500 0.131250 0.918750
0.787500 0.131250 1.050000
0.787500 0.262500 0.000000
0.787500 0.262500 0.131250
0.787500 0.262500 0.262500
0.787500 0.262500 0.393750
0.787500 0.262500 0.525000
0.787500 0.262500 0.656250
0.787500 0.262500 0.787500
0.787500 0.262500 0.918750
0.787500 0.262500 1.050000
0.787500 0.393750 0.000000
0.787500 0.393750 0.131250
0.787500 0.393750 0.262500
0.787500 0.393750 0.393750
0.787500 0.393750 0.525000
0.787500 0.393750 0.656250
0.787500 0.393750 0.787500
0.787500 0.393750 0.918750
0.787500 0.393750 1.050000
0.787500 0.525000 0.000000
0.787500 0.525000 0.131250
0.787500 0.525000 0.262500
0.787500 0.525000 0.393750
0.787500 0.525000 0.525000
0.787500 0.525000 0.656250
0.787500 0.525000 0.787500
0.787500 0.525000 0.918750
0.787500 0.525000 1.050000
0.787500 0.656250 0.000000
0.787500 0.656250 0.131250
0.787500 0.656250 0.262500
0.787500 0.656250 0.393750
0.787500 0.656250 0.525000
0.787500 0.656250 0.656250
0.787500 0.656250 0.787500
0.787500 0.656250 0.918750
0.787500 0.656250 1.050000
0.787500 0.787500 0.000000
0.787500 0.787500 0.131250
0.787500 0.787500 0.262500
0.787500 0.787500 0.393750
0.787500 0.787500 0.525000
0.787500 0.787500 0.656250
0.787500 0.787500 0.787500
0.787500 0.787500 0.918750
0.787500 0.787500 1.050000
0.787500 0.918750 0.000000
0.787500 0.918750 0.131250
0.787500 0.918750 0.262500
0.787500 0.918750 0.393750
0.787500 0.918750 0.525000
0.787500 0.918750 0.656250
0.787500 0.918750 0.787500
0.787500 0.918750 0.918750
0.787500 0.918750 1.050000
0.787500 1.050000 0.000000
0.787500 1.050000 0.131250
0.787500 1.050000 0.262500
0.787500 1.050000 0.393750
0.787500 1.050000 0.525000
0.787500 1.050000 0.656250
0.787500 1.050000 0.787500
0.787500 1.050000 0.918750
0.787500 1.050000 1.050000
0.918750 0.000000 0.000000
0.918750 0.000000 0.131250
0.918750 0.000000 0.262500
0.918750 0.000000 0.393750
0.918750 0.000000 0.525000
0.918750 0.000000 0.656250
0.918750 0.000000 0.787500
0.918750 0.000000 0.918750
0.918750 0.000000 1.050000
0.918750 0.131250 0.000000
0.918750 0.131250 0.131250
0.918750 0.131250 0.262500
0.918750 0.131250 0.393750
0.918750 0.131250 0.525000
0.918750 0.131250 0.656250
0.918750 0.131250 0.787500
0.918750 0.131250 0.918750
0.918750 0.131250 1.050000
0.918750 0.262500 0.000000
0.918750 0.262500 0.131250
0.918750 0.262500 0.262500
0.918750 0.262500 0.393750
0.918750 0.262500 0.525000
0.918750 0.262500 0.656250
0.918750 0.262500 0.787500
0.918750 0.262500 0.918750
0.918750 0.262500 1.050000
0.918750 0.393750 0.000000
0.918750 0.393750 0.131250
0.918750 0.393750 0.262500
0.918750 0.393750 0.393750
0.918750 0.393750 0.525000
0.918750 0.393750 0.656250
0.918750 0.393750 0.787500
0.918750 0.393750 0.918750
0.918750 0.393750 1.050000
0.918750 0.525000 0.000000
0.918750 0.525000 0.131250
0.918750 0.525000 0.262500
0.918750 0.525000 0.393750
0.918750 0.525000 0.525000
0.918750 0.525000 0.656250
0.918750 0.525000 0.787500
0.918750 0.525000 0.918750
0.918750 0.525000 1.050000
0.918750 0.656250 0.000000
0.918750 0.656250 0.131250
0.918750 0.656250 0.262500
0.918750 0.656250 0.393750
0.918750 0.656250 0.525000
0.918750 0.656250 0.656250
0.918750 0.656250 0.787500
0.918750 0.656250 0.918750
0.918750 0.656250 1.050000
0.918750 0.787500 0.000000
0.918750 0.787500 0.131250
0.918750 0.787500 0.262500
0.918750 0.787500 0.393750
0.918750 0.787500 0.525000
0.918750 0.787500 0.656250
0.918750 0.787500 0.787500
0.918750 0.787500 0.918750
0.918750 0.787500 1.050000
0.918750 0.918750 0.000000
0.918750 0.918750 0.131250
0.918750 0.918750 0.262500
0.918750 0.918750 0.393750
0.918750 0.918750 0.525000
0.918750 0.918750 0.656250
0.918750 0.918750 0.787500
0.918750 0.918750 0.918750
0.918750 0.918750 1.050000
0.918750 1.050000 0.000000
0.918750 1.050000 0.131250
0.918750 1.050000 0.262500
0.918750 1.050000 0.393750
0.918750 1.050000 0.525000
0.918750 1.050000 0.656250
0.918750 1.050000 0.787500
0.918750 1.050000 0.918750
0.918750 1.050000 1.050000
1.050000 0.000000 0.000000
1.050000 0.000000 0.131250
1.050000 0.000000 0.262500
1.050000 0.000000 0.393750
1.050000 0.000000 0.525000
1.050000 0.000000 0.656250
1.050000 0.000000 0.787500
1.050000 0.000000 0.918750
1.050000 0.000000 1.050000
1.050000 0.131250 0.000000
1.050000 0.131250 0.131250
1.050000 0.131250 0.262500
1.050000 0.131250 0.393750
1.050000 0.131250 0.525000
1.050000 0.131250 0.656250
1.050000 0.131250 0.787500
1.050000 0.131250 0.918750
1.050000 0.131250 1.050000
1.050000 0.262500 0.000000
1.050000 0.262500 0.131250
1.050000 0.262500 0.262500
1.050000 0.262500 0.393750
1.050000 0.262500 0.525000
1.050000 0.262500 0.656250
1.050000 0.262500 0.787500
1.050000 0.262500 0.918750
1.050000 0.262500 1.050000
1.050000 0.393750 0.000000
1.050000 0.393750 0.131250
1.050000 0.393750 0.262500
1.050000 0.393750 0.393750
1.050000 0.393750 0.525000
1.050000 0.393750 0.656250
1.050000 0.393750 0.787500
1.050000 0.393750 0.918750
1.050000 0.393750 1.050000
1.050000 0.525000 0.000000
1.050000 0.525000 0.131250
1.050000 0.525000 0.262500
1.050000 0.525000 0.393750
1.050000 0.525000 0.525000
1.050000 0.525000 0.656250
1.050000 0.525000 0.787500
1.050000 0.525000 0.918750
1.050000 0.525000 1.050000
1.050000 0.656250 0.000000
1.050000 0.656250 0.131250
1.050000 0.656250 0.262500
1.050000 0.656250 0.393750
1.050000 0.656250 0.525000
1.050000 0.656250 0.656250
1.050000 0.656250 0.787500
1.050000 0.656250 0.918750
1.050000 0.656250 1.050000
1.050000 0.787500 0.000000
1.050000 0.787500 0.131250
1.050000 0.787500 0.262500
1.050000 0.787500 0.393750
1.050000 0.787500 0.525000
1.050000 0.787500 0.656250
1.050000 0.787500 0.787500
1.050000 0.787500 0.918750
1.050000 0.787500 1.050000
1.050000 0.918750 0.000000
1.050000 0.918750 0.131250
1.050000 0.918750 0.262500
1.050000 0.918750 0.393750
1.050000 0.918750 0.525000
1.050000 0.918750 0.656250
1.050000 0.918750 0.787500
1.050000 0.918750 0.918750
1.050000 0.918750 1.050000
1.050000 1.050000 0.000000
1.050000 1.050000 0.131250
1.050000 1.050000 0.262500
1.050000 1.050000 0.393750
1.050000 1.050000 0.525000
1.050000 1.050000 0.656250
1.050000 1.050000 0.787500
1.050000 1.050000 0.918750
1.050000 1.050000 1.050000
