src/flutter_app/assets/presets/natural.cube
# PoseCraft LUT preset
# Generated automatically for Phase 1
TITLE "PoseCraft Preset"
LUT_3D_SIZE 5
DOMAIN_MIN 0.0 0.0 0.0
DOMAIN_MAX 1.0 1.0 1.0
0.000000 0.000000 0.000000
0.000000 0.000000 0.262500
0.000000 0.000000 0.525000
0.000000 0.000000 0.787500
0.000000 0.000000 1.050000
0.000000 0.262500 0.000000
0.000000 0.262500 0.262500
0.000000 0.262500 0.525000
0.000000 0.262500 0.787500
0.000000 0.262500 1.050000
0.000000 0.525000 0.000000
0.000000 0.525000 0.262500
0.000000 0.525000 0.525000
0.000000 0.525000 0.787500
0.000000 0.525000 1.050000
0.000000 0.787500 0.000000
0.000000 0.787500 0.262500
0.000000 0.787500 0.525000
0.000000 0.787500 0.787500
0.000000 0.787500 1.050000
0.000000 1.050000 0.000000
0.000000 1.050000 0.262500
0.000000 1.050000 0.525000
0.000000 1.050000 0.787500
0.000000 1.050000 1.050000
0.262500 0.000000 0.000000
0.262500 0.000000 0.262500
0.262500 0.000000 0.525000
0.262500 0.000000 0.787500
0.262500 0.000000 1.050000
0.262500 0.262500 0.000000
0.262500 0.262500 0.262500
0.262500 0.262500 0.525000
0.262500 0.262500 0.787500
0.262500 0.262500 1.050000
0.262500 0.525000 0.000000
0.262500 0.525000 0.262500
0.262500 0.525000 0.525000
0.262500 0.525000 0.787500
0.262500 0.525000 1.050000
0.262500 0.787500 0.000000
0.262500 0.787500 0.262500
0.262500 0.787500 0.525000
0.262500 0.787500 0.787500
0.262500 0.787500 1.050000
0.262500 1.050000 0.000000
0.262500 1.050000 0.262500
0.262500 1.050000 0.525000
0.262500 1.050000 0.787500
0.262500 1.050000 1.050000
0.525000 0.000000 0.000000
0.525000 0.000000 0.262500
0.525000 0.000000 0.525000
0.525000 0.000000 0.787500
0.525000 0.000000 1.050000
0.525000 0.262500 0.000000
0.525000 0.262500 0.262500
0.525000 0.262500 0.525000
0.525000 0.262500 0.787500
0.525000 0.262500 1.050000
0.525000 0.525000 0.000000
0.525000 0.525000 0.262500
0.525000 0.525000 0.525000
0.525000 0.525000 0.787500
0.525000 0.525000 1.050000
0.525000 0.787500 0.000000
0.525000 0.787500 0.262500
0.525000 0.787500 0.525000
0.525000 0.787500 0.787500
0.525000 0.787500 1.050000
0.525000 1.050000 0.000000
0.525000 1.050000 0.262500
0.525000 1.050000 0.525000
0.525000 1.050000 0.787500
0.525000 1.050000 1.050000
0.787500 0.000000 0.000000
0.787500 0.000000 0.262500
0.787500 0.000000 0.525000
0.787500 0.000000 0.787500
0.787500 0.000000 1.050000
0.787500 0.262500 0.000000
0.787500 0.262500 0.262500
0.787500 0.262500 0.525000
0.787500 0.262500 0.787500
0.787500 0.262500 1.050000
0.787500 0.525000 0.000000
0.787500 0.525000 0.262500
0.787500 0.525000 0.525000
0.787500 0.525000 0.787500
0.787500 0.525000 1.050000
0.787500 0.787500 0.000000
0.787500 0.787500 0.262500
0.787500 0.787500 0.525000
0.787500 0.787500 0.787500
0.787500 0.787500 1.050000
0.787500 1.050000 0.000000
0.787500 1.050000 0.262500
0.787500 1.050000 0.525000
0.787500 1.050000 0.787500
0.787500 1.050000 1.050000
1.050000 0.000000 0.000000
1.050000 0.000000 0.262500
1.050000 0.000000 0.525000
1.050000 0.000000 0.787500
1.050000 0.000000 1.050000
1.050000 0.262500 0.000000
1.050000 0.262500 0.262500
1.050000 0.262500 0.525000
1.050000 0.262500 0.787500
1.050000 0.262500 1.050000
1.050000 0.525000 0.000000
1.050000 0.525000 0.262500
1.050000 0.525000 0.525000
1.050000 0.525000 0.787500
1.050000 0.525000 1.050000
1.050000 0.787500 0.000000
1.050000 0.787500 0.262500
1.050000 0.787500 0.525000
1.050000 0.787500 0.787500
1.050000 0.787500 1.050000
1.050000 1.050000 0.000000
1.050000 1.050000 0.262500
1.050000 1.050000 0.525000
1.050000 1.050000 0.787500
1.050000 1.050000 1.050000
