src/flutter_app/assets/presets/warm-portrait.cube
# PoseCraft LUT preset
# Generated automatically for Phase 1
TITLE "PoseCraft Preset"
LUT_3D_SIZE 9
DOMAIN_MIN 0.0 0.0 0.0
DOMAIN_MAX 1.0 1.0 1.0
0.000000 0.000000 0.000000
0.010434 0.030823 0.111694
0.020869 0.061646 0.223388
0.031303 0.092468 0.335081
0.041737 0.123291 0.446775
0.052172 0.154114 0.558469
0.062606 0.184937 0.670163
0.073041 0.215759 0.781856
0.128525 0.274598 0.854450
0.031720 0.125048 0.009056
0.010434 0.125048 0.093219
0.020869 0.176555 0.223388
0.031303 0.207378 0.335081
0.041737 0.238200 0.446775
0.052172 0.269023 0.558469
0.062606 0.299846 0.670163
0.073041 0.330669 0.781856
0.128525 0.378564 0.854450
0.063441 0.250097 0.018112
0.020869 0.250097 0.083801
0.020869 0.250097 0.186438
0.031303 0.322287 0.335081
0.041737 0.353110 0.446775
0.052172 0.383933 0.558469
0.062606 0.414755 0.670163
0.073041 0.445578 0.781856
0.128525 0.482529 0.854450
0.095161 0.375145 0.027169
0.031303 0.375145 0.074382
0.031303 0.375145 0.177019
0.031303 0.375145 0.279657
0.041737 0.468019 0.446775
0.052172 0.498842 0.558469
0.062606 0.529665 0.670163
0.073041 0.560487 0.781856
0.128525 0.586495 0.854450
0.126882 0.500194 0.036225
0.041737 0.500194 0.064963
0.041737 0.500194 0.167601
0.041737 0.500194 0.270239
0.041737 0.500194 0.372876
0.052172 0.613751 0.558469
0.062606 0.644574 0.670163
0.073041 0.675397 0.781856
0.128525 0.690460 0.854450
0.158602 0.625242 0.045281
0.052172 0.625242 0.055545
0.052172 0.625242 0.158183
0.052172 0.625242 0.260820
0.052172 0.625242 0.363457
0.052172 0.625242 0.466095
0.062606 0.750291 0.661952
0.073041 0.790306 0.781856
0.128525 0.794426 0.854450
0.190323 0.750291 0.054338
0.072067 0.750291 0.054338
0.062606 0.750291 0.148764
0.062606 0.750291 0.251402
0.062606 0.750291 0.354039
0.062606 0.750291 0.456677
0.062606 0.750291 0.559314
0.073041 0.875339 0.755171
0.128525 0.898392 0.854450
0.222043 0.875339 0.063394
0.103787 0.875339 0.063394
0.073041 0.875339 0.139345
0.073041 0.875339 0.241983
0.073041 0.875339 0.344621
0.073041 0.875339 0.447258
0.073041 0.875339 0.549896
0.073041 0.875339 0.652533
0.128525 0.956612 0.813590
0.282596 0.956612 0.111550
0.175602 0.956612 0.111550
0.128525 0.956612 0.163553
0.128525 0.956612 0.256416
0.128525 0.956612 0.349278
0.128525 0.956612 0.442140
0.128525 0.956612 0.535003
0.128525 0.956612 0.627866
0.128525 0.956612 0.720728
0.128691 0.010139 0.027531
0.107405 0.010139 0.111694
0.096553 0.020278 0.223388
0.085701 0.030417 0.335081
0.074849 0.040556 0.446775
0.063998 0.050695 0.558469
0.062606 0.070027 0.670163
0.073041 0.100850 0.781856
0.128525 0.170632 0.854450
0.128691 0.104365 0.009056
0.139125 0.135188 0.120750
0.149559 0.166010 0.232444
0.159994 0.196833 0.344138
0.170428 0.227656 0.455831
0.180863 0.258479 0.567525
0.191297 0.289301 0.679219
0.235519 0.341136 0.761588
0.257216 0.378963 0.863506
0.181697 0.250097 0.018112
0.170845 0.260236 0.129806
0.149559 0.260236 0.213969
0.159994 0.311742 0.344138
0.170428 0.342565 0.455831
0.180863 0.373388 0.567525
0.191297 0.404211 0.679219
0.235519 0.445102 0.761588
0.257216 0.481365 0.863506
0.213418 0.375145 0.027169
0.202566 0.385284 0.138862
0.159994 0.385284 0.204551
0.159994 0.385284 0.307188
0.170428 0.457474 0.455831
0.180863 0.488297 0.567525
0.191297 0.519120 0.679219
0.235519 0.549067 0.761588
0.257216 0.583767 0.863506
0.245138 0.500194 0.036225
0.234286 0.510333 0.147919
0.170428 0.510333 0.195132
0.170428 0.510333 0.297769
0.170428 0.510333 0.400407
0.180863 0.603207 0.567525
0.191297 0.634029 0.679219
0.235519 0.653033 0.761588
0.257216 0.686169 0.863506
0.276859 0.625242 0.045281
0.266007 0.635381 0.156975
0.180863 0.635381 0.185714
0.180863 0.635381 0.288351
0.180863 0.635381 0.390989
0.180863 0.635381 0.493626
0.191297 0.748939 0.679219
0.235519 0.756998 0.761588
0.257216 0.788572 0.863506
0.308579 0.750291 0.054338
0.297727 0.760430 0.166031
0.191297 0.760430 0.176295
0.191297 0.760430 0.278933
0.191297 0.760430 0.381570
0.191297 0.760430 0.484207
0.191297 0.760430 0.586845
0.235519 0.852647 0.754159
0.257216 0.890974 0.863506
0.340300 0.875339 0.063394
0.351072 0.852647 0.204412
0.244078 0.852647 0.204412
0.235519 0.852647 0.289846
0.235519 0.852647 0.382709
0.235519 0.852647 0.475571
0.235519 0.852647 0.568434
0.235519 0.852647 0.661296
0.257216 0.966752 0.839725
0.389590 0.956612 0.111550
0.390000 0.966752 0.223244
0.284616 0.966752 0.223244
0.257216 0.966752 0.290929
0.257216 0.966752 0.382395
0.257216 0.966752 0.473861
0.257216 0.966752 0.565327
0.257216 0.966752 0.656793
0.257216 0.966752 0.748259
0.257381 0.020278 0.055062
0.257381 0.020278 0.157700
0.214809 0.020278 0.223388
0.203957 0.030417 0.335081
0.193105 0.040556 0.446775
0.182254 0.050695 0.558469
0.171402 0.060834 0.670163
0.160550 0.070973 0.781856
0.188442 0.124888 0.854450
0.257381 0.093820 0.018112
0.267816 0.145327 0.148281
0.246530 0.145327 0.232444
0.235678 0.155466 0.344138
0.224826 0.165605 0.455831
0.213974 0.175744 0.567525
0.203123 0.185883 0.679219
0.235519 0.237170 0.761588
0.257216 0.276561 0.863506
0.257381 0.208730 0.018112
0.267816 0.239552 0.129806
0.278250 0.270375 0.241500
0.288684 0.301198 0.353194
0.299119 0.332021 0.464888
0.309553 0.362843 0.576581
0.342513 0.407674 0.668725
0.362600 0.444500 0.772040
0.385906 0.483328 0.872563
0.331674 0.375145 0.027169
0.320822 0.385284 0.138862
0.309970 0.395423 0.250556
0.288684 0.395423 0.334719
0.299119 0.446930 0.464888
0.309553 0.477753 0.576581
0.342513 0.511640 0.668725
0.362600 0.546902 0.772040
0.385906 0.583645 0.872563
0.363394 0.500194 0.036225
0.352543 0.510333 0.147919
0.341691 0.520472 0.259613
0.299119 0.520472 0.325301
0.299119 0.520472 0.427938
0.309553 0.592662 0.576581
0.342513 0.615605 0.668725
0.362600 0.649305 0.772040
0.385906 0.683963 0.872563
0.395115 0.625242 0.045281
0.384263 0.635381 0.156975
0.373411 0.645520 0.268669
0.309553 0.645520 0.315882
0.309553 0.645520 0.418519
0.309553 0.645520 0.521157
0.342513 0.719571 0.668725
0.362600 0.751707 0.772040
0.385906 0.784281 0.872563
0.426835 0.750291 0.054338
0.415984 0.760430 0.166031
0.419548 0.748681 0.297275
0.342513 0.748681 0.323277
0.342513 0.748681 0.416139
0.342513 0.748681 0.509002
0.342513 0.748681 0.601864
0.362600 0.854109 0.772040
0.385906 0.884598 0.872563
0.458556 0.875339 0.063394
0.458066 0.852647 0.204412
0.457447 0.864349 0.314710
0.362600 0.864349 0.323856
0.362600 0.864349 0.415323
0.362600 0.864349 0.506789
0.362600 0.864349 0.598255
0.362600 0.864349 0.689721
0.385906 0.976891 0.865394
0.496584 0.956612 0.111550
0.495385 0.966752 0.223244
0.497405 0.976891 0.334937
0.394165 0.976891 0.334937
0.385906 0.976891 0.417373
0.385906 0.976891 0.506978
0.385906 0.976891 0.596582
0.385906 0.976891 0.686186
0.385906 0.976891 0.775790
0.386072 0.030417 0.082593
0.386072 0.030417 0.185230
0.386072 0.030417 0.287868
0.322214 0.030417 0.335081
0.311362 0.040556 0.446775
0.300510 0.050695 0.558469
0.289658 0.060834 0.670163
0.278806 0.070973 0.781856
0.295435 0.124888 0.854450
0.386072 0.083276 0.027169
0.396506 0.155466 0.175812
0.396506 0.155466 0.278450
0.353934 0.155466 0.344138
0.343082 0.165605 0.455831
0.332230 0.175744 0.567525
0.321379 0.185883 0.679219
0.333953 0.228853 0.761588
0.335200 0.249936 0.863506
0.386072 0.198185 0.027169
0.396506 0.229008 0.138862
0.406941 0.280514 0.269031
0.385655 0.280514 0.353194
0.374803 0.290653 0.464888
0.363951 0.300792 0.576581
0.372471 0.332819 0.668725
0.373139 0.352338 0.772040
0.385906 0.383010 0.872563
0.386072 0.313094 0.027169
0.396506 0.343917 0.138862
0.406941 0.374740 0.250556
0.417375 0.405563 0.362250
0.427809 0.436385 0.473944
0.449506 0.474212 0.575863
0.467985 0.510038 0.680574
0.489146 0.547531 0.782958
0.514597 0.587692 0.881619
0.481651 0.500194 0.036225
0.470799 0.510333 0.147919
0.459947 0.520472 0.259613
0.449095 0.530611 0.371306
0.427809 0.530611 0.455469
0.449506 0.578178 0.575863
0.467985 0.612440 0.680574
0.489146 0.647849 0.782958
0.514597 0.685092 0.881619
0.513371 0.625242 0.045281
0.502519 0.635381 0.156975
0.491668 0.645520 0.268669
0.488024 0.644716 0.390138
0.449506 0.644716 0.449570
0.449506 0.644716 0.542432
0.467985 0.714842 0.680574
0.489146 0.748166 0.782958
0.514597 0.782491 0.881619
0.545092 0.750291 0.054338
0.534240 0.760430 0.166031
0.526542 0.748681 0.297275
0.524893 0.761947 0.406176
0.467985 0.761947 0.448250
0.467985 0.761947 0.539716
0.467985 0.761947 0.631182
0.489146 0.848484 0.782958
0.514597 0.879890 0.881619
0.576812 0.875339 0.063394
0.565059 0.852647 0.204412
0.562832 0.864349 0.314710
0.563478 0.876573 0.424542
0.489146 0.876573 0.449631
0.489146 0.876573 0.539235
0.489146 0.876573 0.628839
0.489146 0.876573 0.718443
0.514597 0.977290 0.881619
0.603577 0.956612 0.111550
0.600770 0.966752 0.223244
0.600645 0.976891 0.334937
0.604809 0.987030 0.446631
0.514597 0.987030 0.455331
0.514597 0.987030 0.542329
0.514597 0.987030 0.629326
0.514597 0.987030 0.716324
0.514597 0.987030 0.803321
0.514763 0.040556 0.110124
0.514763 0.040556 0.212761
0.514763 0.040556 0.315399
0.514763 0.040556 0.418036
0.429618 0.040556 0.446775
0.418766 0.050695 0.558469
0.407915 0.060834 0.670163
0.397063 0.070973 0.781856
0.402429 0.124888 0.854450
0.514763 0.072731 0.036225
0.525197 0.165605 0.203343
0.525197 0.165605 0.305980
0.525197 0.165605 0.408618
0.461339 0.165605 0.455831
0.450487 0.175744 0.567525
0.439635 0.185883 0.679219
0.440947 0.228853 0.761588
0.440585 0.249936 0.863506
0.514763 0.187640 0.036225
0.525197 0.218463 0.147919
0.535631 0.290653 0.296562
0.535631 0.290653 0.399200
0.493059 0.290653 0.464888
0.482207 0.300792 0.576581
0.479464 0.332819 0.668725
0.478524 0.352338 0.772040
0.480887 0.374984 0.872563
0.514763 0.302550 0.036225
0.525197 0.333372 0.147919
0.535631 0.364195 0.259613
0.546066 0.415702 0.389781
0.524780 0.415702 0.473944
0.517982 0.436784 0.575863
0.516462 0.454740 0.680574
0.518053 0.475302 0.782958
0.524621 0.500033 0.881619
0.514763 0.417459 0.036225
0.525197 0.448282 0.147919
0.535631 0.479105 0.259613
0.546066 0.509927 0.371306
0.556500 0.540750 0.483000
0.573370 0.575575 0.589108
0.592385 0.611734 0.693354
0.614833 0.650028 0.794621
0.643288 0.692057 0.890675
0.631628 0.625242 0.045281
0.620776 0.635381 0.156975
0.609924 0.645520 0.268669
0.595018 0.644716 0.390138
0.592339 0.659545 0.497642
0.573370 0.659545 0.572644
0.592385 0.712052 0.693354
0.614833 0.747427 0.794621
0.643288 0.785079 0.890675
0.663348 0.750291 0.054338
0.652496 0.760430 0.166031
0.633536 0.748681 0.297275
0.630278 0.761947 0.406176
0.629552 0.776255 0.514146
0.592385 0.776255 0.571493
0.592385 0.776255 0.661097
0.614833 0.844827 0.794621
0.643288 0.878101 0.890675
0.695069 0.875339 0.063394
0.672053 0.852647 0.204412
0.668216 0.864349 0.314710
0.666718 0.876573 0.424542
0.668961 0.889630 0.533629
0.614833 0.889630 0.573648
0.614833 0.889630 0.660645
0.614833 0.889630 0.747643
0.643288 0.971123 0.890675
0.710571 0.956612 0.111550
0.706155 0.966752 0.223244
0.703884 0.976891 0.334937
0.705046 0.987030 0.446631
0.712214 0.997169 0.558325
0.643288 0.997169 0.581590
0.643288 0.997169 0.664677
0.643288 0.997169 0.747765
0.643288 0.997169 0.830852
0.643453 0.050695 0.137655
0.643453 0.050695 0.240293
0.643453 0.050695 0.342930
0.643453 0.050695 0.445568
0.643453 0.050695 0.548205
0.537023 0.050695 0.558469
0.526171 0.060834 0.670163
0.515319 0.070973 0.781856
0.509423 0.124888 0.854450
0.643453 0.062186 0.045281
0.653888 0.175744 0.230874
0.653888 0.175744 0.333512
0.653888 0.175744 0.436149
0.653888 0.175744 0.538786
0.568743 0.175744 0.567525
0.557891 0.185883 0.679219
0.547941 0.228853 0.761588
0.545970 0.249936 0.863506
0.643453 0.177096 0.045281
0.653888 0.207918 0.156975
0.664322 0.300792 0.324093
0.664322 0.300792 0.426730
0.664322 0.300792 0.529368
0.600464 0.300792 0.576581
0.586458 0.332819 0.668725
0.583909 0.352338 0.772040
0.584126 0.374984 0.872563
0.643453 0.292005 0.045281
0.653888 0.322828 0.156975
0.664322 0.353650 0.268669
0.663494 0.436784 0.423568
0.663494 0.436784 0.516431
0.624976 0.436784 0.575863
0.621847 0.454740 0.680574
0.621292 0.475302 0.782958
0.624857 0.500033 0.881619
0.643453 0.406914 0.045281
0.653888 0.437737 0.156975
0.664322 0.468560 0.268669
0.663494 0.503322 0.390138
0.678755 0.557143 0.514106
0.659786 0.557143 0.589108
0.658459 0.575620 0.693354
0.660942 0.597432 0.794621
0.670092 0.625081 0.890675
0.643453 0.521824 0.045281
0.653888 0.552647 0.156975
0.664322 0.583469 0.268669
0.663494 0.607288 0.390138
0.678755 0.641112 0.497642
0.695625 0.675937 0.603750
0.715069 0.712363 0.707624
0.739019 0.751591 0.807588
0.771978 0.796422 0.899731
0.772144 0.741098 0.054338
0.770753 0.760430 0.166031
0.740529 0.748681 0.297275
0.735663 0.761947 0.406176
0.732791 0.776255 0.514146
0.733112 0.792231 0.620626
0.715069 0.792231 0.691964
0.739019 0.844613 0.807588
0.771978 0.882148 0.899731
0.813325 0.875339 0.063394
0.779047 0.852647 0.204412
0.773601 0.864349 0.314710
0.769957 0.876573 0.424542
0.769197 0.889630 0.533629
0.773482 0.904147 0.641413
0.739019 0.904147 0.694589
0.739019 0.904147 0.777676
0.771978 0.967874 0.899731
0.817565 0.956612 0.111550
0.811540 0.966752 0.223244
0.807124 0.976891 0.334937
0.805282 0.987030 0.446631
0.807945 0.997169 0.558325
0.819618 1.007308 0.670019
0.771978 1.007308 0.705241
0.771978 1.007308 0.781812
0.771978 1.007308 0.858383
0.772144 0.060834 0.165186
0.772144 0.060834 0.267824
0.772144 0.060834 0.370461
0.772144 0.060834 0.473099
0.772144 0.060834 0.575736
0.762683 0.060834 0.670163
0.644427 0.060834 0.670163
0.633575 0.070973 0.781856
0.616416 0.124888 0.854450
0.772144 0.060834 0.062549
0.782578 0.185883 0.258405
0.782578 0.185883 0.361043
0.782578 0.185883 0.463680
0.782578 0.185883 0.566318
0.782578 0.185883 0.668955
0.676148 0.185883 0.679219
0.654934 0.228853 0.761588
0.651355 0.249936 0.863506
0.772144 0.166551 0.054338
0.782578 0.197374 0.166031
0.770487 0.332819 0.364136
0.770487 0.332819 0.456999
0.770487 0.332819 0.549861
0.770487 0.332819 0.642723
0.693452 0.332819 0.668725
0.689293 0.352338 0.772040
0.687366 0.374984 0.872563
0.772144 0.281460 0.054338
0.782578 0.312283 0.166031
0.770487 0.361929 0.297275
0.784140 0.454740 0.455568
0.784140 0.454740 0.547034
0.784140 0.454740 0.638500
0.727232 0.454740 0.680574
0.724532 0.475302 0.782958
0.725093 0.500033 0.881619
0.772144 0.396370 0.054338
0.782578 0.427192 0.166031
0.770487 0.465895 0.297275
0.784140 0.501845 0.406176
0.798865 0.575620 0.546403
0.798865 0.575620 0.636008
0.761698 0.575620 0.693354
0.761178 0.597432 0.794621
0.765823 0.625081 0.890675
0.772144 0.511279 0.054338
0.782578 0.542102 0.166031
0.770487 0.569860 0.297275
0.784140 0.604248 0.406176
0.798865 0.639823 0.514146
0.815306 0.694832 0.636286
0.797263 0.694832 0.707624
0.800287 0.718103 0.807588
0.812561 0.750130 0.899731
0.772144 0.626189 0.054338
0.782578 0.657011 0.166031
0.770487 0.673826 0.297275
0.784140 0.706650 0.406176
0.798865 0.740141 0.514146
0.815306 0.774699 0.620626
0.834750 0.811125 0.724500
0.860201 0.851286 0.823160
0.900669 0.900787 0.908787
0.900834 0.845463 0.063394
0.877481 0.844330 0.204412
0.878986 0.864349 0.314710
0.873197 0.876573 0.424542
0.869433 0.889630 0.533629
0.869213 0.904147 0.641413
0.876081 0.921582 0.746590
0.860201 0.921582 0.809378
0.900669 0.971921 0.908787
0.924558 0.956612 0.111550
0.916925 0.966752 0.223244
0.910363 0.976891 0.334937
0.905518 0.987030 0.446631
0.903676 0.997169 0.558325
0.907841 1.007308 0.670019
0.927023 1.017447 0.781713
0.900669 1.017447 0.822377
0.900669 1.017447 0.885914
0.900834 0.070973 0.192717
0.900834 0.070973 0.295355
0.900834 0.070973 0.397992
0.900834 0.070973 0.500630
0.900834 0.070973 0.603267
0.900834 0.070973 0.705904
0.870088 0.070973 0.781856
0.751832 0.070973 0.781856
0.723410 0.124888 0.854450
0.900834 0.070973 0.090079
0.877481 0.228853 0.304704
0.877481 0.228853 0.397567
0.877481 0.228853 0.490429
0.877481 0.228853 0.583292
0.877481 0.228853 0.676154
0.868922 0.228853 0.761588
0.761928 0.228853 0.761588
0.756740 0.249936 0.863506
0.900834 0.156006 0.063394
0.877481 0.228853 0.211842
0.889525 0.352338 0.397029
0.889525 0.352338 0.488495
0.889525 0.352338 0.579961
0.889525 0.352338 0.671428
0.889525 0.352338 0.762894
0.794678 0.352338 0.772040
0.790605 0.374984 0.872563
0.900834 0.270916 0.063394
0.877481 0.324501 0.204412
0.889525 0.362578 0.314710
0.902104 0.475302 0.489057
0.902104 0.475302 0.578661
0.902104 0.475302 0.668265
0.902104 0.475302 0.757869
0.827772 0.475302 0.782958
0.825329 0.500033 0.881619
0.900834 0.385825 0.063394
0.877481 0.428467 0.204412
0.889525 0.464981 0.314710
0.902104 0.503391 0.424542
0.915542 0.597432 0.580607
0.915542 0.597432 0.667605
0.915542 0.597432 0.754602
0.861414 0.597432 0.794621
0.861555 0.625081 0.890675
0.900834 0.500735 0.063394
0.877481 0.532433 0.204412
0.889525 0.567383 0.314710
0.902104 0.603709 0.424542
0.915542 0.642236 0.533629
0.930481 0.718103 0.671324
0.930481 0.718103 0.754412
0.896018 0.718103 0.807588
0.900784 0.750130 0.899731
0.900834 0.615644 0.063394
0.877481 0.636398 0.204412
0.889525 0.669785 0.314710
0.902104 0.704026 0.424542
0.915542 0.739635 0.533629
0.930481 0.777637 0.641413
0.948424 0.835856 0.760372
0.932544 0.835856 0.823160
0.947521 0.875178 0.908787
0.900834 0.730553 0.063394
0.877481 0.740364 0.204412
0.889525 0.772187 0.314710
0.902104 0.804344 0.424542
0.915542 0.837035 0.533629
0.930481 0.870659 0.641413
0.948424 0.906151 0.746590
0.973875 0.946313 0.845250
1.029359 1.005151 0.917844
0.984475 0.910868 0.111550
0.994909 0.940127 0.223244
1.005344 0.968865 0.334937
1.005754 0.987030 0.446631
0.999408 0.997169 0.558325
0.996064 1.007308 0.670019
1.000229 1.017447 0.781713
1.034428 1.027586 0.893406
1.029359 1.027586 0.913445
0.984475 0.124888 0.245272
0.984475 0.124888 0.338135
0.984475 0.124888 0.430997
0.984475 0.124888 0.523859
0.984475 0.124888 0.616722
0.984475 0.124888 0.709584
0.984475 0.124888 0.802447
0.937398 0.124888 0.854450
0.830404 0.124888 0.854450
0.984475 0.124888 0.152410
0.994909 0.249936 0.338491
0.994909 0.249936 0.429957
0.994909 0.249936 0.521423
0.994909 0.249936 0.612889
0.994909 0.249936 0.704355
0.994909 0.249936 0.795821
0.967509 0.249936 0.863506
0.862125 0.249936 0.863506
0.984475 0.183108 0.111550
0.994909 0.249936 0.247025
1.005344 0.374984 0.431710
1.005344 0.374984 0.521314
1.005344 0.374984 0.610918
1.005344 0.374984 0.700523
1.005344 0.374984 0.790127
0.997085 0.374984 0.872563
0.893845 0.374984 0.872563
0.984475 0.287074 0.111550
0.994909 0.325714 0.223244
1.005344 0.374984 0.342106
1.015778 0.500033 0.524929
1.015778 0.500033 0.611927
1.015778 0.500033 0.698924
1.015778 0.500033 0.785921
1.015778 0.500033 0.872919
0.925566 0.500033 0.881619
0.984475 0.391039 0.111550
0.994909 0.428116 0.223244
1.005344 0.467277 0.334937
1.015778 0.509773 0.446631
1.026213 0.625081 0.618148
1.026213 0.625081 0.701236
1.026213 0.625081 0.784323
1.026213 0.625081 0.867411
0.957286 0.625081 0.890675
0.984475 0.495005 0.111550
0.994909 0.530518 0.223244
1.005344 0.567594 0.334937
1.015778 0.607172 0.446631
1.026213 0.651127 0.558325
1.036647 0.750130 0.711367
1.036647 0.750130 0.787938
1.036647 0.750130 0.864509
0.989007 0.750130 0.899731
0.984475 0.598971 0.111550
0.994909 0.632920 0.223244
1.005344 0.667912 0.334937
1.015778 0.704572 0.446631
1.026213 0.744149 0.558325
1.036647 0.789564 0.670019
1.047081 0.875178 0.804586
1.047081 0.875178 0.868124
1.020727 0.875178 0.908787
0.984475 0.702936 0.111550
0.994909 0.735323 0.223244
1.005344 0.768230 0.334937
1.015778 0.801971 0.446631
1.026213 0.837171 0.558325
1.036647 0.875290 0.670019
1.047081 0.920704 0.781713
1.057516 1.000227 0.897805
1.052448 1.000227 0.917844
0.984475 0.806902 0.111550
0.994909 0.837725 0.223244
1.005344 0.868548 0.334937
1.015778 0.899370 0.446631
1.026213 0.930193 0.558325
1.036647 0.961016 0.670019
1.047081 0.991838 0.781713
1.057516 1.022661 0.893406
1.060000 1.030000 0.920000
