src/flutter_app/assets/presets/warm-portrait.cube
# PoseCraft LUT preset
# Generated automatically for Phase 1
TITLE "PoseCraft Preset"
LUT_3D_SIZE 5
DOMAIN_MIN 0.0 0.0 0.0
DOMAIN_MAX 1.0 1.0 1.0
0.000000 0.000000 0.000000
0.020869 0.061646 0.223388
0.041737 0.123291 0.446775
0.062606 0.184937 0.670163
0.128525 0.274598 0.854450
0.063441 0.250097 0.018112
0.020869 0.250097 0.186438
0.041737 0.353110 0.446775
0.062606 0.414755 0.670163
0.128525 0.482529 0.854450
0.126882 0.500194 0.036225
0.041737 0.500194 0.167601
0.041737 0.500194 0.372876
0.062606 0.644574 0.670163
0.128525 0.690460 0.854450
0.190323 0.750291 0.054338
0.062606 0.750291 0.148764
0.062606 0.750291 0.354039
0.062606 0.750291 0.559314
0.128525 0.898392 0.854450
0.282596 0.956612 0.111550
0.128525 0.956612 0.163553
0.128525 0.956612 0.349278
0.128525 0.956612 0.535003
0.128525 0.956612 0.720728
0.257381 0.020278 0.055062
0.214809 0.020278 0.223388
0.193105 0.040556 0.446775
0.171402 0.060834 0.670163
0.188442 0.124888 0.854450
0.257381 0.208730 0.018112
0.278250 0.270375 0.241500
0.299119 0.332021 0.464888
0.342513 0.407674 0.668725
0.385906 0.483328 0.872563
0.363394 0.500194 0.036225
0.341691 0.520472 0.259613
0.299119 0.520472 0.427938
0.342513 0.615605 0.668725
0.385906 0.683963 0.872563
0.426835 0.750291 0.054338
0.419548 0.748681 0.297275
0.342513 0.748681 0.416139
0.342513 0.748681 0.601864
0.385906 0.884598 0.872563
0.496584 0.956612 0.111550
0.497405 0.976891 0.334937
0.385906 0.976891 0.417373
0.385906 0.976891 0.596582
0.385906 0.976891 0.775790
0.514763 0.040556 0.110124
0.514763 0.040556 0.315399
0.429618 0.040556 0.446775
0.407915 0.060834 0.670163
0.402429 0.124888 0.854450
0.514763 0.187640 0.036225
0.535631 0.290653 0.296562
0.493059 0.290653 0.464888
0.479464 0.332819 0.668725
0.480887 0.374984 0.872563
0.514763 0.417459 0.036225
0.535631 0.479105 0.259613
0.556500 0.540750 0.483000
0.592385 0.611734 0.693354
0.643288 0.692057 0.890675
0.663348 0.750291 0.054338
0.633536 0.748681 0.297275
0.629552 0.776255 0.514146
0.592385 0.776255 0.661097
0.643288 0.878101 0.890675
0.710571 0.956612 0.111550
0.703884 0.976891 0.334937
0.712214 0.997169 0.558325
0.643288 0.997169 0.664677
0.643288 0.997169 0.830852
0.772144 0.060834 0.165186
0.772144 0.060834 0.370461
0.772144 0.060834 0.575736
0.644427 0.060834 0.670163
0.616416 0.124888 0.854450
0.772144 0.166551 0.054338
0.770487 0.332819 0.364136
0.770487 0.332819 0.549861
0.693452 0.332819 0.668725
0.687366 0.374984 0.872563
0.772144 0.396370 0.054338
0.770487 0.465895 0.297275
0.798865 0.575620 0.546403
0.761698 0.575620 0.693354
0.765823 0.625081 0.890675
0.772144 0.626189 0.054338
0.770487 0.673826 0.297275
0.798865 0.740141 0.514146
0.834750 0.811125 0.724500
0.900669 0.900787 0.908787
0.924558 0.956612 0.111550
0.910363 0.976891 0.334937
0.903676 0.997169 0.558325
0.927023 1.017447 0.781713
0.900669 1.017447 0.885914
0.984475 0.124888 0.245272
0.984475 0.124888 0.430997
0.984475 0.124888 0.616722
0.984475 0.124888 0.802447
0.830404 0.124888 0.854450
0.984475 0.183108 0.111550
1.005344 0.374984 0.431710
1.005344 0.374984 0.610918
1.005344 0.374984 0.790127
0.893845 0.374984 0.872563
0.984475 0.391039 0.111550
1.005344 0.467277 0.334937
1.026213 0.625081 0.618148
1.026213 0.625081 0.784323
0.957286 0.625081 0.890675
0.984475 0.598971 0.111550
1.005344 0.667912 0.334937
1.026213 0.744149 0.558325
1.047081 0.875178 0.804586
1.020727 0.875178 0.908787
0.984475 0.806902 0.111550
1.005344 0.868548 0.334937
1.026213 0.930193 0.558325
1.047081 0.991838 0.781713
1.060000 1.030000 0.920000
