src/flutter_app/assets/presets/warm-portrait.cube
# PoseCraft LUT preset
# Generated automatically for Phase 1
TITLE "PoseCraft Preset"
LUT_3D_SIZE 33
DOMAIN_MIN 0.0 0.0 0.0
DOMAIN_MAX 1.0 1.0 1.0
0.000000 0.000000 0.000000
0.002609 0.007706 0.027923
0.005217 0.015411 0.055847
0.007826 0.023117 0.083770
0.010434 0.030823 0.111694
0.013043 0.038528 0.139617
0.015652 0.046234 0.167541
0.018260 0.053940 0.195464
0.020869 0.061646 0.223388
0.023477 0.069351 0.251311
0.026086 0.077057 0.279234
0.028695 0.084763 0.307158
0.031303 0.092468 0.335081
0.033912 0.100174 0.363005
0.036520 0.107880 0.390928
0.039129 0.115585 0.418852
0.041737 0.123291 0.446775
0.044346 0.130997 0.474698
0.046955 0.138702 0.502622
0.049563 0.146408 0.530545
0.052172 0.154114 0.558469
0.054780 0.161819 0.586392
0.057389 0.169525 0.614316
0.059998 0.177231 0.642239
0.062606 0.184937 0.670163
0.065215 0.192642 0.698086
0.067823 0.200348 0.726009
0.070432 0.208054 0.753933
0.073041 0.215759 0.781856
0.075649 0.223465 0.809780
0.078258 0.231171 0.837703
0.096352 0.248507 0.852186
0.128525 0.274598 0.854450
0.007930 0.031262 0.002264
0.002609 0.031262 0.023305
0.005217 0.044139 0.055847
0.007826 0.051844 0.083770
0.010434 0.059550 0.111694
0.013043 0.067256 0.139617
0.015652 0.074961 0.167541
0.018260 0.082667 0.195464
0.020869 0.090373 0.223388
0.023477 0.098079 0.251311
0.026086 0.105784 0.279234
0.028695 0.113490 0.307158
0.031303 0.121196 0.335081
0.033912 0.128901 0.363005
0.036520 0.136607 0.390928
0.039129 0.144313 0.418852
0.041737 0.152018 0.446775
0.044346 0.159724 0.474698
0.046955 0.167430 0.502622
0.049563 0.175135 0.530545
0.052172 0.182841 0.558469
0.054780 0.190547 0.586392
0.057389 0.198252 0.614316
0.059998 0.205958 0.642239
0.062606 0.213664 0.670163
0.065215 0.221370 0.698086
0.067823 0.229075 0.726009
0.070432 0.236781 0.753933
0.073041 0.244487 0.781856
0.075649 0.252192 0.809780
0.078258 0.259898 0.837703
0.096352 0.276263 0.852186
0.128525 0.300589 0.854450
0.015860 0.062524 0.004528
0.005217 0.062524 0.020950
0.005217 0.062524 0.046609
0.007826 0.080572 0.083770
0.010434 0.088277 0.111694
0.013043 0.095983 0.139617
0.015652 0.103689 0.167541
0.018260 0.111394 0.195464
0.020869 0.119100 0.223388
0.023477 0.126806 0.251311
0.026086 0.134512 0.279234
0.028695 0.142217 0.307158
0.031303 0.149923 0.335081
0.033912 0.157629 0.363005
0.036520 0.165334 0.390928
0.039129 0.173040 0.418852
0.041737 0.180746 0.446775
0.044346 0.188451 0.474698
0.046955 0.196157 0.502622
0.049563 0.203863 0.530545
0.052172 0.211568 0.558469
0.054780 0.219274 0.586392
0.057389 0.226980 0.614316
0.059998 0.234685 0.642239
0.062606 0.242391 0.670163
0.065215 0.250097 0.698086
0.067823 0.257803 0.726009
0.070432 0.265508 0.753933
0.073041 0.273214 0.781856
0.075649 0.280920 0.809780
0.078258 0.288625 0.837703
0.096352 0.304020 0.852186
0.128525 0.326581 0.854450
0.023790 0.093786 0.006792
0.007826 0.093786 0.018596
0.007826 0.093786 0.044255
0.007826 0.093786 0.069914
0.010434 0.117005 0.111694
0.013043 0.124710 0.139617
0.015652 0.132416 0.167541
0.018260 0.140122 0.195464
0.020869 0.147828 0.223388
0.023477 0.155533 0.251311
0.026086 0.163239 0.279234
0.028695 0.170945 0.307158
0.031303 0.178650 0.335081
0.033912 0.186356 0.363005
0.036520 0.194062 0.390928
0.039129 0.201767 0.418852
0.041737 0.209473 0.446775
0.044346 0.217179 0.474698
0.046955 0.224884 0.502622
0.049563 0.232590 0.530545
0.052172 0.240296 0.558469
0.054780 0.248001 0.586392
0.057389 0.255707 0.614316
0.059998 0.263413 0.642239
0.062606 0.271119 0.670163
0.065215 0.278824 0.698086
0.067823 0.286530 0.726009
0.070432 0.294236 0.753933
0.073041 0.301941 0.781856
0.075649 0.309647 0.809780
0.078258 0.317353 0.837703
0.096352 0.331776 0.852186
0.128525 0.352572 0.854450
0.031720 0.125048 0.009056
0.010434 0.125048 0.016241
0.010434 0.125048 0.041900
0.010434 0.125048 0.067560
0.010434 0.125048 0.093219
0.013043 0.153438 0.139617
0.015652 0.161143 0.167541
0.018260 0.168849 0.195464
0.020869 0.176555 0.223388
0.023477 0.184261 0.251311
0.026086 0.191966 0.279234
0.028695 0.199672 0.307158
0.031303 0.207378 0.335081
0.033912 0.215083 0.363005
0.036520 0.222789 0.390928
0.039129 0.230495 0.418852
0.041737 0.238200 0.446775
0.044346 0.245906 0.474698
0.046955 0.253612 0.502622
0.049563 0.261317 0.530545
0.052172 0.269023 0.558469
0.054780 0.276729 0.586392
0.057389 0.284435 0.614316
0.059998 0.292140 0.642239
0.062606 0.299846 0.670163
0.065215 0.307552 0.698086
0.067823 0.315257 0.726009
0.070432 0.322963 0.753933
0.073041 0.330669 0.781856
0.075649 0.338374 0.809780
0.078258 0.346080 0.837703
0.096352 0.359533 0.852186
0.128525 0.378564 0.854450
0.039651 0.156311 0.011320
0.013043 0.156311 0.013886
0.013043 0.156311 0.039546
0.013043 0.156311 0.065205
0.013043 0.156311 0.090864
0.013043 0.156311 0.116524
0.015652 0.187573 0.165488
0.018260 0.197577 0.195464
0.020869 0.205282 0.223388
0.023477 0.212988 0.251311
0.026086 0.220694 0.279234
0.028695 0.228399 0.307158
0.031303 0.236105 0.335081
0.033912 0.243811 0.363005
0.036520 0.251516 0.390928
0.039129 0.259222 0.418852
0.041737 0.266928 0.446775
0.044346 0.274633 0.474698
0.046955 0.282339 0.502622
0.049563 0.290045 0.530545
0.052172 0.297750 0.558469
0.054780 0.305456 0.586392
0.057389 0.313162 0.614316
0.059998 0.320868 0.642239
0.062606 0.328573 0.670163
0.065215 0.336279 0.698086
0.067823 0.343985 0.726009
0.070432 0.351690 0.753933
0.073041 0.359396 0.781856
0.075649 0.367102 0.809780
0.078258 0.374807 0.837703
0.096352 0.387289 0.852186
0.128525 0.404555 0.854450
0.047581 0.187573 0.013584
0.018017 0.187573 0.013584
0.015652 0.187573 0.037191
0.015652 0.187573 0.062850
0.015652 0.187573 0.088510
0.015652 0.187573 0.114169
0.015652 0.187573 0.139828
0.018260 0.218835 0.188793
0.020869 0.234010 0.223388
0.023477 0.241715 0.251311
0.026086 0.249421 0.279234
0.028695 0.257127 0.307158
0.031303 0.264832 0.335081
0.033912 0.272538 0.363005
0.036520 0.280244 0.390928
0.039129 0.287949 0.418852
0.041737 0.295655 0.446775
0.044346 0.303361 0.474698
0.046955 0.311066 0.502622
0.049563 0.318772 0.530545
0.052172 0.326478 0.558469
0.054780 0.334183 0.586392
0.057389 0.341889 0.614316
0.059998 0.349595 0.642239
0.062606 0.357301 0.670163
0.065215 0.365006 0.698086
0.067823 0.372712 0.726009
0.070432 0.380418 0.753933
0.073041 0.388123 0.781856
0.075649 0.395829 0.809780
0.078258 0.403535 0.837703
0.096352 0.415046 0.852186
0.128525 0.430546 0.854450
0.055511 0.218835 0.015848
0.025947 0.218835 0.015848
0.018260 0.218835 0.034836
0.018260 0.218835 0.060496
0.018260 0.218835 0.086155
0.018260 0.218835 0.111815
0.018260 0.218835 0.137474
0.018260 0.218835 0.163133
0.020869 0.250097 0.212097
0.023477 0.270443 0.251311
0.026086 0.278148 0.279234
0.028695 0.285854 0.307158
0.031303 0.293560 0.335081
0.033912 0.301265 0.363005
0.036520 0.308971 0.390928
0.039129 0.316677 0.418852
0.041737 0.324382 0.446775
0.044346 0.332088 0.474698
0.046955 0.339794 0.502622
0.049563 0.347499 0.530545
0.052172 0.355205 0.558469
0.054780 0.362911 0.586392
0.057389 0.370617 0.614316
0.059998 0.378322 0.642239
0.062606 0.386028 0.670163
0.065215 0.393734 0.698086
0.067823 0.401439 0.726009
0.070432 0.409145 0.753933
0.073041 0.416851 0.781856
0.075649 0.424556 0.809780
0.078258 0.432262 0.837703
0.096352 0.442803 0.852186
0.128525 0.456538 0.854450
0.063441 0.250097 0.018112
0.033877 0.250097 0.018112
0.020869 0.250097 0.032482
0.020869 0.250097 0.058141
0.020869 0.250097 0.083801
0.020869 0.250097 0.109460
0.020869 0.250097 0.135119
0.020869 0.250097 0.160779
0.020869 0.250097 0.186438
0.023477 0.281359 0.235402
0.026086 0.306876 0.279234
0.028695 0.314581 0.307158
0.031303 0.322287 0.335081
0.033912 0.329993 0.363005
0.036520 0.337698 0.390928
0.039129 0.345404 0.418852
0.041737 0.353110 0.446775
0.044346 0.360815 0.474698
0.046955 0.368521 0.502622
0.049563 0.376227 0.530545
0.052172 0.383933 0.558469
0.054780 0.391638 0.586392
0.057389 0.399344 0.614316
0.059998 0.407050 0.642239
0.062606 0.414755 0.670163
0.065215 0.422461 0.698086
0.067823 0.430167 0.726009
0.070432 0.437872 0.753933
0.073041 0.445578 0.781856
0.075649 0.453284 0.809780
0.078258 0.460989 0.837703
0.096352 0.470559 0.852186
0.128525 0.482529 0.854450
0.071371 0.281359 0.020377
0.041807 0.281359 0.020377
0.023477 0.281359 0.030127
0.023477 0.281359 0.055787
0.023477 0.281359 0.081446
0.023477 0.281359 0.107105
0.023477 0.281359 0.132765
0.023477 0.281359 0.158424
0.023477 0.281359 0.184083
0.023477 0.281359 0.209743
0.026086 0.312621 0.258707
0.028695 0.343309 0.307158
0.031303 0.351014 0.335081
0.033912 0.358720 0.363005
0.036520 0.366426 0.390928
0.039129 0.374131 0.418852
0.041737 0.381837 0.446775
0.044346 0.389543 0.474698
0.046955 0.397248 0.502622
0.049563 0.404954 0.530545
0.052172 0.412660 0.558469
0.054780 0.420366 0.586392
0.057389 0.428071 0.614316
0.059998 0.435777 0.642239
0.062606 0.443483 0.670163
0.065215 0.451188 0.698086
0.067823 0.458894 0.726009
0.070432 0.466600 0.753933
0.073041 0.474305 0.781856
0.075649 0.482011 0.809780
0.078258 0.489717 0.837703
0.096352 0.498316 0.852186
0.128525 0.508521 0.854450
0.079301 0.312621 0.022641
0.049737 0.312621 0.022641
0.026086 0.312621 0.027773
0.026086 0.312621 0.053432
0.026086 0.312621 0.079091
0.026086 0.312621 0.104751
0.026086 0.312621 0.130410
0.026086 0.312621 0.156069
0.026086 0.312621 0.181729
0.026086 0.312621 0.207388
0.026086 0.312621 0.233048
0.028695 0.343883 0.282012
0.031303 0.375145 0.330976
0.033912 0.387447 0.363005
0.036520 0.395153 0.390928
0.039129 0.402859 0.418852
0.041737 0.410564 0.446775
0.044346 0.418270 0.474698
0.046955 0.425976 0.502622
0.049563 0.433681 0.530545
0.052172 0.441387 0.558469
0.054780 0.449093 0.586392
0.057389 0.456799 0.614316
0.059998 0.464504 0.642239
0.062606 0.472210 0.670163
0.065215 0.479916 0.698086
0.067823 0.487621 0.726009
0.070432 0.495327 0.753933
0.073041 0.503033 0.781856
0.075649 0.510738 0.809780
0.078258 0.518444 0.837703
0.096352 0.526072 0.852186
0.128525 0.534512 0.854450
0.087231 0.343883 0.024905
0.057667 0.343883 0.024905
0.028695 0.343883 0.025418
0.028695 0.343883 0.051077
0.028695 0.343883 0.076737
0.028695 0.343883 0.102396
0.028695 0.343883 0.128055
0.028695 0.343883 0.153715
0.028695 0.343883 0.179374
0.028695 0.343883 0.205034
0.028695 0.343883 0.230693
0.028695 0.343883 0.256352
0.031303 0.375145 0.305316
0.033912 0.406407 0.354281
0.036520 0.423880 0.390928
0.039129 0.431586 0.418852
0.041737 0.439292 0.446775
0.044346 0.446997 0.474698
0.046955 0.454703 0.502622
0.049563 0.462409 0.530545
0.052172 0.470115 0.558469
0.054780 0.477820 0.586392
0.057389 0.485526 0.614316
0.059998 0.493232 0.642239
0.062606 0.500937 0.670163
0.065215 0.508643 0.698086
0.067823 0.516349 0.726009
0.070432 0.524054 0.753933
0.073041 0.531760 0.781856
0.075649 0.539466 0.809780
0.078258 0.547171 0.837703
0.096352 0.553829 0.852186
0.128525 0.560503 0.854450
0.095161 0.375145 0.027169
0.065597 0.375145 0.027169
0.036033 0.375145 0.027169
0.031303 0.375145 0.048723
0.031303 0.375145 0.074382
0.031303 0.375145 0.100041
0.031303 0.375145 0.125701
0.031303 0.375145 0.151360
0.031303 0.375145 0.177019
0.031303 0.375145 0.202679
0.031303 0.375145 0.228338
0.031303 0.375145 0.253998
0.031303 0.375145 0.279657
0.033912 0.406407 0.328621
0.036520 0.437670 0.377585
0.039129 0.460313 0.418852
0.041737 0.468019 0.446775
0.044346 0.475725 0.474698
0.046955 0.483430 0.502622
0.049563 0.491136 0.530545
0.052172 0.498842 0.558469
0.054780 0.506548 0.586392
0.057389 0.514253 0.614316
0.059998 0.521959 0.642239
0.062606 0.529665 0.670163
0.065215 0.537370 0.698086
0.067823 0.545076 0.726009
0.070432 0.552782 0.753933
0.073041 0.560487 0.781856
0.075649 0.568193 0.809780
0.078258 0.575899 0.837703
0.096352 0.581585 0.852186
0.128525 0.586495 0.854450
0.103092 0.406407 0.029433
0.073528 0.406407 0.029433
0.043964 0.406407 0.029433
0.033912 0.406407 0.046368
0.033912 0.406407 0.072027
0.033912 0.406407 0.097687
0.033912 0.406407 0.123346
0.033912 0.406407 0.149006
0.033912 0.406407 0.174665
0.033912 0.406407 0.200324
0.033912 0.406407 0.225984
0.033912 0.406407 0.251643
0.033912 0.406407 0.277302
0.033912 0.406407 0.302962
0.036520 0.437670 0.351926
0.039129 0.468932 0.400890
0.041737 0.496746 0.446775
0.044346 0.504452 0.474698
0.046955 0.512158 0.502622
0.049563 0.519864 0.530545
0.052172 0.527569 0.558469
0.054780 0.535275 0.586392
0.057389 0.542981 0.614316
0.059998 0.550686 0.642239
0.062606 0.558392 0.670163
0.065215 0.566098 0.698086
0.067823 0.573803 0.726009
0.070432 0.581509 0.753933
0.073041 0.589215 0.781856
0.075649 0.596920 0.809780
0.078258 0.604626 0.837703
0.096352 0.609342 0.852186
0.128525 0.612486 0.854450
0.111022 0.437670 0.031697
0.081458 0.437670 0.031697
0.051894 0.437670 0.031697
0.036520 0.437670 0.044013
0.036520 0.437670 0.069673
0.036520 0.437670 0.095332
0.036520 0.437670 0.120991
0.036520 0.437670 0.146651
0.036520 0.437670 0.172310
0.036520 0.437670 0.197970
0.036520 0.437670 0.223629
0.036520 0.437670 0.249288
0.036520 0.437670 0.274948
0.036520 0.437670 0.300607
0.036520 0.437670 0.326267
0.039129 0.468932 0.375231
0.041737 0.500194 0.424195
0.044346 0.531456 0.473159
0.046955 0.540885 0.502622
0.049563 0.548591 0.530545
0.052172 0.556297 0.558469
0.054780 0.564002 0.586392
0.057389 0.571708 0.614316
0.059998 0.579414 0.642239
0.062606 0.587119 0.670163
0.065215 0.594825 0.698086
0.067823 0.602531 0.726009
0.070432 0.610236 0.753933
0.073041 0.617942 0.781856
0.075649 0.625648 0.809780
0.078258 0.633353 0.837703
0.096352 0.637098 0.852186
0.128525 0.638478 0.854450
0.118952 0.468932 0.033961
0.089388 0.468932 0.033961
0.059824 0.468932 0.033961
0.039129 0.468932 0.041659
0.039129 0.468932 0.067318
0.039129 0.468932 0.092978
0.039129 0.468932 0.118637
0.039129 0.468932 0.144296
0.039129 0.468932 0.169956
0.039129 0.468932 0.195615
0.039129 0.468932 0.221274
0.039129 0.468932 0.246934
0.039129 0.468932 0.272593
0.039129 0.468932 0.298253
0.039129 0.468932 0.323912
0.039129 0.468932 0.349571
0.041737 0.500194 0.398535
0.044346 0.531456 0.447500
0.046955 0.562718 0.496464
0.049563 0.577318 0.530545
0.052172 0.585024 0.558469
0.054780 0.592730 0.586392
0.057389 0.600435 0.614316
0.059998 0.608141 0.642239
0.062606 0.615847 0.670163
0.065215 0.623552 0.698086
0.067823 0.631258 0.726009
0.070432 0.638964 0.753933
0.073041 0.646669 0.781856
0.075649 0.654375 0.809780
0.078258 0.662081 0.837703
0.096352 0.664855 0.852186
0.128525 0.664469 0.854450
0.126882 0.500194 0.036225
0.097318 0.500194 0.036225
0.067754 0.500194 0.036225
0.041737 0.500194 0.039304
0.041737 0.500194 0.064963
0.041737 0.500194 0.090623
0.041737 0.500194 0.116282
0.041737 0.500194 0.141942
0.041737 0.500194 0.167601
0.041737 0.500194 0.193260
0.041737 0.500194 0.218920
0.041737 0.500194 0.244579
0.041737 0.500194 0.270239
0.041737 0.500194 0.295898
0.041737 0.500194 0.321557
0.041737 0.500194 0.347217
0.041737 0.500194 0.372876
0.044346 0.531456 0.421840
0.046955 0.562718 0.470804
0.049563 0.593980 0.519768
0.052172 0.613751 0.558469
0.054780 0.621457 0.586392
0.057389 0.629163 0.614316
0.059998 0.636868 0.642239
0.062606 0.644574 0.670163
0.065215 0.652280 0.698086
0.067823 0.659985 0.726009
0.070432 0.667691 0.753933
0.073041 0.675397 0.781856
0.075649 0.683102 0.809780
0.078258 0.690808 0.837703
0.096352 0.692611 0.852186
0.128525 0.690460 0.854450
0.134812 0.531456 0.038489
0.105248 0.531456 0.038489
0.075684 0.531456 0.038489
0.046120 0.531456 0.038489
0.044346 0.531456 0.062609
0.044346 0.531456 0.088268
0.044346 0.531456 0.113928
0.044346 0.531456 0.139587
0.044346 0.531456 0.165246
0.044346 0.531456 0.190906
0.044346 0.531456 0.216565
0.044346 0.531456 0.242224
0.044346 0.531456 0.267884
0.044346 0.531456 0.293543
0.044346 0.531456 0.319203
0.044346 0.531456 0.344862
0.044346 0.531456 0.370521
0.044346 0.531456 0.396181
0.046955 0.562718 0.445145
0.049563 0.593980 0.494109
0.052172 0.625242 0.543073
0.054780 0.650184 0.586392
0.057389 0.657890 0.614316
0.059998 0.665596 0.642239
0.062606 0.673301 0.670163
0.065215 0.681007 0.698086
0.067823 0.688713 0.726009
0.070432 0.696418 0.753933
0.073041 0.704124 0.781856
0.075649 0.711830 0.809780
0.078258 0.719535 0.837703
0.096352 0.720368 0.852186
0.128525 0.716452 0.854450
0.142742 0.562718 0.040753
0.113178 0.562718 0.040753
0.083614 0.562718 0.040753
0.054050 0.562718 0.040753
0.046955 0.562718 0.060254
0.046955 0.562718 0.085914
0.046955 0.562718 0.111573
0.046955 0.562718 0.137232
0.046955 0.562718 0.162892
0.046955 0.562718 0.188551
0.046955 0.562718 0.214211
0.046955 0.562718 0.239870
0.046955 0.562718 0.265529
0.046955 0.562718 0.291189
0.046955 0.562718 0.316848
0.046955 0.562718 0.342507
0.046955 0.562718 0.368167
0.046955 0.562718 0.393826
0.046955 0.562718 0.419486
0.049563 0.593980 0.468450
0.052172 0.625242 0.517414
0.054780 0.656504 0.566378
0.057389 0.686617 0.614316
0.059998 0.694323 0.642239
0.062606 0.702029 0.670163
0.065215 0.709734 0.698086
0.067823 0.717440 0.726009
0.070432 0.725146 0.753933
0.073041 0.732851 0.781856
0.075649 0.740557 0.809780
0.078258 0.748263 0.837703
0.096352 0.748124 0.852186
0.128525 0.742443 0.854450
0.150672 0.593980 0.043017
0.121108 0.593980 0.043017
0.091544 0.593980 0.043017
0.061980 0.593980 0.043017
0.049563 0.593980 0.057900
0.049563 0.593980 0.083559
0.049563 0.593980 0.109218
0.049563 0.593980 0.134878
0.049563 0.593980 0.160537
0.049563 0.593980 0.186197
0.049563 0.593980 0.211856
0.049563 0.593980 0.237515
0.049563 0.593980 0.263175
0.049563 0.593980 0.288834
0.049563 0.593980 0.314493
0.049563 0.593980 0.340153
0.049563 0.593980 0.365812
0.049563 0.593980 0.391472
0.049563 0.593980 0.417131
0.049563 0.593980 0.442790
0.052172 0.625242 0.491754
0.054780 0.656504 0.540719
0.057389 0.687766 0.589683
0.059998 0.719029 0.638647
0.062606 0.730756 0.670163
0.065215 0.738462 0.698086
0.067823 0.746167 0.726009
0.070432 0.753873 0.753933
0.073041 0.761579 0.781856
0.075649 0.769284 0.809780
0.078258 0.776990 0.837703
0.096352 0.775881 0.852186
0.128525 0.768435 0.854450
0.158602 0.625242 0.045281
0.129038 0.625242 0.045281
0.099474 0.625242 0.045281
0.069910 0.625242 0.045281
0.052172 0.625242 0.055545
0.052172 0.625242 0.081204
0.052172 0.625242 0.106864
0.052172 0.625242 0.132523
0.052172 0.625242 0.158183
0.052172 0.625242 0.183842
0.052172 0.625242 0.209501
0.052172 0.625242 0.235161
0.052172 0.625242 0.260820
0.052172 0.625242 0.286479
0.052172 0.625242 0.312139
0.052172 0.625242 0.337798
0.052172 0.625242 0.363457
0.052172 0.625242 0.389117
0.052172 0.625242 0.414776
0.052172 0.625242 0.440436
0.052172 0.625242 0.466095
0.054780 0.656504 0.515059
0.057389 0.687766 0.564023
0.059998 0.719029 0.612987
0.062606 0.750291 0.661952
0.065215 0.767189 0.698086
0.067823 0.774895 0.726009
0.070432 0.782600 0.753933
0.073041 0.790306 0.781856
0.075649 0.798012 0.809780
0.078258 0.805717 0.837703
0.096352 0.803637 0.852186
0.128525 0.794426 0.854450
0.166533 0.656504 0.047545
0.136969 0.656504 0.047545
0.107404 0.656504 0.047545
0.077840 0.656504 0.047545
0.054780 0.656504 0.053190
0.054780 0.656504 0.078850
0.054780 0.656504 0.104509
0.054780 0.656504 0.130169
0.054780 0.656504 0.155828
0.054780 0.656504 0.181487
0.054780 0.656504 0.207147
0.054780 0.656504 0.232806
0.054780 0.656504 0.258465
0.054780 0.656504 0.284125
0.054780 0.656504 0.309784
0.054780 0.656504 0.335444
0.054780 0.656504 0.361103
0.054780 0.656504 0.386762
0.054780 0.656504 0.412422
0.054780 0.656504 0.438081
0.054780 0.656504 0.463740
0.054780 0.656504 0.489400
0.057389 0.687766 0.538364
0.059998 0.719029 0.587328
0.062606 0.750291 0.636292
0.065215 0.781553 0.685256
0.067823 0.803622 0.726009
0.070432 0.811328 0.753933
0.073041 0.819033 0.781856
0.075649 0.826739 0.809780
0.078258 0.834445 0.837703
0.096352 0.831394 0.852186
0.128525 0.820418 0.854450
0.174463 0.687766 0.049809
0.144899 0.687766 0.049809
0.115335 0.687766 0.049809
0.085771 0.687766 0.049809
0.057389 0.687766 0.050836
0.057389 0.687766 0.076495
0.057389 0.687766 0.102154
0.057389 0.687766 0.127814
0.057389 0.687766 0.153473
0.057389 0.687766 0.179133
0.057389 0.687766 0.204792
0.057389 0.687766 0.230451
0.057389 0.687766 0.256111
0.057389 0.687766 0.281770
0.057389 0.687766 0.307430
0.057389 0.687766 0.333089
0.057389 0.687766 0.358748
0.057389 0.687766 0.384408
0.057389 0.687766 0.410067
0.057389 0.687766 0.435726
0.057389 0.687766 0.461386
0.057389 0.687766 0.487045
0.057389 0.687766 0.512705
0.059998 0.719029 0.561669
0.062606 0.750291 0.610633
0.065215 0.781553 0.659597
0.067823 0.812815 0.708561
0.070432 0.840055 0.753933
0.073041 0.847761 0.781856
0.075649 0.855467 0.809780
0.078258 0.863172 0.837703
0.096352 0.859150 0.852186
0.128525 0.846409 0.854450
0.182393 0.719029 0.052073
0.152829 0.719029 0.052073
0.123265 0.719029 0.052073
0.093701 0.719029 0.052073
0.064137 0.719029 0.052073
0.059998 0.719029 0.074141
0.059998 0.719029 0.099800
0.059998 0.719029 0.125459
0.059998 0.719029 0.151119
0.059998 0.719029 0.176778
0.059998 0.719029 0.202437
0.059998 0.719029 0.228097
0.059998 0.719029 0.253756
0.059998 0.719029 0.279416
0.059998 0.719029 0.305075
0.059998 0.719029 0.330734
0.059998 0.719029 0.356394
0.059998 0.719029 0.382053
0.059998 0.719029 0.407712
0.059998 0.719029 0.433372
0.059998 0.719029 0.459031
0.059998 0.719029 0.484691
0.059998 0.719029 0.510350
0.059998 0.719029 0.536009
0.062606 0.750291 0.584973
0.065215 0.781553 0.633937
0.067823 0.812815 0.682902
0.070432 0.844077 0.731866
0.073041 0.875339 0.780830
0.075649 0.884194 0.809780
0.078258 0.891900 0.837703
0.096352 0.886907 0.852186
0.128525 0.872400 0.854450
0.190323 0.750291 0.054338
0.160759 0.750291 0.054338
0.131195 0.750291 0.054338
0.101631 0.750291 0.054338
0.072067 0.750291 0.054338
0.062606 0.750291 0.071786
0.062606 0.750291 0.097445
0.062606 0.750291 0.123105
0.062606 0.750291 0.148764
0.062606 0.750291 0.174423
0.062606 0.750291 0.200083
0.062606 0.750291 0.225742
0.062606 0.750291 0.251402
0.062606 0.750291 0.277061
0.062606 0.750291 0.302720
0.062606 0.750291 0.328380
0.062606 0.750291 0.354039
0.062606 0.750291 0.379698
0.062606 0.750291 0.405358
0.062606 0.750291 0.431017
0.062606 0.750291 0.456677
0.062606 0.750291 0.482336
0.062606 0.750291 0.507995
0.062606 0.750291 0.533655
0.062606 0.750291 0.559314
0.065215 0.781553 0.608278
0.067823 0.812815 0.657242
0.070432 0.844077 0.706206
0.073041 0.875339 0.755171
0.075649 0.906601 0.804135
0.078258 0.920627 0.837703
0.096352 0.914663 0.852186
0.128525 0.898392 0.854450
0.198253 0.781553 0.056602
0.168689 0.781553 0.056602
0.139125 0.781553 0.056602
0.109561 0.781553 0.056602
0.079997 0.781553 0.056602
0.065215 0.781553 0.069431
0.065215 0.781553 0.095091
0.065215 0.781553 0.120750
0.065215 0.781553 0.146409
0.065215 0.781553 0.172069
0.065215 0.781553 0.197728
0.065215 0.781553 0.223388
0.065215 0.781553 0.249047
0.065215 0.781553 0.274706
0.065215 0.781553 0.300366
0.065215 0.781553 0.326025
0.065215 0.781553 0.351684
0.065215 0.781553 0.377344
0.065215 0.781553 0.403003
0.065215 0.781553 0.428662
0.065215 0.781553 0.454322
0.065215 0.781553 0.479981
0.065215 0.781553 0.505641
0.065215 0.781553 0.531300
0.065215 0.781553 0.556959
0.065215 0.781553 0.582619
0.067823 0.812815 0.631583
0.070432 0.844077 0.680547
0.073041 0.875339 0.729511
0.075649 0.906601 0.778475
0.078258 0.937863 0.827439
0.096352 0.942420 0.852186
0.128525 0.924383 0.854450
0.206183 0.812815 0.058866
0.176619 0.812815 0.058866
0.147055 0.812815 0.058866
0.117491 0.812815 0.058866
0.087927 0.812815 0.058866
0.067823 0.812815 0.067077
0.067823 0.812815 0.092736
0.067823 0.812815 0.118395
0.067823 0.812815 0.144055
0.067823 0.812815 0.169714
0.067823 0.812815 0.195374
0.067823 0.812815 0.221033
0.067823 0.812815 0.246692
0.067823 0.812815 0.272352
0.067823 0.812815 0.298011
0.067823 0.812815 0.323670
0.067823 0.812815 0.349330
0.067823 0.812815 0.374989
0.067823 0.812815 0.400649
0.067823 0.812815 0.426308
0.067823 0.812815 0.451967
0.067823 0.812815 0.477627
0.067823 0.812815 0.503286
0.067823 0.812815 0.528945
0.067823 0.812815 0.554605
